(Current profile is .../eagleLibs/ULP/profiles/mach.pp  )
(This file generated 23/11/2018 15:18)
(Z Axis Settings)
(  High     Up        Down     Drill)
(3.0000  	3.0000  	-0.0250 	-1.0000 )
(Settings from pcb-defaults.h)
(isolate min = 0.0500)
(isolate max = 0.5500)
(isolate step = 0.2500)
(Generated top outlines, top drill, )
(Unit of measure: mm)
(Metric Mode)
G21
(Absolute Coordinates)
G90
S40000
G00 Z3.0000  
G00 X0.0000  Y0.0000  
M03
G04 P2.000000
G00 X1.0021  Y3.2044  
G01 Z-0.0250 F50    
G01 X1.1344  Y3.0721  F200   
G01 X1.2900  Y2.9681  
G01 X1.4629  Y2.8965  
G01 X1.6464  Y2.8600  
G01 X3.4336  Y2.8600  
G01 X3.6171  Y2.8965  
G01 X3.7900  Y2.9681  
G01 X3.9456  Y3.0721  
G01 X4.0779  Y3.2044  
G01 X4.1485  Y3.3100  
G01 X6.9508  Y3.3100  
G01 X7.0780  Y3.3441  
G01 X7.1920  Y3.4099  
G01 X7.2851  Y3.5030  
G01 X10.7071 Y6.9250  
G01 X12.2798 Y6.9250  
G01 X12.3350 Y6.9478  
G01 X12.3772 Y6.9900  
G01 X12.4000 Y7.0452  
G01 X12.4000 Y8.3048  
G01 X12.3772 Y8.3600  
G01 X12.3350 Y8.4022  
G01 X12.2798 Y8.4250  
G01 X9.2202  Y8.4250  
G01 X9.1650  Y8.4022  
G01 X9.1228  Y8.3600  
G01 X9.1000  Y8.3048  
G01 X9.1000  Y7.0452  
G01 X9.1228  Y6.9900  
G01 X9.1650  Y6.9478  
G01 X9.2202  Y6.9250  
G01 X9.2929  Y6.9250  
G01 X6.6779  Y4.3100  
G01 X4.1485  Y4.3100  
G01 X4.0779  Y4.4156  
G01 X3.9456  Y4.5479  
G01 X3.7900  Y4.6519  
G01 X3.6171  Y4.7235  
G01 X3.4336  Y4.7600  
G01 X1.6464  Y4.7600  
G01 X1.4629  Y4.7235  
G01 X1.2900  Y4.6519  
G01 X1.1344  Y4.5479  
G01 X1.0021  Y4.4156  
G01 X0.8981  Y4.2600  
G01 X0.8265  Y4.0871  
G01 X0.7900  Y3.9036  
G01 X0.7900  Y3.7164  
G01 X0.8265  Y3.5329  
G01 X0.8981  Y3.3600  
G01 X1.0021  Y3.2044  
G00 Z3.0000  
G00 X1.0021  Y5.7444  
G01 Z-0.0250 F50    
G01 X1.1344  Y5.6121  F200   
G01 X1.2900  Y5.5081  
G01 X1.4629  Y5.4365  
G01 X1.6464  Y5.4000  
G01 X3.4336  Y5.4000  
G01 X3.6171  Y5.4365  
G01 X3.7900  Y5.5081  
G01 X3.9456  Y5.6121  
G01 X4.0779  Y5.7444  
G01 X4.1485  Y5.8500  
G01 X5.7808  Y5.8500  
G01 X5.9080  Y5.8841  
G01 X6.0220  Y5.9499  
G01 X6.1151  Y6.0430  
G01 X9.1051  Y9.0330  
G01 X9.1228  Y8.9900  
G01 X9.1650  Y8.9478  
G01 X9.2202  Y8.9250  
G01 X12.2798 Y8.9250  
G01 X12.3350 Y8.9478  
G01 X12.3772 Y8.9900  
G01 X12.4000 Y9.0452  
G01 X12.4000 Y10.3048 
G01 X12.3772 Y10.3600 
G01 X12.3350 Y10.4022 
G01 X12.2798 Y10.4250 
G01 X9.2202  Y10.4250 
G01 X9.1650  Y10.4022 
G01 X9.1228  Y10.3600 
G01 X9.1000  Y10.3048 
G01 X9.1000  Y10.1750 
G01 X8.9742  Y10.1750 
G01 X8.8470  Y10.1409 
G01 X8.7330  Y10.0751 
G01 X8.6399  Y9.9820  
G01 X5.5079  Y6.8500  
G01 X4.1485  Y6.8500  
G01 X4.0779  Y6.9556  
G01 X3.9456  Y7.0879  
G01 X3.7900  Y7.1919  
G01 X3.6171  Y7.2635  
G01 X3.4336  Y7.3000  
G01 X1.6464  Y7.3000  
G01 X1.4629  Y7.2635  
G01 X1.2900  Y7.1919  
G01 X1.1344  Y7.0879  
G01 X1.0021  Y6.9556  
G01 X0.8981  Y6.8000  
G01 X0.8265  Y6.6271  
G01 X0.7900  Y6.4436  
G01 X0.7900  Y6.2564  
G01 X0.8265  Y6.0729  
G01 X0.8981  Y5.9000  
G01 X1.0021  Y5.7444  
G00 Z3.0000  
G00 X1.0021  Y8.2844  
G01 Z-0.0250 F50    
G01 X1.1344  Y8.1521  F200   
G01 X1.2900  Y8.0481  
G01 X1.4629  Y7.9765  
G01 X1.6464  Y7.9400  
G01 X3.4336  Y7.9400  
G01 X3.6171  Y7.9765  
G01 X3.7900  Y8.0481  
G01 X3.9456  Y8.1521  
G01 X4.0779  Y8.2844  
G01 X4.1819  Y8.4400  
G01 X4.2535  Y8.6129  
G01 X4.2900  Y8.7964  
G01 X4.2900  Y8.9836  
G01 X4.2818  Y9.0250  
G01 X5.7808  Y9.0250  
G01 X5.9080  Y9.0591  
G01 X6.0220  Y9.1249  
G01 X7.1921  Y10.2950 
G01 X8.3208  Y10.2950 
G01 X8.4480  Y10.3291 
G01 X8.5620  Y10.3949 
G01 X9.1400  Y10.9729 
G01 X9.1650  Y10.9478 
G01 X9.2202  Y10.9250 
G01 X12.2798 Y10.9250 
G01 X12.3350 Y10.9478 
G01 X12.3772 Y10.9900 
G01 X12.4000 Y11.0452 
G01 X12.4000 Y12.3048 
G01 X12.3772 Y12.3600 
G01 X12.3350 Y12.4022 
G01 X12.2798 Y12.4250 
G01 X9.2202  Y12.4250 
G01 X9.1650  Y12.4022 
G01 X9.1228  Y12.3600 
G01 X9.1000  Y12.3048 
G01 X9.1000  Y12.1750 
G01 X9.0692  Y12.1750 
G01 X8.9420  Y12.1409 
G01 X8.8280  Y12.0751 
G01 X8.0479  Y11.2950 
G01 X6.9192  Y11.2950 
G01 X6.7920  Y11.2609 
G01 X6.6780  Y11.1951 
G01 X6.5849  Y11.1020 
G01 X5.5079  Y10.0250 
G01 X3.7442  Y10.0250 
G01 X3.6170  Y9.9909  
G01 X3.5030  Y9.9251  
G01 X3.4179  Y9.8400  
G01 X1.6464  Y9.8400  
G01 X1.4629  Y9.8035  
G01 X1.2900  Y9.7319  
G01 X1.1344  Y9.6279  
G01 X1.0021  Y9.4956  
G01 X0.8981  Y9.3400  
G01 X0.8265  Y9.1671  
G01 X0.7900  Y8.9836  
G01 X0.7900  Y8.7964  
G01 X0.8265  Y8.6129  
G01 X0.8981  Y8.4400  
G01 X1.0021  Y8.2844  
G00 Z3.0000  
G00 X1.0021  Y10.8244 
G01 Z-0.0250 F50    
G01 X1.1344  Y10.6921 F200   
G01 X1.2900  Y10.5881 
G01 X1.4629  Y10.5165 
G01 X1.6464  Y10.4800 
G01 X3.4336  Y10.4800 
G01 X3.6171  Y10.5165 
G01 X3.7900  Y10.5881 
G01 X3.9456  Y10.6921 
G01 X4.0779  Y10.8244 
G01 X4.1819  Y10.9800 
G01 X4.2535  Y11.1529 
G01 X4.2900  Y11.3364 
G01 X4.2900  Y11.5236 
G01 X4.2818  Y11.5650 
G01 X7.0508  Y11.5650 
G01 X7.1780  Y11.5991 
G01 X7.2920  Y11.6649 
G01 X8.8021  Y13.1750 
G01 X9.1000  Y13.1750 
G01 X9.1000  Y13.0452 
G01 X9.1228  Y12.9900 
G01 X9.1650  Y12.9478 
G01 X9.2202  Y12.9250 
G01 X12.2798 Y12.9250 
G01 X12.3350 Y12.9478 
G01 X12.3772 Y12.9900 
G01 X12.4000 Y13.0452 
G01 X12.4000 Y14.3048 
G01 X12.3772 Y14.3600 
G01 X12.3350 Y14.4022 
G01 X12.2798 Y14.4250 
G01 X9.2202  Y14.4250 
G01 X9.1650  Y14.4022 
G01 X9.1228  Y14.3600 
G01 X9.1000  Y14.3048 
G01 X9.1000  Y14.1750 
G01 X8.5292  Y14.1750 
G01 X8.4020  Y14.1409 
G01 X8.2880  Y14.0751 
G01 X6.7779  Y12.5650 
G01 X3.1092  Y12.5650 
G01 X2.9820  Y12.5309 
G01 X2.8680  Y12.4651 
G01 X2.7829  Y12.3800 
G01 X1.6464  Y12.3800 
G01 X1.4629  Y12.3435 
G01 X1.2900  Y12.2719 
G01 X1.1344  Y12.1679 
G01 X1.0021  Y12.0356 
G01 X0.8981  Y11.8800 
G01 X0.8265  Y11.7071 
G01 X0.7900  Y11.5236 
G01 X0.7900  Y11.3364 
G01 X0.8265  Y11.1529 
G01 X0.8981  Y10.9800 
G01 X1.0021  Y10.8244 
G00 Z3.0000  
G00 X1.0021  Y13.3644 
G01 Z-0.0250 F50    
G01 X1.1344  Y13.2321 F200   
G01 X1.2900  Y13.1281 
G01 X1.4629  Y13.0565 
G01 X1.6464  Y13.0200 
G01 X3.4336  Y13.0200 
G01 X3.6171  Y13.0565 
G01 X3.7900  Y13.1281 
G01 X3.9456  Y13.2321 
G01 X4.0779  Y13.3644 
G01 X4.1485  Y13.4700 
G01 X5.7808  Y13.4700 
G01 X5.9080  Y13.5041 
G01 X6.0220  Y13.5699 
G01 X6.9921  Y14.5400 
G01 X10.1808 Y14.5400 
G01 X10.3080 Y14.5741 
G01 X10.4220 Y14.6399 
G01 X10.5151 Y14.7330 
G01 X10.7071 Y14.9250 
G01 X12.2798 Y14.9250 
G01 X12.3350 Y14.9478 
G01 X12.3772 Y14.9900 
G01 X12.4000 Y15.0452 
G01 X12.4000 Y16.3048 
G01 X12.3772 Y16.3600 
G01 X12.3350 Y16.4022 
G01 X12.2798 Y16.4250 
G01 X9.2202  Y16.4250 
G01 X9.1650  Y16.4022 
G01 X9.1228  Y16.3600 
G01 X9.1000  Y16.3048 
G01 X9.1000  Y15.5400 
G01 X6.7192  Y15.5400 
G01 X6.5920  Y15.5059 
G01 X6.4780  Y15.4401 
G01 X6.3849  Y15.3470 
G01 X5.5079  Y14.4700 
G01 X4.1485  Y14.4700 
G01 X4.0779  Y14.5756 
G01 X3.9456  Y14.7079 
G01 X3.7900  Y14.8119 
G01 X3.6171  Y14.8835 
G01 X3.4336  Y14.9200 
G01 X1.6464  Y14.9200 
G01 X1.4629  Y14.8835 
G01 X1.2900  Y14.8119 
G01 X1.1344  Y14.7079 
G01 X1.0021  Y14.5756 
G01 X0.8981  Y14.4200 
G01 X0.8265  Y14.2471 
G01 X0.7900  Y14.0636 
G01 X0.7900  Y13.8764 
G01 X0.8265  Y13.6929 
G01 X0.8981  Y13.5200 
G01 X1.0021  Y13.3644 
G00 Z3.0000  
G00 X1.0021  Y15.9044 
G01 Z-0.0250 F50    
G01 X1.1344  Y15.7721 F200   
G01 X1.2900  Y15.6681 
G01 X1.4629  Y15.5965 
G01 X1.6464  Y15.5600 
G01 X3.4336  Y15.5600 
G01 X3.6171  Y15.5965 
G01 X3.7900  Y15.6681 
G01 X3.9456  Y15.7721 
G01 X4.0779  Y15.9044 
G01 X4.1485  Y16.0100 
G01 X4.9308  Y16.0100 
G01 X5.0580  Y16.0441 
G01 X5.1720  Y16.1099 
G01 X5.3071  Y16.2450 
G01 X6.1798  Y16.2450 
G01 X6.2350  Y16.2678 
G01 X6.2772  Y16.3100 
G01 X6.3000  Y16.3652 
G01 X6.3000  Y17.9248 
G01 X6.2772  Y17.9800 
G01 X6.2350  Y18.0222 
G01 X6.1798  Y18.0450 
G01 X4.8202  Y18.0450 
G01 X4.7650  Y18.0222 
G01 X4.7228  Y17.9800 
G01 X4.7000  Y17.9248 
G01 X4.7000  Y17.0521 
G01 X4.6579  Y17.0100 
G01 X4.1485  Y17.0100 
G01 X4.0779  Y17.1156 
G01 X3.9456  Y17.2479 
G01 X3.7900  Y17.3519 
G01 X3.6171  Y17.4235 
G01 X3.4336  Y17.4600 
G01 X1.6464  Y17.4600 
G01 X1.4629  Y17.4235 
G01 X1.2900  Y17.3519 
G01 X1.1344  Y17.2479 
G01 X1.0021  Y17.1156 
G01 X0.8981  Y16.9600 
G01 X0.8265  Y16.7871 
G01 X0.7900  Y16.6036 
G01 X0.7900  Y16.4164 
G01 X0.8265  Y16.2329 
G01 X0.8981  Y16.0600 
G01 X1.0021  Y15.9044 
G00 Z3.0000  
G00 X1.0021  Y18.4444 
G01 Z-0.0250 F50    
G01 X1.1344  Y18.3121 F200   
G01 X1.2900  Y18.2081 
G01 X1.4629  Y18.1365 
G01 X1.6464  Y18.1000 
G01 X3.4336  Y18.1000 
G01 X3.6171  Y18.1365 
G01 X3.7900  Y18.2081 
G01 X3.9456  Y18.3121 
G01 X4.0779  Y18.4444 
G01 X4.1485  Y18.5500 
G01 X5.1458  Y18.5500 
G01 X5.2730  Y18.5841 
G01 X5.3870  Y18.6499 
G01 X5.9121  Y19.1750 
G01 X9.1000  Y19.1750 
G01 X9.1000  Y19.0452 
G01 X9.1228  Y18.9900 
G01 X9.1650  Y18.9478 
G01 X9.2202  Y18.9250 
G01 X12.2798 Y18.9250 
G01 X12.3350 Y18.9478 
G01 X12.3772 Y18.9900 
G01 X12.4000 Y19.0452 
G01 X12.4000 Y20.3048 
G01 X12.3772 Y20.3600 
G01 X12.3350 Y20.4022 
G01 X12.2798 Y20.4250 
G01 X9.2202  Y20.4250 
G01 X9.1650  Y20.4022 
G01 X9.1228  Y20.3600 
G01 X9.1000  Y20.3048 
G01 X9.1000  Y20.1750 
G01 X5.6392  Y20.1750 
G01 X5.5120  Y20.1409 
G01 X5.3980  Y20.0751 
G01 X4.8729  Y19.5500 
G01 X4.1485  Y19.5500 
G01 X4.0779  Y19.6556 
G01 X3.9456  Y19.7879 
G01 X3.7900  Y19.8919 
G01 X3.6171  Y19.9635 
G01 X3.4336  Y20.0000 
G01 X1.6464  Y20.0000 
G01 X1.4629  Y19.9635 
G01 X1.2900  Y19.8919 
G01 X1.1344  Y19.7879 
G01 X1.0021  Y19.6556 
G01 X0.8981  Y19.5000 
G01 X0.8265  Y19.3271 
G01 X0.7900  Y19.1436 
G01 X0.7900  Y18.9564 
G01 X0.8265  Y18.7729 
G01 X0.8981  Y18.6000 
G01 X1.0021  Y18.4444 
G00 Z3.0000  
G00 X1.0021  Y20.9844 
G01 Z-0.0250 F50    
G01 X1.1344  Y20.8521 F200   
G01 X1.2900  Y20.7481 
G01 X1.4629  Y20.6765 
G01 X1.6464  Y20.6400 
G01 X3.4336  Y20.6400 
G01 X3.6171  Y20.6765 
G01 X3.7900  Y20.7481 
G01 X3.9456  Y20.8521 
G01 X4.0779  Y20.9844 
G01 X4.1485  Y21.0900 
G01 X9.1000  Y21.0900 
G01 X9.1000  Y21.0452 
G01 X9.1228  Y20.9900 
G01 X9.1650  Y20.9478 
G01 X9.2202  Y20.9250 
G01 X12.2798 Y20.9250 
G01 X12.3350 Y20.9478 
G01 X12.3772 Y20.9900 
G01 X12.4000 Y21.0452 
G01 X12.4000 Y22.3048 
G01 X12.3772 Y22.3600 
G01 X12.3350 Y22.4022 
G01 X12.2798 Y22.4250 
G01 X9.2202  Y22.4250 
G01 X9.1650  Y22.4022 
G01 X9.1228  Y22.3600 
G01 X9.1000  Y22.3048 
G01 X9.1000  Y22.0900 
G01 X4.1485  Y22.0900 
G01 X4.0779  Y22.1956 
G01 X3.9456  Y22.3279 
G01 X3.7900  Y22.4319 
G01 X3.6171  Y22.5035 
G01 X3.4336  Y22.5400 
G01 X1.6464  Y22.5400 
G01 X1.4629  Y22.5035 
G01 X1.2900  Y22.4319 
G01 X1.1344  Y22.3279 
G01 X1.0021  Y22.1956 
G01 X0.8981  Y22.0400 
G01 X0.8265  Y21.8671 
G01 X0.7900  Y21.6836 
G01 X0.7900  Y21.4964 
G01 X0.8265  Y21.3129 
G01 X0.8981  Y21.1400 
G01 X1.0021  Y20.9844 
G00 Z3.0000  
G00 X6.4650  Y18.0222 
G01 Z-0.0250 F50    
G01 X6.4228  Y17.9800 F200   
G01 X6.4000  Y17.9248 
G01 X6.4000  Y16.3652 
G01 X6.4228  Y16.3100 
G01 X6.4650  Y16.2678 
G01 X6.5202  Y16.2450 
G01 X7.8798  Y16.2450 
G01 X7.9350  Y16.2678 
G01 X7.9772  Y16.3100 
G01 X8.0000  Y16.3652 
G01 X8.0000  Y16.6450 
G01 X8.3208  Y16.6450 
G01 X8.4480  Y16.6791 
G01 X8.5620  Y16.7449 
G01 X8.9921  Y17.1750 
G01 X9.1000  Y17.1750 
G01 X9.1000  Y17.0452 
G01 X9.1228  Y16.9900 
G01 X9.1650  Y16.9478 
G01 X9.2202  Y16.9250 
G01 X12.2798 Y16.9250 
G01 X12.3350 Y16.9478 
G01 X12.3772 Y16.9900 
G01 X12.4000 Y17.0452 
G01 X12.4000 Y18.3048 
G01 X12.3772 Y18.3600 
G01 X12.3350 Y18.4022 
G01 X12.2798 Y18.4250 
G01 X9.2202  Y18.4250 
G01 X9.1650  Y18.4022 
G01 X9.1228  Y18.3600 
G01 X9.1000  Y18.3048 
G01 X9.1000  Y18.1750 
G01 X8.7192  Y18.1750 
G01 X8.5920  Y18.1409 
G01 X8.4780  Y18.0751 
G01 X8.0479  Y17.6450 
G01 X8.0000  Y17.6450 
G01 X8.0000  Y17.9248 
G01 X7.9772  Y17.9800 
G01 X7.9350  Y18.0222 
G01 X7.8798  Y18.0450 
G01 X6.5202  Y18.0450 
G01 X6.4650  Y18.0222 
G00 Z3.0000  
G00 X25.5000 Y18.3048 
G01 Z-0.0250 F50    
G01 X25.5000 Y17.0452 F200   
G01 X25.5228 Y16.9900 
G01 X25.5650 Y16.9478 
G01 X25.6202 Y16.9250 
G01 X28.6798 Y16.9250 
G01 X28.7350 Y16.9478 
G01 X28.7772 Y16.9900 
G01 X28.8000 Y17.0452 
G01 X28.8000 Y17.1750 
G01 X32.2829 Y17.1750 
G01 X33.2082 Y16.2497 
G01 X33.2115 Y16.2329 
G01 X33.2831 Y16.0600 
G01 X33.3871 Y15.9044 
G01 X33.5194 Y15.7721 
G01 X33.6750 Y15.6681 
G01 X33.8479 Y15.5965 
G01 X34.0314 Y15.5600 
G01 X35.8186 Y15.5600 
G01 X36.0021 Y15.5965 
G01 X36.1750 Y15.6681 
G01 X36.3306 Y15.7721 
G01 X36.4629 Y15.9044 
G01 X36.5669 Y16.0600 
G01 X36.6385 Y16.2329 
G01 X36.6750 Y16.4164 
G01 X36.6750 Y16.6036 
G01 X36.6385 Y16.7871 
G01 X36.5669 Y16.9600 
G01 X36.4629 Y17.1156 
G01 X36.3306 Y17.2479 
G01 X36.1750 Y17.3519 
G01 X36.0021 Y17.4235 
G01 X35.8186 Y17.4600 
G01 X34.0314 Y17.4600 
G01 X33.8479 Y17.4235 
G01 X33.6750 Y17.3519 
G01 X33.5822 Y17.2899 
G01 X32.7970 Y18.0751 
G01 X32.6830 Y18.1409 
G01 X32.5558 Y18.1750 
G01 X28.8000 Y18.1750 
G01 X28.8000 Y18.3048 
G01 X28.7772 Y18.3600 
G01 X28.7350 Y18.4022 
G01 X28.6798 Y18.4250 
G01 X25.6202 Y18.4250 
G01 X25.5650 Y18.4022 
G01 X25.5228 Y18.3600 
G01 X25.5000 Y18.3048 
G00 Z3.0000  
G00 X25.5228 Y18.9900 
G01 Z-0.0250 F50    
G01 X25.5650 Y18.9478 F200   
G01 X25.6202 Y18.9250 
G01 X28.6798 Y18.9250 
G01 X28.7350 Y18.9478 
G01 X28.7772 Y18.9900 
G01 X28.8000 Y19.0452 
G01 X28.8000 Y19.1750 
G01 X33.1813 Y19.1750 
G01 X33.1750 Y19.1436 
G01 X33.1750 Y18.9564 
G01 X33.2115 Y18.7729 
G01 X33.2831 Y18.6000 
G01 X33.3871 Y18.4444 
G01 X33.5194 Y18.3121 
G01 X33.6750 Y18.2081 
G01 X33.8479 Y18.1365 
G01 X34.0314 Y18.1000 
G01 X35.8186 Y18.1000 
G01 X36.0021 Y18.1365 
G01 X36.1750 Y18.2081 
G01 X36.3306 Y18.3121 
G01 X36.4629 Y18.4444 
G01 X36.5669 Y18.6000 
G01 X36.6385 Y18.7729 
G01 X36.6750 Y18.9564 
G01 X36.6750 Y19.1436 
G01 X36.6385 Y19.3271 
G01 X36.5669 Y19.5000 
G01 X36.4629 Y19.6556 
G01 X36.3306 Y19.7879 
G01 X36.1750 Y19.8919 
G01 X36.0021 Y19.9635 
G01 X35.8186 Y20.0000 
G01 X34.6821 Y20.0000 
G01 X34.6070 Y20.0751 
G01 X34.4930 Y20.1409 
G01 X34.3658 Y20.1750 
G01 X28.8000 Y20.1750 
G01 X28.8000 Y20.3048 
G01 X28.7772 Y20.3600 
G01 X28.7350 Y20.4022 
G01 X28.6798 Y20.4250 
G01 X25.6202 Y20.4250 
G01 X25.5650 Y20.4022 
G01 X25.5228 Y20.3600 
G01 X25.5000 Y20.3048 
G01 X25.5000 Y19.0452 
G01 X25.5228 Y18.9900 
G00 Z3.0000  
G00 X25.5228 Y20.9900 
G01 Z-0.0250 F50    
G01 X25.5650 Y20.9478 F200   
G01 X25.6202 Y20.9250 
G01 X28.6798 Y20.9250 
G01 X28.7350 Y20.9478 
G01 X28.7772 Y20.9900 
G01 X28.8000 Y21.0452 
G01 X28.8000 Y21.0900 
G01 X33.3165 Y21.0900 
G01 X33.3871 Y20.9844 
G01 X33.5194 Y20.8521 
G01 X33.6750 Y20.7481 
G01 X33.8479 Y20.6765 
G01 X34.0314 Y20.6400 
G01 X35.8186 Y20.6400 
G01 X36.0021 Y20.6765 
G01 X36.1750 Y20.7481 
G01 X36.3306 Y20.8521 
G01 X36.4629 Y20.9844 
G01 X36.5669 Y21.1400 
G01 X36.6385 Y21.3129 
G01 X36.6750 Y21.4964 
G01 X36.6750 Y21.6836 
G01 X36.6385 Y21.8671 
G01 X36.5669 Y22.0400 
G01 X36.4629 Y22.1956 
G01 X36.3306 Y22.3279 
G01 X36.1750 Y22.4319 
G01 X36.0021 Y22.5035 
G01 X35.8186 Y22.5400 
G01 X34.0314 Y22.5400 
G01 X33.8479 Y22.5035 
G01 X33.6750 Y22.4319 
G01 X33.5194 Y22.3279 
G01 X33.3871 Y22.1956 
G01 X33.3165 Y22.0900 
G01 X28.8000 Y22.0900 
G01 X28.8000 Y22.3048 
G01 X28.7772 Y22.3600 
G01 X28.7350 Y22.4022 
G01 X28.6798 Y22.4250 
G01 X25.6202 Y22.4250 
G01 X25.5650 Y22.4022 
G01 X25.5228 Y22.3600 
G01 X25.5000 Y22.3048 
G01 X25.5000 Y21.0452 
G01 X25.5228 Y20.9900 
G00 Z3.0000  
G00 X25.5650 Y16.4022 
G01 Z-0.0250 F50    
G01 X25.5228 Y16.3600 F200   
G01 X25.5000 Y16.3048 
G01 X25.5000 Y15.0452 
G01 X25.5228 Y14.9900 
G01 X25.5650 Y14.9478 
G01 X25.6202 Y14.9250 
G01 X28.6798 Y14.9250 
G01 X28.7350 Y14.9478 
G01 X28.7772 Y14.9900 
G01 X28.8000 Y15.0452 
G01 X28.8000 Y15.1750 
G01 X29.2029 Y15.1750 
G01 X29.5380 Y14.8399 
G01 X29.6520 Y14.7741 
G01 X29.7792 Y14.7400 
G01 X32.8129 Y14.7400 
G01 X33.2391 Y14.3138 
G01 X33.2115 Y14.2471 
G01 X33.1750 Y14.0636 
G01 X33.1750 Y13.8764 
G01 X33.2115 Y13.6929 
G01 X33.2831 Y13.5200 
G01 X33.3871 Y13.3644 
G01 X33.5194 Y13.2321 
G01 X33.6750 Y13.1281 
G01 X33.8479 Y13.0565 
G01 X34.0314 Y13.0200 
G01 X35.8186 Y13.0200 
G01 X36.0021 Y13.0565 
G01 X36.1750 Y13.1281 
G01 X36.3306 Y13.2321 
G01 X36.4629 Y13.3644 
G01 X36.5669 Y13.5200 
G01 X36.6385 Y13.6929 
G01 X36.6750 Y13.8764 
G01 X36.6750 Y14.0636 
G01 X36.6385 Y14.2471 
G01 X36.5669 Y14.4200 
G01 X36.4629 Y14.5756 
G01 X36.3306 Y14.7079 
G01 X36.1750 Y14.8119 
G01 X36.0021 Y14.8835 
G01 X35.8186 Y14.9200 
G01 X34.0471 Y14.9200 
G01 X33.4201 Y15.5470 
G01 X33.3270 Y15.6401 
G01 X33.2130 Y15.7059 
G01 X33.0858 Y15.7400 
G01 X30.0521 Y15.7400 
G01 X29.7170 Y16.0751 
G01 X29.6030 Y16.1409 
G01 X29.4758 Y16.1750 
G01 X28.8000 Y16.1750 
G01 X28.8000 Y16.3048 
G01 X28.7772 Y16.3600 
G01 X28.7350 Y16.4022 
G01 X28.6798 Y16.4250 
G01 X25.6202 Y16.4250 
G01 X25.5650 Y16.4022 
G00 Z3.0000  
G00 X25.5650 Y14.4022 
G01 Z-0.0250 F50    
G01 X25.5228 Y14.3600 F200   
G01 X25.5000 Y14.3048 
G01 X25.5000 Y13.0452 
G01 X25.5228 Y12.9900 
G01 X25.5650 Y12.9478 
G01 X25.6202 Y12.9250 
G01 X28.6798 Y12.9250 
G01 X28.7350 Y12.9478 
G01 X28.7772 Y12.9900 
G01 X28.8000 Y13.0452 
G01 X28.8000 Y13.1750 
G01 X30.1190 Y13.1750 
G01 X29.9311 Y12.8496 
G01 X29.9233 Y12.7905 
G01 X29.9388 Y12.7328 
G01 X29.9751 Y12.6855 
G01 X31.1526 Y12.0057 
G01 X31.2118 Y11.9979 
G01 X31.2694 Y12.0133 
G01 X31.3168 Y12.0496 
G01 X32.0966 Y13.4004 
G01 X32.1044 Y13.4595 
G01 X32.0890 Y13.5172 
G01 X32.0526 Y13.5645 
G01 X30.8751 Y14.2443 
G01 X30.8160 Y14.2521 
G01 X30.7583 Y14.2367 
G01 X30.7110 Y14.2004 
G01 X30.6717 Y14.1324 
G01 X30.6569 Y14.1409 
G01 X30.5297 Y14.1750 
G01 X28.8000 Y14.1750 
G01 X28.8000 Y14.3048 
G01 X28.7772 Y14.3600 
G01 X28.7350 Y14.4022 
G01 X28.6798 Y14.4250 
G01 X25.6202 Y14.4250 
G01 X25.5650 Y14.4022 
G00 Z3.0000  
G00 X25.5650 Y12.4022 
G01 Z-0.0250 F50    
G01 X25.5228 Y12.3600 F200   
G01 X25.5000 Y12.3048 
G01 X25.5000 Y11.0452 
G01 X25.5228 Y10.9900 
G01 X25.5650 Y10.9478 
G01 X25.6202 Y10.9250 
G01 X28.6798 Y10.9250 
G01 X28.7350 Y10.9478 
G01 X28.7772 Y10.9900 
G01 X28.8000 Y11.0452 
G01 X28.8000 Y11.1750 
G01 X28.8479 Y11.1750 
G01 X29.3830 Y10.6399 
G01 X29.4970 Y10.5741 
G01 X29.6242 Y10.5400 
G01 X31.2979 Y10.5400 
G01 X33.2082 Y8.6297  
G01 X33.2115 Y8.6129  
G01 X33.2831 Y8.4400  
G01 X33.3871 Y8.2844  
G01 X33.5194 Y8.1521  
G01 X33.6750 Y8.0481  
G01 X33.8479 Y7.9765  
G01 X34.0314 Y7.9400  
G01 X35.8186 Y7.9400  
G01 X36.0021 Y7.9765  
G01 X36.1750 Y8.0481  
G01 X36.3306 Y8.1521  
G01 X36.4629 Y8.2844  
G01 X36.5669 Y8.4400  
G01 X36.6385 Y8.6129  
G01 X36.6750 Y8.7964  
G01 X36.6750 Y8.9836  
G01 X36.6385 Y9.1671  
G01 X36.5669 Y9.3400  
G01 X36.4629 Y9.4956  
G01 X36.3306 Y9.6279  
G01 X36.1750 Y9.7319  
G01 X36.0021 Y9.8035  
G01 X35.8186 Y9.8400  
G01 X34.0314 Y9.8400  
G01 X33.8479 Y9.8035  
G01 X33.6750 Y9.7319  
G01 X33.5822 Y9.6699  
G01 X31.8120 Y11.4401 
G01 X31.6980 Y11.5059 
G01 X31.5708 Y11.5400 
G01 X29.8971 Y11.5400 
G01 X29.4551 Y11.9820 
G01 X29.3620 Y12.0751 
G01 X29.2480 Y12.1409 
G01 X29.1208 Y12.1750 
G01 X28.8000 Y12.1750 
G01 X28.8000 Y12.3048 
G01 X28.7772 Y12.3600 
G01 X28.7350 Y12.4022 
G01 X28.6798 Y12.4250 
G01 X25.6202 Y12.4250 
G01 X25.5650 Y12.4022 
G00 Z3.0000  
G00 X25.5650 Y10.4022 
G01 Z-0.0250 F50    
G01 X25.5228 Y10.3600 F200   
G01 X25.5000 Y10.3048 
G01 X25.5000 Y9.0452  
G01 X25.5228 Y8.9900  
G01 X25.5650 Y8.9478  
G01 X25.6202 Y8.9250  
G01 X28.6798 Y8.9250  
G01 X28.7350 Y8.9478  
G01 X28.7772 Y8.9900  
G01 X28.8000 Y9.0452  
G01 X28.8000 Y9.1750  
G01 X29.5800 Y9.1750  
G01 X29.5800 Y8.4252  
G01 X29.6028 Y8.3700  
G01 X29.6450 Y8.3278  
G01 X29.7002 Y8.3050  
G01 X31.2598 Y8.3050  
G01 X31.3150 Y8.3278  
G01 X31.3572 Y8.3700  
G01 X31.3800 Y8.4252  
G01 X31.3800 Y9.7848  
G01 X31.3572 Y9.8400  
G01 X31.3150 Y9.8822  
G01 X31.2598 Y9.9050  
G01 X30.3871 Y9.9050  
G01 X30.3101 Y9.9820  
G01 X30.2170 Y10.0751 
G01 X30.1030 Y10.1409 
G01 X29.9758 Y10.1750 
G01 X28.8000 Y10.1750 
G01 X28.8000 Y10.3048 
G01 X28.7772 Y10.3600 
G01 X28.7350 Y10.4022 
G01 X28.6798 Y10.4250 
G01 X25.6202 Y10.4250 
G01 X25.5650 Y10.4022 
G00 Z3.0000  
G00 X25.5650 Y8.4022  
G01 Z-0.0250 F50    
G01 X25.5228 Y8.3600  F200   
G01 X25.5000 Y8.3048  
G01 X25.5000 Y7.0452  
G01 X25.5228 Y6.9900  
G01 X25.5650 Y6.9478  
G01 X25.6202 Y6.9250  
G01 X26.6500 Y6.9250  
G01 X26.6500 Y5.8042  
G01 X26.6841 Y5.6770  
G01 X26.7499 Y5.5630  
G01 X26.8430 Y5.4699  
G01 X28.9030 Y3.4099  
G01 X29.0170 Y3.3441  
G01 X29.1442 Y3.3100  
G01 X33.3165 Y3.3100  
G01 X33.3871 Y3.2044  
G01 X33.5194 Y3.0721  
G01 X33.6750 Y2.9681  
G01 X33.8479 Y2.8965  
G01 X34.0314 Y2.8600  
G01 X35.8186 Y2.8600  
G01 X36.0021 Y2.8965  
G01 X36.1750 Y2.9681  
G01 X36.3306 Y3.0721  
G01 X36.4629 Y3.2044  
G01 X36.5669 Y3.3600  
G01 X36.6385 Y3.5329  
G01 X36.6750 Y3.7164  
G01 X36.6750 Y3.9036  
G01 X36.6385 Y4.0871  
G01 X36.5669 Y4.2600  
G01 X36.4629 Y4.4156  
G01 X36.3306 Y4.5479  
G01 X36.1750 Y4.6519  
G01 X36.0021 Y4.7235  
G01 X35.8186 Y4.7600  
G01 X34.0314 Y4.7600  
G01 X33.8479 Y4.7235  
G01 X33.6750 Y4.6519  
G01 X33.5194 Y4.5479  
G01 X33.3871 Y4.4156  
G01 X33.3165 Y4.3100  
G01 X29.4171 Y4.3100  
G01 X27.6500 Y6.0771  
G01 X27.6500 Y6.9250  
G01 X28.6798 Y6.9250  
G01 X28.7350 Y6.9478  
G01 X28.7772 Y6.9900  
G01 X28.8000 Y7.0452  
G01 X28.8000 Y8.3048  
G01 X28.7772 Y8.3600  
G01 X28.7350 Y8.4022  
G01 X28.6798 Y8.4250  
G01 X25.6202 Y8.4250  
G01 X25.5650 Y8.4022  
G00 Z3.0000  
G00 X29.6450 Y8.1822  
G01 Z-0.0250 F50    
G01 X29.6028 Y8.1400  F200   
G01 X29.5800 Y8.0848  
G01 X29.5800 Y6.7252  
G01 X29.6028 Y6.6700  
G01 X29.6450 Y6.6278  
G01 X29.7002 Y6.6050  
G01 X30.7427 Y6.6050  
G01 X31.6412 Y5.9667  
G01 X31.6580 Y5.9499  
G01 X31.6946 Y5.9288  
G01 X31.7291 Y5.9043  
G01 X31.7514 Y5.8960  
G01 X31.7720 Y5.8841  
G01 X31.8128 Y5.8731  
G01 X31.8525 Y5.8584  
G01 X31.8762 Y5.8562  
G01 X31.8992 Y5.8500  
G01 X31.9415 Y5.8500  
G01 X31.9836 Y5.8460  
G01 X32.0070 Y5.8500  
G01 X33.3165 Y5.8500  
G01 X33.3871 Y5.7444  
G01 X33.5194 Y5.6121  
G01 X33.6750 Y5.5081  
G01 X33.8479 Y5.4365  
G01 X34.0314 Y5.4000  
G01 X35.8186 Y5.4000  
G01 X36.0021 Y5.4365  
G01 X36.1750 Y5.5081  
G01 X36.3306 Y5.6121  
G01 X36.4629 Y5.7444  
G01 X36.5669 Y5.9000  
G01 X36.6385 Y6.0729  
G01 X36.6750 Y6.2564  
G01 X36.6750 Y6.4436  
G01 X36.6385 Y6.6271  
G01 X36.5669 Y6.8000  
G01 X36.4629 Y6.9556  
G01 X36.3306 Y7.0879  
G01 X36.1750 Y7.1919  
G01 X36.0021 Y7.2635  
G01 X35.8186 Y7.3000  
G01 X34.0314 Y7.3000  
G01 X33.8479 Y7.2635  
G01 X33.6750 Y7.1919  
G01 X33.5194 Y7.0879  
G01 X33.3871 Y6.9556  
G01 X33.3165 Y6.8500  
G01 X32.1245 Y6.8500  
G01 X31.3800 Y7.3789  
G01 X31.3800 Y8.0848  
G01 X31.3572 Y8.1400  
G01 X31.3150 Y8.1822  
G01 X31.2598 Y8.2050  
G01 X29.7002 Y8.2050  
G01 X29.6450 Y8.1822  
G00 Z3.0000  
G00 X31.4474 Y11.8355 
G01 Z-0.0250 F50    
G01 X32.6249 Y11.1557 F200   
G01 X32.6840 Y11.1479 
G01 X32.7417 Y11.1633 
G01 X32.7890 Y11.1996 
G01 X32.8129 Y11.2411 
G01 X32.9310 Y11.1230 
G01 X33.0241 Y11.0299 
G01 X33.1381 Y10.9641 
G01 X33.2653 Y10.9300 
G01 X33.3165 Y10.9300 
G01 X33.3871 Y10.8244 
G01 X33.5194 Y10.6921 
G01 X33.6750 Y10.5881 
G01 X33.8479 Y10.5165 
G01 X34.0314 Y10.4800 
G01 X35.8186 Y10.4800 
G01 X36.0021 Y10.5165 
G01 X36.1750 Y10.5881 
G01 X36.3306 Y10.6921 
G01 X36.4629 Y10.8244 
G01 X36.5669 Y10.9800 
G01 X36.6385 Y11.1529 
G01 X36.6750 Y11.3364 
G01 X36.6750 Y11.5236 
G01 X36.6385 Y11.7071 
G01 X36.5669 Y11.8800 
G01 X36.4629 Y12.0356 
G01 X36.3306 Y12.1679 
G01 X36.1750 Y12.2719 
G01 X36.0021 Y12.3435 
G01 X35.8186 Y12.3800 
G01 X34.0314 Y12.3800 
G01 X33.8479 Y12.3435 
G01 X33.6750 Y12.2719 
G01 X33.5194 Y12.1679 
G01 X33.4099 Y12.0584 
G01 X33.3306 Y12.1376 
G01 X33.5689 Y12.5504 
G01 X33.5766 Y12.6095 
G01 X33.5612 Y12.6672 
G01 X33.5249 Y12.7145 
G01 X32.3474 Y13.3943 
G01 X32.2882 Y13.4021 
G01 X32.2306 Y13.3867 
G01 X32.1832 Y13.3504 
G01 X31.4034 Y11.9996 
G01 X31.3956 Y11.9405 
G01 X31.4110 Y11.8828 
G01 X31.4474 Y11.8355 
G00 Z3.0000  
G00 X0.8247  Y3.0282  
G01 Z-0.0250 F50    
G01 X0.9583  Y2.8947  F200   
G01 X1.1111  Y2.7837  
G01 X1.2794  Y2.6979  
G01 X1.4590  Y2.6395  
G01 X1.6456  Y2.6100  
G01 X3.4344  Y2.6100  
G01 X3.6210  Y2.6395  
G01 X3.8006  Y2.6979  
G01 X3.9689  Y2.7837  
G01 X4.1217  Y2.8947  
G01 X4.2553  Y3.0282  
G01 X4.2784  Y3.0600  
G01 X6.9589  Y3.0600  
G01 X7.1038  Y3.0888  
G01 X7.2403  Y3.1454  
G01 X7.3631  Y3.2274  
G01 X7.4676  Y3.3319  
G01 X10.8107 Y6.6750  
G01 X12.3027 Y6.6750  
G01 X12.4044 Y6.7023  
G01 X12.4956 Y6.7549  
G01 X12.5701 Y6.8294  
G01 X12.6227 Y6.9206  
G01 X12.6500 Y7.0223  
G01 X12.6500 Y8.3277  
G01 X12.6227 Y8.4294  
G01 X12.5701 Y8.5206  
G01 X12.4956 Y8.5951  
G01 X12.4044 Y8.6477  
G01 X12.3027 Y8.6750  
G01 X9.1973  Y8.6750  
G01 X9.0956  Y8.6477  
G01 X9.0430  Y8.6174  
G01 X9.1211  Y8.6954  
G01 X9.1973  Y8.6750  
G01 X12.3027 Y8.6750  
G01 X12.4044 Y8.7023  
G01 X12.4956 Y8.7549  
G01 X12.5701 Y8.8294  
G01 X12.6227 Y8.9206  
G01 X12.6500 Y9.0223  
G01 X12.6500 Y10.3277 
G01 X12.6227 Y10.4294 
G01 X12.5701 Y10.5206 
G01 X12.4956 Y10.5951 
G01 X12.4044 Y10.6477 
G01 X12.3027 Y10.6750 
G01 X9.1973  Y10.6750 
G01 X12.3027 Y10.6750 
G01 X12.4044 Y10.7023 
G01 X12.4956 Y10.7549 
G01 X12.5701 Y10.8294 
G01 X12.6227 Y10.9206 
G01 X12.6500 Y11.0223 
G01 X12.6500 Y12.3277 
G01 X12.6227 Y12.4294 
G01 X12.5701 Y12.5206 
G01 X12.4956 Y12.5951 
G01 X12.4044 Y12.6477 
G01 X12.3027 Y12.6750 
G01 X9.1973  Y12.6750 
G01 X9.0956  Y12.6477 
G01 X9.0044  Y12.5951 
G01 X8.9299  Y12.5206 
G01 X8.8773  Y12.4294 
G01 X8.8624  Y12.3739 
G01 X8.7797  Y12.3396 
G01 X8.6569  Y12.2576 
G01 X7.9443  Y11.5450 
G01 X7.5256  Y11.5450 
G01 X8.8860  Y12.9054 
G01 X8.9299  Y12.8294 
G01 X9.0044  Y12.7549 
G01 X9.0956  Y12.7023 
G01 X9.1973  Y12.6750 
G01 X12.3027 Y12.6750 
G01 X12.4044 Y12.7023 
G01 X12.4956 Y12.7549 
G01 X12.5701 Y12.8294 
G01 X12.6227 Y12.9206 
G01 X12.6500 Y13.0223 
G01 X12.6500 Y14.3277 
G01 X12.6227 Y14.4294 
G01 X12.5701 Y14.5206 
G01 X12.4956 Y14.5951 
G01 X12.4044 Y14.6477 
G01 X12.3027 Y14.6750 
G01 X10.8107 Y14.6750 
G01 X12.3027 Y14.6750 
G01 X12.4044 Y14.7023 
G01 X12.4956 Y14.7549 
G01 X12.5701 Y14.8294 
G01 X12.6227 Y14.9206 
G01 X12.6500 Y15.0223 
G01 X12.6500 Y16.3277 
G01 X12.6227 Y16.4294 
G01 X12.5701 Y16.5206 
G01 X12.4956 Y16.5951 
G01 X12.4044 Y16.6477 
G01 X12.3027 Y16.6750 
G01 X9.1973  Y16.6750 
G01 X9.0956  Y16.6477 
G01 X9.0044  Y16.5951 
G01 X8.9299  Y16.5206 
G01 X8.8773  Y16.4294 
G01 X8.8500  Y16.3277 
G01 X8.8500  Y15.7900 
G01 X6.7111  Y15.7900 
G01 X6.5662  Y15.7612 
G01 X6.4297  Y15.7046 
G01 X6.3069  Y15.6226 
G01 X6.2024  Y15.5181 
G01 X5.4043  Y14.7200 
G01 X4.2784  Y14.7200 
G01 X4.2553  Y14.7517 
G01 X4.1217  Y14.8853 
G01 X3.9689  Y14.9963 
G01 X3.8006  Y15.0821 
G01 X3.6210  Y15.1404 
G01 X3.4344  Y15.1700 
G01 X1.6456  Y15.1700 
G01 X1.4590  Y15.1404 
G01 X1.2794  Y15.0821 
G01 X1.1111  Y14.9963 
G01 X0.9583  Y14.8853 
G01 X0.8247  Y14.7517 
G01 X0.7137  Y14.5989 
G01 X0.6279  Y14.4306 
G01 X0.5695  Y14.2510 
G01 X0.5400  Y14.0644 
G01 X0.5400  Y13.8756 
G01 X0.5695  Y13.6890 
G01 X0.6279  Y13.5094 
G01 X0.7137  Y13.3411 
G01 X0.8247  Y13.1883 
G01 X0.9583  Y13.0547 
G01 X1.1111  Y12.9437 
G01 X1.2794  Y12.8579 
G01 X1.4590  Y12.7995 
G01 X1.6456  Y12.7700 
G01 X2.9172  Y12.7700 
G01 X2.8197  Y12.7296 
G01 X2.6969  Y12.6476 
G01 X2.6793  Y12.6300 
G01 X1.6456  Y12.6300 
G01 X1.4590  Y12.6005 
G01 X1.2794  Y12.5421 
G01 X1.1111  Y12.4563 
G01 X0.9583  Y12.3453 
G01 X0.8247  Y12.2117 
G01 X0.7137  Y12.0589 
G01 X0.6279  Y11.8906 
G01 X0.5695  Y11.7110 
G01 X0.5400  Y11.5244 
G01 X0.5400  Y11.3356 
G01 X0.5695  Y11.1490 
G01 X0.6279  Y10.9694 
G01 X0.7137  Y10.8011 
G01 X0.8247  Y10.6483 
G01 X0.9583  Y10.5147 
G01 X1.1111  Y10.4037 
G01 X1.2794  Y10.3179 
G01 X1.4590  Y10.2595 
G01 X1.6456  Y10.2300 
G01 X3.4344  Y10.2300 
G01 X3.6210  Y10.2595 
G01 X3.8006  Y10.3179 
G01 X3.9689  Y10.4037 
G01 X4.1217  Y10.5147 
G01 X4.2553  Y10.6483 
G01 X4.3663  Y10.8011 
G01 X4.4521  Y10.9694 
G01 X4.5104  Y11.1490 
G01 X4.5367  Y11.3150 
G01 X6.4443  Y11.3150 
G01 X6.4024  Y11.2731 
G01 X5.4043  Y10.2750 
G01 X3.7361  Y10.2750 
G01 X3.5912  Y10.2462 
G01 X3.4547  Y10.1896 
G01 X3.3319  Y10.1076 
G01 X3.3143  Y10.0900 
G01 X1.6456  Y10.0900 
G01 X1.4590  Y10.0604 
G01 X1.2794  Y10.0021 
G01 X1.1111  Y9.9163  
G01 X0.9583  Y9.8053  
G01 X0.8247  Y9.6717  
G01 X0.7137  Y9.5189  
G01 X0.6279  Y9.3506  
G01 X0.5695  Y9.1710  
G01 X0.5400  Y8.9844  
G01 X0.5400  Y8.7956  
G01 X0.5695  Y8.6090  
G01 X0.6279  Y8.4294  
G01 X0.7137  Y8.2611  
G01 X0.8247  Y8.1082  
G01 X0.9583  Y7.9747  
G01 X1.1111  Y7.8637  
G01 X1.2794  Y7.7779  
G01 X1.4590  Y7.7195  
G01 X1.6456  Y7.6900  
G01 X3.4344  Y7.6900  
G01 X3.6210  Y7.7195  
G01 X3.8006  Y7.7779  
G01 X3.9689  Y7.8637  
G01 X4.1217  Y7.9747  
G01 X4.2553  Y8.1082  
G01 X4.3663  Y8.2611  
G01 X4.4521  Y8.4294  
G01 X4.5104  Y8.6090  
G01 X4.5367  Y8.7750  
G01 X5.7889  Y8.7750  
G01 X5.9338  Y8.8038  
G01 X6.0703  Y8.8604  
G01 X6.1931  Y8.9424  
G01 X7.2957  Y10.0450 
G01 X8.3289  Y10.0450 
G01 X8.3544  Y10.0501 
G01 X5.4043  Y7.1000  
G01 X4.2784  Y7.1000  
G01 X4.2553  Y7.1317  
G01 X4.1217  Y7.2653  
G01 X3.9689  Y7.3763  
G01 X3.8006  Y7.4621  
G01 X3.6210  Y7.5205  
G01 X3.4344  Y7.5500  
G01 X1.6456  Y7.5500  
G01 X1.4590  Y7.5205  
G01 X1.2794  Y7.4621  
G01 X1.1111  Y7.3763  
G01 X0.9583  Y7.2653  
G01 X0.8247  Y7.1317  
G01 X0.7137  Y6.9789  
G01 X0.6279  Y6.8106  
G01 X0.5695  Y6.6310  
G01 X0.5400  Y6.4444  
G01 X0.5400  Y6.2556  
G01 X0.5695  Y6.0690  
G01 X0.6279  Y5.8894  
G01 X0.7137  Y5.7211  
G01 X0.8247  Y5.5682  
G01 X0.9583  Y5.4347  
G01 X1.1111  Y5.3237  
G01 X1.2794  Y5.2379  
G01 X1.4590  Y5.1795  
G01 X1.6456  Y5.1500  
G01 X3.4344  Y5.1500  
G01 X3.6210  Y5.1795  
G01 X3.8006  Y5.2379  
G01 X3.9689  Y5.3237  
G01 X4.1217  Y5.4347  
G01 X4.2553  Y5.5682  
G01 X4.2784  Y5.6000  
G01 X5.7889  Y5.6000  
G01 X5.9338  Y5.6288  
G01 X6.0703  Y5.6854  
G01 X6.1931  Y5.7674  
G01 X6.2976  Y5.8719  
G01 X8.9076  Y8.4820  
G01 X8.8773  Y8.4294  
G01 X8.8500  Y8.3277  
G01 X8.8500  Y7.0223  
G01 X8.8773  Y6.9206  
G01 X8.8984  Y6.8840  
G01 X6.5743  Y4.5600  
G01 X4.2784  Y4.5600  
G01 X4.2553  Y4.5917  
G01 X4.1217  Y4.7253  
G01 X3.9689  Y4.8363  
G01 X3.8006  Y4.9221  
G01 X3.6210  Y4.9805  
G01 X3.4344  Y5.0100  
G01 X1.6456  Y5.0100  
G01 X1.4590  Y4.9805  
G01 X1.2794  Y4.9221  
G01 X1.1111  Y4.8363  
G01 X0.9583  Y4.7253  
G01 X0.8247  Y4.5917  
G01 X0.7137  Y4.4389  
G01 X0.6279  Y4.2706  
G01 X0.5695  Y4.0910  
G01 X0.5400  Y3.9044  
G01 X0.5400  Y3.7156  
G01 X0.5695  Y3.5290  
G01 X0.6279  Y3.3494  
G01 X0.7137  Y3.1811  
G01 X0.8247  Y3.0282  
G00 Z3.0000  
G00 X3.6685  Y12.8150 
G01 Z-0.0250 F50    
G01 X3.8006  Y12.8579 F200   
G01 X3.9689  Y12.9437 
G01 X4.1217  Y13.0547 
G01 X4.2553  Y13.1883 
G01 X4.2784  Y13.2200 
G01 X5.7889  Y13.2200 
G01 X5.9338  Y13.2488 
G01 X6.0703  Y13.3054 
G01 X6.1931  Y13.3874 
G01 X7.0957  Y14.2900 
G01 X8.1655  Y14.2900 
G01 X8.1169  Y14.2576 
G01 X6.6743  Y12.8150 
G01 X3.6685  Y12.8150 
G00 Z3.0000  
G00 X3.6210  Y15.3395 
G01 Z-0.0250 F50    
G01 X3.8006  Y15.3979 F200   
G01 X3.9689  Y15.4837 
G01 X4.1217  Y15.5947 
G01 X4.2553  Y15.7282 
G01 X4.2784  Y15.7600 
G01 X4.9389  Y15.7600 
G01 X5.0838  Y15.7888 
G01 X5.2203  Y15.8454 
G01 X5.3431  Y15.9274 
G01 X5.4107  Y15.9950 
G01 X6.2027  Y15.9950 
G01 X6.3044  Y16.0223 
G01 X6.3500  Y16.0486 
G01 X6.3956  Y16.0223 
G01 X6.4973  Y15.9950 
G01 X7.9027  Y15.9950 
G01 X8.0044  Y16.0223 
G01 X8.0956  Y16.0749 
G01 X8.1701  Y16.1494 
G01 X8.2227  Y16.2406 
G01 X8.2500  Y16.3423 
G01 X8.2500  Y16.3950 
G01 X8.3289  Y16.3950 
G01 X8.4738  Y16.4238 
G01 X8.6103  Y16.4804 
G01 X8.7331  Y16.5624 
G01 X8.9650  Y16.7943 
G01 X9.0044  Y16.7549 
G01 X9.0956  Y16.7023 
G01 X9.1973  Y16.6750 
G01 X12.3027 Y16.6750 
G01 X12.4044 Y16.7023 
G01 X12.4956 Y16.7549 
G01 X12.5701 Y16.8294 
G01 X12.6227 Y16.9206 
G01 X12.6500 Y17.0223 
G01 X12.6500 Y18.3277 
G01 X12.6227 Y18.4294 
G01 X12.5701 Y18.5206 
G01 X12.4956 Y18.5951 
G01 X12.4044 Y18.6477 
G01 X12.3027 Y18.6750 
G01 X9.1973  Y18.6750 
G01 X9.0956  Y18.6477 
G01 X9.0044  Y18.5951 
G01 X8.9299  Y18.5206 
G01 X8.8773  Y18.4294 
G01 X8.7111  Y18.4250 
G01 X8.5662  Y18.3962 
G01 X8.4297  Y18.3396 
G01 X8.3069  Y18.2576 
G01 X8.1774  Y18.1280 
G01 X8.1701  Y18.1406 
G01 X8.0956  Y18.2151 
G01 X8.0044  Y18.2677 
G01 X7.9027  Y18.2950 
G01 X6.4973  Y18.2950 
G01 X6.3956  Y18.2677 
G01 X6.3500  Y18.2414 
G01 X6.3044  Y18.2677 
G01 X6.2027  Y18.2950 
G01 X4.7973  Y18.2950 
G01 X4.6956  Y18.2677 
G01 X4.6044  Y18.2151 
G01 X4.5299  Y18.1406 
G01 X4.4773  Y18.0494 
G01 X4.4500  Y17.9477 
G01 X4.4500  Y17.2600 
G01 X4.2784  Y17.2600 
G01 X4.2553  Y17.2917 
G01 X4.1217  Y17.4253 
G01 X3.9689  Y17.5363 
G01 X3.8006  Y17.6221 
G01 X3.6210  Y17.6805 
G01 X3.4344  Y17.7100 
G01 X1.6456  Y17.7100 
G01 X1.4590  Y17.6805 
G01 X1.2794  Y17.6221 
G01 X1.1111  Y17.5363 
G01 X0.9583  Y17.4253 
G01 X0.8247  Y17.2917 
G01 X0.7137  Y17.1389 
G01 X0.6279  Y16.9706 
G01 X0.5695  Y16.7910 
G01 X0.5400  Y16.6044 
G01 X0.5400  Y16.4156 
G01 X0.5695  Y16.2290 
G01 X0.6279  Y16.0494 
G01 X0.7137  Y15.8811 
G01 X0.8247  Y15.7282 
G01 X0.9583  Y15.5947 
G01 X1.1111  Y15.4837 
G01 X1.2794  Y15.3979 
G01 X1.4590  Y15.3395 
G01 X1.6456  Y15.3100 
G01 X3.4344  Y15.3100 
G01 X3.6210  Y15.3395 
G00 Z3.0000  
G00 X3.6210  Y17.8795 
G01 Z-0.0250 F50    
G01 X3.8006  Y17.9379 F200   
G01 X3.9689  Y18.0237 
G01 X4.1217  Y18.1347 
G01 X4.2553  Y18.2682 
G01 X4.2784  Y18.3000 
G01 X5.1539  Y18.3000 
G01 X5.2988  Y18.3288 
G01 X5.4353  Y18.3854 
G01 X5.5581  Y18.4674 
G01 X6.0157  Y18.9250 
G01 X8.8761  Y18.9250 
G01 X8.9299  Y18.8294 
G01 X9.0044  Y18.7549 
G01 X9.0956  Y18.7023 
G01 X9.1973  Y18.6750 
G01 X12.3027 Y18.6750 
G01 X12.4044 Y18.7023 
G01 X12.4956 Y18.7549 
G01 X12.5701 Y18.8294 
G01 X12.6227 Y18.9206 
G01 X12.6500 Y19.0223 
G01 X12.6500 Y20.3277 
G01 X12.6227 Y20.4294 
G01 X12.5701 Y20.5206 
G01 X12.4956 Y20.5951 
G01 X12.4044 Y20.6477 
G01 X12.3027 Y20.6750 
G01 X9.1973  Y20.6750 
G01 X9.0956  Y20.6477 
G01 X9.0044  Y20.5951 
G01 X8.9299  Y20.5206 
G01 X8.8773  Y20.4294 
G01 X5.6311  Y20.4250 
G01 X5.4862  Y20.3962 
G01 X5.3497  Y20.3396 
G01 X5.2269  Y20.2576 
G01 X4.7693  Y19.8000 
G01 X4.2784  Y19.8000 
G01 X4.2553  Y19.8317 
G01 X4.1217  Y19.9653 
G01 X3.9689  Y20.0763 
G01 X3.8006  Y20.1621 
G01 X3.6210  Y20.2204 
G01 X3.4344  Y20.2500 
G01 X1.6456  Y20.2500 
G01 X1.4590  Y20.2204 
G01 X1.2794  Y20.1621 
G01 X1.1111  Y20.0763 
G01 X0.9583  Y19.9653 
G01 X0.8247  Y19.8317 
G01 X0.7137  Y19.6789 
G01 X0.6279  Y19.5106 
G01 X0.5695  Y19.3310 
G01 X0.5400  Y19.1444 
G01 X0.5400  Y18.9556 
G01 X0.5695  Y18.7690 
G01 X0.6279  Y18.5894 
G01 X0.7137  Y18.4211 
G01 X0.8247  Y18.2682 
G01 X0.9583  Y18.1347 
G01 X1.1111  Y18.0237 
G01 X1.2794  Y17.9379 
G01 X1.4590  Y17.8795 
G01 X1.6456  Y17.8500 
G01 X3.4344  Y17.8500 
G01 X3.6210  Y17.8795 
G00 Z3.0000  
G00 X3.6210  Y20.4195 
G01 Z-0.0250 F50    
G01 X3.8006  Y20.4779 F200   
G01 X3.9689  Y20.5637 
G01 X4.1217  Y20.6747 
G01 X4.2553  Y20.8083 
G01 X4.2784  Y20.8400 
G01 X8.9238  Y20.8400 
G01 X9.0044  Y20.7549 
G01 X9.0956  Y20.7023 
G01 X9.1973  Y20.6750 
G01 X12.3027 Y20.6750 
G01 X12.4044 Y20.7023 
G01 X12.4956 Y20.7549 
G01 X12.5701 Y20.8294 
G01 X12.6227 Y20.9206 
G01 X12.6500 Y21.0223 
G01 X12.6500 Y22.3277 
G01 X12.6227 Y22.4294 
G01 X12.5701 Y22.5206 
G01 X12.4956 Y22.5951 
G01 X12.4044 Y22.6477 
G01 X12.3027 Y22.6750 
G01 X9.1973  Y22.6750 
G01 X9.0956  Y22.6477 
G01 X9.0044  Y22.5951 
G01 X8.9299  Y22.5206 
G01 X8.8773  Y22.4294 
G01 X8.8533  Y22.3400 
G01 X4.2784  Y22.3400 
G01 X4.2553  Y22.3717 
G01 X4.1217  Y22.5053 
G01 X3.9689  Y22.6163 
G01 X3.8006  Y22.7021 
G01 X3.6210  Y22.7604 
G01 X3.4344  Y22.7900 
G01 X1.6456  Y22.7900 
G01 X1.4590  Y22.7604 
G01 X1.2794  Y22.7021 
G01 X1.1111  Y22.6163 
G01 X0.9583  Y22.5053 
G01 X0.8247  Y22.3717 
G01 X0.7137  Y22.2189 
G01 X0.6279  Y22.0506 
G01 X0.5695  Y21.8710 
G01 X0.5400  Y21.6844 
G01 X0.5400  Y21.4956 
G01 X0.5695  Y21.3090 
G01 X0.6279  Y21.1294 
G01 X0.7137  Y20.9611 
G01 X0.8247  Y20.8083 
G01 X0.9583  Y20.6747 
G01 X1.1111  Y20.5637 
G01 X1.2794  Y20.4779 
G01 X1.4590  Y20.4195 
G01 X1.6456  Y20.3900 
G01 X3.4344  Y20.3900 
G01 X3.6210  Y20.4195 
G00 Z3.0000  
G00 X25.2773 Y20.4294 
G01 Z-0.0250 F50    
G01 X25.2500 Y20.3277 F200   
G01 X25.2500 Y19.0223 
G01 X25.2773 Y18.9206 
G01 X25.3299 Y18.8294 
G01 X25.4044 Y18.7549 
G01 X25.4956 Y18.7023 
G01 X25.5973 Y18.6750 
G01 X28.7027 Y18.6750 
G01 X28.8044 Y18.7023 
G01 X28.8956 Y18.7549 
G01 X28.9701 Y18.8294 
G01 X29.0227 Y18.9206 
G01 X32.9298 Y18.9250 
G01 X32.9545 Y18.7690 
G01 X33.0129 Y18.5894 
G01 X33.0987 Y18.4211 
G01 X33.2097 Y18.2682 
G01 X33.3432 Y18.1347 
G01 X33.4961 Y18.0237 
G01 X33.6644 Y17.9379 
G01 X33.8440 Y17.8795 
G01 X34.0306 Y17.8500 
G01 X35.8194 Y17.8500 
G01 X36.0060 Y17.8795 
G01 X36.1856 Y17.9379 
G01 X36.3539 Y18.0237 
G01 X36.5067 Y18.1347 
G01 X36.6403 Y18.2682 
G01 X36.7513 Y18.4211 
G01 X36.8371 Y18.5894 
G01 X36.8954 Y18.7690 
G01 X36.9250 Y18.9556 
G01 X36.9250 Y19.1444 
G01 X36.8954 Y19.3310 
G01 X36.8371 Y19.5106 
G01 X36.7513 Y19.6789 
G01 X36.6403 Y19.8317 
G01 X36.5067 Y19.9653 
G01 X36.3539 Y20.0763 
G01 X36.1856 Y20.1621 
G01 X36.0060 Y20.2204 
G01 X35.8194 Y20.2500 
G01 X34.7857 Y20.2500 
G01 X34.6553 Y20.3396 
G01 X34.5337 Y20.3900 
G01 X35.8194 Y20.3900 
G01 X36.0060 Y20.4195 
G01 X36.1856 Y20.4779 
G01 X36.3539 Y20.5637 
G01 X36.5067 Y20.6747 
G01 X36.6403 Y20.8083 
G01 X36.7513 Y20.9611 
G01 X36.8371 Y21.1294 
G01 X36.8954 Y21.3090 
G01 X36.9250 Y21.4956 
G01 X36.9250 Y21.6844 
G01 X36.8954 Y21.8710 
G01 X36.8371 Y22.0506 
G01 X36.7513 Y22.2189 
G01 X36.6403 Y22.3717 
G01 X36.5067 Y22.5053 
G01 X36.3539 Y22.6163 
G01 X36.1856 Y22.7021 
G01 X36.0060 Y22.7604 
G01 X35.8194 Y22.7900 
G01 X34.0306 Y22.7900 
G01 X33.8440 Y22.7604 
G01 X33.6644 Y22.7021 
G01 X33.4961 Y22.6163 
G01 X33.3432 Y22.5053 
G01 X33.2097 Y22.3717 
G01 X33.1866 Y22.3400 
G01 X29.0467 Y22.3400 
G01 X29.0227 Y22.4294 
G01 X28.9701 Y22.5206 
G01 X28.8956 Y22.5951 
G01 X28.8044 Y22.6477 
G01 X28.7027 Y22.6750 
G01 X25.5973 Y22.6750 
G01 X25.4956 Y22.6477 
G01 X25.4044 Y22.5951 
G01 X25.3299 Y22.5206 
G01 X25.2773 Y22.4294 
G01 X25.2500 Y22.3277 
G01 X25.2500 Y21.0223 
G01 X25.2773 Y20.9206 
G01 X25.3299 Y20.8294 
G01 X25.4044 Y20.7549 
G01 X25.4956 Y20.7023 
G01 X25.5973 Y20.6750 
G01 X28.7027 Y20.6750 
G01 X28.8044 Y20.7023 
G01 X28.8956 Y20.7549 
G01 X28.9701 Y20.8294 
G01 X33.1866 Y20.8400 
G01 X33.2097 Y20.8083 
G01 X33.3432 Y20.6747 
G01 X33.4961 Y20.5637 
G01 X33.6644 Y20.4779 
G01 X33.8272 Y20.4250 
G01 X29.0239 Y20.4250 
G01 X28.9701 Y20.5206 
G01 X28.8956 Y20.5951 
G01 X28.8044 Y20.6477 
G01 X28.7027 Y20.6750 
G01 X25.5973 Y20.6750 
G01 X25.4956 Y20.6477 
G01 X25.4044 Y20.5951 
G01 X25.3299 Y20.5206 
G01 X25.2773 Y20.4294 
G00 Z3.0000  
G00 X25.4044 Y18.5951 
G01 Z-0.0250 F50    
G01 X25.3299 Y18.5206 F200   
G01 X25.2773 Y18.4294 
G01 X25.2500 Y18.3277 
G01 X25.2500 Y17.0223 
G01 X25.2773 Y16.9206 
G01 X25.3299 Y16.8294 
G01 X25.4044 Y16.7549 
G01 X25.4956 Y16.7023 
G01 X25.5973 Y16.6750 
G01 X28.7027 Y16.6750 
G01 X28.8044 Y16.7023 
G01 X28.8956 Y16.7549 
G01 X28.9701 Y16.8294 
G01 X29.0227 Y16.9206 
G01 X32.1793 Y16.9250 
G01 X32.9927 Y16.1117 
G01 X33.0129 Y16.0494 
G01 X33.0432 Y15.9900 
G01 X30.1557 Y15.9900 
G01 X29.8881 Y16.2576 
G01 X29.7653 Y16.3396 
G01 X29.6288 Y16.3962 
G01 X29.4839 Y16.4250 
G01 X29.0239 Y16.4250 
G01 X28.9701 Y16.5206 
G01 X28.8956 Y16.5951 
G01 X28.8044 Y16.6477 
G01 X28.7027 Y16.6750 
G01 X25.5973 Y16.6750 
G01 X25.4956 Y16.6477 
G01 X25.4044 Y16.5951 
G01 X25.3299 Y16.5206 
G01 X25.2773 Y16.4294 
G01 X25.2500 Y16.3277 
G01 X25.2500 Y15.0223 
G01 X25.2773 Y14.9206 
G01 X25.3299 Y14.8294 
G01 X25.4044 Y14.7549 
G01 X25.4956 Y14.7023 
G01 X25.5973 Y14.6750 
G01 X28.7027 Y14.6750 
G01 X28.8044 Y14.7023 
G01 X28.8956 Y14.7549 
G01 X28.9701 Y14.8294 
G01 X29.0227 Y14.9206 
G01 X29.0993 Y14.9250 
G01 X29.3669 Y14.6574 
G01 X29.4897 Y14.5754 
G01 X29.6262 Y14.5188 
G01 X29.7711 Y14.4900 
G01 X30.7378 Y14.4900 
G01 X30.6716 Y14.4723 
G01 X30.5804 Y14.4196 
G01 X30.5377 Y14.4250 
G01 X29.0239 Y14.4250 
G01 X28.9701 Y14.5206 
G01 X28.8956 Y14.5951 
G01 X28.8044 Y14.6477 
G01 X28.7027 Y14.6750 
G01 X25.5973 Y14.6750 
G01 X25.4956 Y14.6477 
G01 X25.4044 Y14.5951 
G01 X25.3299 Y14.5206 
G01 X25.2773 Y14.4294 
G01 X25.2500 Y14.3277 
G01 X25.2500 Y13.0223 
G01 X25.2773 Y12.9206 
G01 X25.3299 Y12.8294 
G01 X25.4044 Y12.7549 
G01 X25.4956 Y12.7023 
G01 X25.5973 Y12.6750 
G01 X28.7027 Y12.6750 
G01 X28.8044 Y12.7023 
G01 X28.8956 Y12.7549 
G01 X28.9701 Y12.8294 
G01 X29.0227 Y12.9206 
G01 X29.6952 Y12.9250 
G01 X29.6760 Y12.8531 
G01 X29.6760 Y12.7478 
G01 X29.7032 Y12.6461 
G01 X29.7559 Y12.5549 
G01 X29.8304 Y12.4804 
G01 X31.0262 Y11.7900 
G01 X30.0007 Y11.7900 
G01 X29.6376 Y12.1531 
G01 X29.5331 Y12.2576 
G01 X29.4103 Y12.3396 
G01 X29.2738 Y12.3962 
G01 X29.1289 Y12.4250 
G01 X29.0239 Y12.4250 
G01 X28.9701 Y12.5206 
G01 X28.8956 Y12.5951 
G01 X28.8044 Y12.6477 
G01 X28.7027 Y12.6750 
G01 X25.5973 Y12.6750 
G01 X25.4956 Y12.6477 
G01 X25.4044 Y12.5951 
G01 X25.3299 Y12.5206 
G01 X25.2773 Y12.4294 
G01 X25.2500 Y12.3277 
G01 X25.2500 Y11.0223 
G01 X25.2773 Y10.9206 
G01 X25.3299 Y10.8294 
G01 X25.4044 Y10.7549 
G01 X25.4956 Y10.7023 
G01 X25.5973 Y10.6750 
G01 X28.7027 Y10.6750 
G01 X28.8044 Y10.7023 
G01 X28.8956 Y10.7549 
G01 X29.2119 Y10.4574 
G01 X29.2605 Y10.4250 
G01 X29.0239 Y10.4250 
G01 X28.9701 Y10.5206 
G01 X28.8956 Y10.5951 
G01 X28.8044 Y10.6477 
G01 X28.7027 Y10.6750 
G01 X25.5973 Y10.6750 
G01 X25.4956 Y10.6477 
G01 X25.4044 Y10.5951 
G01 X25.3299 Y10.5206 
G01 X25.2773 Y10.4294 
G01 X25.2500 Y10.3277 
G01 X25.2500 Y9.0223  
G01 X25.2773 Y8.9206  
G01 X25.3299 Y8.8294  
G01 X25.4044 Y8.7549  
G01 X25.4956 Y8.7023  
G01 X25.5973 Y8.6750  
G01 X28.7027 Y8.6750  
G01 X28.8044 Y8.7023  
G01 X28.8956 Y8.7549  
G01 X28.9701 Y8.8294  
G01 X29.0227 Y8.9206  
G01 X29.3300 Y8.9250  
G01 X29.3300 Y8.4023  
G01 X29.3573 Y8.3006  
G01 X29.3836 Y8.2550  
G01 X29.3573 Y8.2094  
G01 X29.3300 Y8.1077  
G01 X29.3300 Y6.7023  
G01 X29.3573 Y6.6006  
G01 X29.4099 Y6.5094  
G01 X29.4844 Y6.4349  
G01 X29.5756 Y6.3823  
G01 X29.6773 Y6.3550  
G01 X30.6630 Y6.3550  
G01 X31.4793 Y5.7751  
G01 X31.5393 Y5.7324  
G01 X31.5908 Y5.6958  
G01 X31.6097 Y5.6854  
G01 X31.6680 Y5.6612  
G01 X31.7257 Y5.6354  
G01 X31.7462 Y5.6288  
G01 X31.8082 Y5.6165  
G01 X31.8697 Y5.6024  
G01 X31.8911 Y5.6000  
G01 X31.9543 Y5.6000  
G01 X32.0174 Y5.5982  
G01 X33.1866 Y5.6000  
G01 X33.2097 Y5.5682  
G01 X33.3432 Y5.4347  
G01 X33.4961 Y5.3237  
G01 X33.6644 Y5.2379  
G01 X33.8440 Y5.1795  
G01 X34.0306 Y5.1500  
G01 X35.8194 Y5.1500  
G01 X36.0060 Y5.1795  
G01 X36.1856 Y5.2379  
G01 X36.3539 Y5.3237  
G01 X36.5067 Y5.4347  
G01 X36.6403 Y5.5682  
G01 X36.7513 Y5.7211  
G01 X36.8371 Y5.8894  
G01 X36.8954 Y6.0690  
G01 X36.9250 Y6.2556  
G01 X36.9250 Y6.4444  
G01 X36.8954 Y6.6310  
G01 X36.8371 Y6.8106  
G01 X36.7513 Y6.9789  
G01 X36.6403 Y7.1317  
G01 X36.5067 Y7.2653  
G01 X36.3539 Y7.3763  
G01 X36.1856 Y7.4621  
G01 X36.0060 Y7.5205  
G01 X35.8194 Y7.5500  
G01 X34.0306 Y7.5500  
G01 X33.8440 Y7.5205  
G01 X33.6644 Y7.4621  
G01 X33.4961 Y7.3763  
G01 X33.3432 Y7.2653  
G01 X33.2097 Y7.1317  
G01 X33.1866 Y7.1000  
G01 X32.2043 Y7.1000  
G01 X31.6300 Y7.5080  
G01 X31.6300 Y8.1077  
G01 X31.6027 Y8.2094  
G01 X31.5764 Y8.2550  
G01 X31.6027 Y8.3006  
G01 X31.6300 Y8.4023  
G01 X31.6300 Y9.8077  
G01 X31.6129 Y9.8714  
G01 X32.9927 Y8.4917  
G01 X33.0129 Y8.4294  
G01 X33.0987 Y8.2611  
G01 X33.2097 Y8.1082  
G01 X33.3432 Y7.9747  
G01 X33.4961 Y7.8637  
G01 X33.6644 Y7.7779  
G01 X33.8440 Y7.7195  
G01 X34.0306 Y7.6900  
G01 X35.8194 Y7.6900  
G01 X36.0060 Y7.7195  
G01 X36.1856 Y7.7779  
G01 X36.3539 Y7.8637  
G01 X36.5067 Y7.9747  
G01 X36.6403 Y8.1082  
G01 X36.7513 Y8.2611  
G01 X36.8371 Y8.4294  
G01 X36.8954 Y8.6090  
G01 X36.9250 Y8.7956  
G01 X36.9250 Y8.9844  
G01 X36.8954 Y9.1710  
G01 X36.8371 Y9.3506  
G01 X36.7513 Y9.5189  
G01 X36.6403 Y9.6717  
G01 X36.5067 Y9.8053  
G01 X36.3539 Y9.9163  
G01 X36.1856 Y10.0021 
G01 X36.0060 Y10.0604 
G01 X35.8194 Y10.0900 
G01 X34.0306 Y10.0900 
G01 X33.8440 Y10.0604 
G01 X33.6644 Y10.0021 
G01 X33.6241 Y9.9816  
G01 X32.7052 Y10.9005 
G01 X32.7267 Y10.9005 
G01 X32.7845 Y10.9160 
G01 X32.8530 Y10.8474 
G01 X32.9759 Y10.7654 
G01 X33.1123 Y10.7088 
G01 X33.1747 Y10.6964 
G01 X33.2097 Y10.6483 
G01 X33.3432 Y10.5147 
G01 X33.4961 Y10.4037 
G01 X33.6644 Y10.3179 
G01 X33.8440 Y10.2595 
G01 X34.0306 Y10.2300 
G01 X35.8194 Y10.2300 
G01 X36.0060 Y10.2595 
G01 X36.1856 Y10.3179 
G01 X36.3539 Y10.4037 
G01 X36.5067 Y10.5147 
G01 X36.6403 Y10.6483 
G01 X36.7513 Y10.8011 
G01 X36.8371 Y10.9694 
G01 X36.8954 Y11.1490 
G01 X36.9250 Y11.3356 
G01 X36.9250 Y11.5244 
G01 X36.8954 Y11.7110 
G01 X36.8371 Y11.8906 
G01 X36.7513 Y12.0589 
G01 X36.6403 Y12.2117 
G01 X36.5067 Y12.3453 
G01 X36.3539 Y12.4563 
G01 X36.1856 Y12.5421 
G01 X36.0060 Y12.6005 
G01 X35.8194 Y12.6300 
G01 X34.0306 Y12.6300 
G01 X33.8440 Y12.6005 
G01 X33.8240 Y12.5940 
G01 X33.8240 Y12.6522 
G01 X33.7968 Y12.7539 
G01 X33.7534 Y12.8290 
G01 X33.8440 Y12.7995 
G01 X34.0306 Y12.7700 
G01 X35.8194 Y12.7700 
G01 X36.0060 Y12.7995 
G01 X36.1856 Y12.8579 
G01 X36.3539 Y12.9437 
G01 X36.5067 Y13.0547 
G01 X36.6403 Y13.1883 
G01 X36.7513 Y13.3411 
G01 X36.8371 Y13.5094 
G01 X36.8954 Y13.6890 
G01 X36.9250 Y13.8756 
G01 X36.9250 Y14.0644 
G01 X36.8954 Y14.2510 
G01 X36.8371 Y14.4306 
G01 X36.7513 Y14.5989 
G01 X36.6403 Y14.7517 
G01 X36.5067 Y14.8853 
G01 X36.3539 Y14.9963 
G01 X36.1856 Y15.0821 
G01 X36.0060 Y15.1404 
G01 X35.8194 Y15.1700 
G01 X34.1507 Y15.1700 
G01 X34.0069 Y15.3137 
G01 X34.0306 Y15.3100 
G01 X35.8194 Y15.3100 
G01 X36.0060 Y15.3395 
G01 X36.1856 Y15.3979 
G01 X36.3539 Y15.4837 
G01 X36.5067 Y15.5947 
G01 X36.6403 Y15.7282 
G01 X36.7513 Y15.8811 
G01 X36.8371 Y16.0494 
G01 X36.8954 Y16.2290 
G01 X36.9250 Y16.4156 
G01 X36.9250 Y16.6044 
G01 X36.8954 Y16.7910 
G01 X36.8371 Y16.9706 
G01 X36.7513 Y17.1389 
G01 X36.6403 Y17.2917 
G01 X36.5067 Y17.4253 
G01 X36.3539 Y17.5363 
G01 X36.1856 Y17.6221 
G01 X36.0060 Y17.6805 
G01 X35.8194 Y17.7100 
G01 X34.0306 Y17.7100 
G01 X33.8440 Y17.6805 
G01 X33.6644 Y17.6221 
G01 X33.6241 Y17.6016 
G01 X32.9681 Y18.2576 
G01 X32.8453 Y18.3396 
G01 X32.7088 Y18.3962 
G01 X32.5639 Y18.4250 
G01 X29.0239 Y18.4250 
G01 X28.9701 Y18.5206 
G01 X28.8956 Y18.5951 
G01 X28.8044 Y18.6477 
G01 X28.7027 Y18.6750 
G01 X25.5973 Y18.6750 
G01 X25.4956 Y18.6477 
G01 X25.4044 Y18.5951 
G00 Z3.0000  
G00 X30.9141 Y14.4900 
G01 Z-0.0250 F50    
G01 X32.7093 Y14.4900 F200   
G01 X32.9537 Y14.2456 
G01 X32.9250 Y14.0644 
G01 X32.9250 Y13.8756 
G01 X32.9545 Y13.6890 
G01 X33.0129 Y13.5094 
G01 X33.0987 Y13.3411 
G01 X33.2097 Y13.1883 
G01 X32.4526 Y13.6223 
G01 X32.3509 Y13.6495 
G01 X32.2982 Y13.6495 
G01 X32.2719 Y13.6951 
G01 X32.1974 Y13.7696 
G01 X30.9804 Y14.4723 
G01 X30.9141 Y14.4900 
G00 Z3.0000  
G00 X31.1943 Y10.2900 
G01 Z-0.0250 F50    
G01 X31.3464 Y10.1379 F200   
G01 X31.2827 Y10.1550 
G01 X30.4907 Y10.1550 
G01 X30.3881 Y10.2576 
G01 X30.3395 Y10.2900 
G01 X31.1943 Y10.2900 
G00 Z3.0000  
G00 X28.9701 Y8.5206  
G01 Z-0.0250 F50    
G01 X28.8956 Y8.5951  F200   
G01 X28.8044 Y8.6477  
G01 X28.7027 Y8.6750  
G01 X25.5973 Y8.6750  
G01 X25.4956 Y8.6477  
G01 X25.4044 Y8.5951  
G01 X25.3299 Y8.5206  
G01 X25.2773 Y8.4294  
G01 X25.2500 Y8.3277  
G01 X25.2500 Y7.0223  
G01 X25.2773 Y6.9206  
G01 X25.3299 Y6.8294  
G01 X25.4044 Y6.7549  
G01 X25.4956 Y6.7023  
G01 X25.5973 Y6.6750  
G01 X26.4000 Y6.6750  
G01 X26.4000 Y5.7961  
G01 X26.4288 Y5.6512  
G01 X26.4854 Y5.5147  
G01 X26.5674 Y5.3919  
G01 X26.6719 Y5.2874  
G01 X28.7319 Y3.2274  
G01 X28.8547 Y3.1454  
G01 X28.9912 Y3.0888  
G01 X29.1361 Y3.0600  
G01 X33.1866 Y3.0600  
G01 X33.2097 Y3.0282  
G01 X33.3432 Y2.8947  
G01 X33.4961 Y2.7837  
G01 X33.6644 Y2.6979  
G01 X33.8440 Y2.6395  
G01 X34.0306 Y2.6100  
G01 X35.8194 Y2.6100  
G01 X36.0060 Y2.6395  
G01 X36.1856 Y2.6979  
G01 X36.3539 Y2.7837  
G01 X36.5067 Y2.8947  
G01 X36.6403 Y3.0282  
G01 X36.7513 Y3.1811  
G01 X36.8371 Y3.3494  
G01 X36.8954 Y3.5290  
G01 X36.9250 Y3.7156  
G01 X36.9250 Y3.9044  
G01 X36.8954 Y4.0910  
G01 X36.8371 Y4.2706  
G01 X36.7513 Y4.4389  
G01 X36.6403 Y4.5917  
G01 X36.5067 Y4.7253  
G01 X36.3539 Y4.8363  
G01 X36.1856 Y4.9221  
G01 X36.0060 Y4.9805  
G01 X35.8194 Y5.0100  
G01 X34.0306 Y5.0100  
G01 X33.8440 Y4.9805  
G01 X33.6644 Y4.9221  
G01 X33.4961 Y4.8363  
G01 X33.3432 Y4.7253  
G01 X33.2097 Y4.5917  
G01 X33.1866 Y4.5600  
G01 X29.5207 Y4.5600  
G01 X27.9000 Y6.1807  
G01 X27.9000 Y6.6750  
G01 X28.7027 Y6.6750  
G01 X28.8044 Y6.7023  
G01 X28.8956 Y6.7549  
G01 X28.9701 Y6.8294  
G01 X29.0227 Y6.9206  
G01 X29.0500 Y7.0223  
G01 X29.0500 Y8.3277  
G01 X29.0227 Y8.4294  
G01 X28.9701 Y8.5206  
G00 Z3.0000  
G00 X0.6340  Y2.8654  
G01 Z-0.0250 F50    
G01 X0.7954  Y2.7040  F200   
G01 X0.9800  Y2.5698  
G01 X1.1834  Y2.4662  
G01 X1.4005  Y2.3957  
G01 X1.6259  Y2.3600  
G01 X3.4541  Y2.3600  
G01 X3.6795  Y2.3957  
G01 X3.8966  Y2.4662  
G01 X4.1000  Y2.5698  
G01 X4.2846  Y2.7040  
G01 X4.3906  Y2.8100  
G01 X6.9835  Y2.8100  
G01 X7.1767  Y2.8484  
G01 X7.3587  Y2.9238  
G01 X7.5225  Y3.0332  
G01 X7.6617  Y3.1725  
G01 X10.9142 Y6.4250  
G01 X12.3140 Y6.4250  
G01 X12.4396 Y6.4500  
G01 X12.5579 Y6.4990  
G01 X12.6644 Y6.5701  
G01 X12.7549 Y6.6606  
G01 X12.8260 Y6.7671  
G01 X12.8750 Y6.8854  
G01 X12.9000 Y7.0110  
G01 X12.9000 Y8.3390  
G01 X12.8750 Y8.4646  
G01 X12.8260 Y8.5829  
G01 X12.7645 Y8.6750  
G01 X12.8260 Y8.7671  
G01 X12.8750 Y8.8854  
G01 X12.9000 Y9.0110  
G01 X12.9000 Y10.3390 
G01 X12.8750 Y10.4646 
G01 X12.8260 Y10.5829 
G01 X12.7645 Y10.6750 
G01 X12.8260 Y10.7671 
G01 X12.8750 Y10.8854 
G01 X12.9000 Y11.0110 
G01 X12.9000 Y12.3390 
G01 X12.8750 Y12.4646 
G01 X12.8260 Y12.5829 
G01 X12.7645 Y12.6750 
G01 X12.8260 Y12.7671 
G01 X12.8750 Y12.8854 
G01 X12.9000 Y13.0110 
G01 X12.9000 Y14.3390 
G01 X12.8750 Y14.4646 
G01 X12.8260 Y14.5829 
G01 X12.7645 Y14.6750 
G01 X12.8260 Y14.7671 
G01 X12.8750 Y14.8854 
G01 X12.9000 Y15.0110 
G01 X12.9000 Y16.3390 
G01 X12.8750 Y16.4646 
G01 X12.8260 Y16.5829 
G01 X12.7645 Y16.6750 
G01 X12.8260 Y16.7671 
G01 X12.8750 Y16.8854 
G01 X12.9000 Y17.0110 
G01 X12.9000 Y18.3390 
G01 X12.8750 Y18.4646 
G01 X12.8260 Y18.5829 
G01 X12.7645 Y18.6750 
G01 X12.8260 Y18.7671 
G01 X12.8750 Y18.8854 
G01 X12.9000 Y19.0110 
G01 X12.9000 Y20.3390 
G01 X12.8750 Y20.4646 
G01 X12.8260 Y20.5829 
G01 X12.7645 Y20.6750 
G01 X12.8260 Y20.7671 
G01 X12.8750 Y20.8854 
G01 X12.9000 Y21.0110 
G01 X12.9000 Y22.3390 
G01 X12.8750 Y22.4646 
G01 X12.8260 Y22.5829 
G01 X12.7549 Y22.6894 
G01 X12.6644 Y22.7799 
G01 X12.5579 Y22.8510 
G01 X12.4396 Y22.9000 
G01 X12.3140 Y22.9250 
G01 X9.1860  Y22.9250 
G01 X9.0604  Y22.9000 
G01 X8.9421  Y22.8510 
G01 X8.8356  Y22.7799 
G01 X8.7451  Y22.6894 
G01 X8.6787  Y22.5900 
G01 X4.3906  Y22.5900 
G01 X4.2846  Y22.6960 
G01 X4.1000  Y22.8301 
G01 X3.8966  Y22.9338 
G01 X3.6795  Y23.0043 
G01 X3.4541  Y23.0400 
G01 X1.6259  Y23.0400 
G01 X1.4005  Y23.0043 
G01 X1.1834  Y22.9338 
G01 X0.9800  Y22.8301 
G01 X0.7954  Y22.6960 
G01 X0.6340  Y22.5346 
G01 X0.4998  Y22.3500 
G01 X0.3962  Y22.1466 
G01 X0.3257  Y21.9295 
G01 X0.2900  Y21.7041 
G01 X0.2900  Y21.4759 
G01 X0.3257  Y21.2505 
G01 X0.3962  Y21.0334 
G01 X0.4998  Y20.8300 
G01 X0.6340  Y20.6454 
G01 X0.7954  Y20.4840 
G01 X0.9800  Y20.3498 
G01 X1.0386  Y20.3200 
G01 X0.9800  Y20.2902 
G01 X0.7954  Y20.1560 
G01 X0.6340  Y19.9946 
G01 X0.4998  Y19.8100 
G01 X0.3962  Y19.6066 
G01 X0.3257  Y19.3895 
G01 X0.2900  Y19.1641 
G01 X0.2900  Y18.9359 
G01 X0.3257  Y18.7105 
G01 X0.3962  Y18.4934 
G01 X0.4998  Y18.2900 
G01 X0.6340  Y18.1054 
G01 X0.7954  Y17.9440 
G01 X0.9800  Y17.8098 
G01 X1.0386  Y17.7800 
G01 X0.9800  Y17.7502 
G01 X0.7954  Y17.6160 
G01 X0.6340  Y17.4546 
G01 X0.4998  Y17.2700 
G01 X0.3962  Y17.0666 
G01 X0.3257  Y16.8495 
G01 X0.2900  Y16.6241 
G01 X0.2900  Y16.3959 
G01 X0.3257  Y16.1705 
G01 X0.3962  Y15.9534 
G01 X0.4998  Y15.7500 
G01 X0.6340  Y15.5654 
G01 X0.7954  Y15.4040 
G01 X0.9800  Y15.2698 
G01 X1.0386  Y15.2400 
G01 X0.9800  Y15.2102 
G01 X0.7954  Y15.0760 
G01 X0.6340  Y14.9146 
G01 X0.4998  Y14.7300 
G01 X0.3962  Y14.5266 
G01 X0.3257  Y14.3095 
G01 X0.2900  Y14.0841 
G01 X0.2900  Y13.8559 
G01 X0.3257  Y13.6305 
G01 X0.3962  Y13.4134 
G01 X0.4998  Y13.2100 
G01 X0.6340  Y13.0254 
G01 X0.7954  Y12.8640 
G01 X0.9800  Y12.7298 
G01 X1.0386  Y12.7000 
G01 X0.9800  Y12.6701 
G01 X0.7954  Y12.5360 
G01 X0.6340  Y12.3746 
G01 X0.4998  Y12.1900 
G01 X0.3962  Y11.9866 
G01 X0.3257  Y11.7695 
G01 X0.2900  Y11.5441 
G01 X0.2900  Y11.3159 
G01 X0.3257  Y11.0905 
G01 X0.3962  Y10.8734 
G01 X0.4998  Y10.6700 
G01 X0.6340  Y10.4854 
G01 X0.7954  Y10.3240 
G01 X0.9800  Y10.1898 
G01 X1.0386  Y10.1600 
G01 X0.9800  Y10.1302 
G01 X0.7954  Y9.9960  
G01 X0.6340  Y9.8346  
G01 X0.4998  Y9.6500  
G01 X0.3962  Y9.4466  
G01 X0.3257  Y9.2295  
G01 X0.2900  Y9.0041  
G01 X0.2900  Y8.7759  
G01 X0.3257  Y8.5505  
G01 X0.3962  Y8.3334  
G01 X0.4998  Y8.1300  
G01 X0.6340  Y7.9454  
G01 X0.7954  Y7.7840  
G01 X0.9800  Y7.6498  
G01 X1.0386  Y7.6200  
G01 X0.9800  Y7.5902  
G01 X0.7954  Y7.4560  
G01 X0.6340  Y7.2946  
G01 X0.4998  Y7.1100  
G01 X0.3962  Y6.9066  
G01 X0.3257  Y6.6895  
G01 X0.2900  Y6.4641  
G01 X0.2900  Y6.2359  
G01 X0.3257  Y6.0105  
G01 X0.3962  Y5.7934  
G01 X0.4998  Y5.5900  
G01 X0.6340  Y5.4054  
G01 X0.7954  Y5.2440  
G01 X0.9800  Y5.1098  
G01 X1.0386  Y5.0800  
G01 X0.9800  Y5.0502  
G01 X0.7954  Y4.9160  
G01 X0.6340  Y4.7546  
G01 X0.4998  Y4.5700  
G01 X0.3962  Y4.3666  
G01 X0.3257  Y4.1495  
G01 X0.2900  Y3.9241  
G01 X0.2900  Y3.6959  
G01 X0.3257  Y3.4705  
G01 X0.3962  Y3.2534  
G01 X0.4998  Y3.0500  
G01 X0.6340  Y2.8654  
G00 Z3.0000  
G00 X4.0414  Y5.0800  
G01 Z-0.0250 F50    
G01 X4.1000  Y5.1098  F200   
G01 X4.2846  Y5.2440  
G01 X4.3906  Y5.3500  
G01 X5.8135  Y5.3500  
G01 X6.0067  Y5.3884  
G01 X6.1887  Y5.4638  
G01 X6.3525  Y5.5732  
G01 X6.4917  Y5.7125  
G01 X8.6000  Y7.8208  
G01 X8.6000  Y7.0110  
G01 X8.6119  Y6.9511  
G01 X6.4708  Y4.8100  
G01 X4.3906  Y4.8100  
G01 X4.2846  Y4.9160  
G01 X4.1000  Y5.0502  
G01 X4.0414  Y5.0800  
G00 Z3.0000  
G00 X4.0414  Y7.6200  
G01 Z-0.0250 F50    
G01 X4.1000  Y7.6498  F200   
G01 X4.2846  Y7.7840  
G01 X4.4460  Y7.9454  
G01 X4.5801  Y8.1300  
G01 X4.6838  Y8.3334  
G01 X4.7460  Y8.5250  
G01 X5.8135  Y8.5250  
G01 X6.0067  Y8.5634  
G01 X6.1887  Y8.6388  
G01 X6.3525  Y8.7483  
G01 X7.3992  Y9.7950  
G01 X7.7458  Y9.7950  
G01 X5.3008  Y7.3500  
G01 X4.3906  Y7.3500  
G01 X4.2846  Y7.4560  
G01 X4.1000  Y7.5902  
G01 X4.0414  Y7.6200  
G00 Z3.0000  
G00 X4.4748  Y10.5250 
G01 Z-0.0250 F50    
G01 X4.5801  Y10.6700 F200   
G01 X4.6838  Y10.8734 
G01 X4.7460  Y11.0650 
G01 X5.8408  Y11.0650 
G01 X5.3008  Y10.5250 
G01 X4.4748  Y10.5250 
G00 Z3.0000  
G00 X6.1432  Y13.0650 
G01 Z-0.0250 F50    
G01 X6.1887  Y13.0838 F200   
G01 X6.3525  Y13.1933 
G01 X7.1992  Y14.0400 
G01 X7.5458  Y14.0400 
G01 X6.5708  Y13.0650 
G01 X6.1432  Y13.0650 
G00 Z3.0000  
G00 X6.0758  Y15.7450 
G01 Z-0.0250 F50    
G01 X6.0083  Y15.6775 F200   
G01 X5.3008  Y14.9700 
G01 X4.3906  Y14.9700 
G01 X4.2846  Y15.0760 
G01 X4.1000  Y15.2102 
G01 X4.0414  Y15.2400 
G01 X4.1000  Y15.2698 
G01 X4.2846  Y15.4040 
G01 X4.3906  Y15.5100 
G01 X4.9635  Y15.5100 
G01 X5.1567  Y15.5484 
G01 X5.3387  Y15.6238 
G01 X5.5025  Y15.7332 
G01 X6.0758  Y15.7450 
G00 Z3.0000  
G00 X8.3945  Y16.0400 
G01 Z-0.0250 F50    
G01 X8.4260  Y16.0871 F200   
G01 X8.4587  Y16.1659 
G01 X8.5467  Y16.1834 
G01 X8.6000  Y16.2055 
G01 X8.6000  Y16.0400 
G01 X8.3945  Y16.0400 
G00 Z3.0000  
G00 X8.3113  Y18.5612 
G01 Z-0.0250 F50    
G01 X8.1671  Y18.4648 F200   
G01 X8.0396  Y18.5200 
G01 X7.9140  Y18.5450 
G01 X6.4860  Y18.5450 
G01 X6.3604  Y18.5200 
G01 X6.3396  Y18.5200 
G01 X6.2140  Y18.5450 
G01 X5.9892  Y18.5450 
G01 X6.1192  Y18.6750 
G01 X8.7355  Y18.6750 
G01 X8.6865  Y18.6750 
G01 X8.4933  Y18.6366 
G01 X8.3113  Y18.5612 
G00 Z3.0000  
G00 X4.2000  Y17.8825 
G01 Z-0.0250 F50    
G01 X4.2000  Y17.6775 F200   
G01 X4.1000  Y17.7502 
G01 X4.0414  Y17.7800 
G01 X4.1000  Y17.8098 
G01 X4.2000  Y17.8825 
G00 Z3.0000  
G00 X4.3906  Y20.0500 
G01 Z-0.0250 F50    
G01 X4.2846  Y20.1560 F200   
G01 X4.1000  Y20.2902 
G01 X4.0414  Y20.3200 
G01 X4.1000  Y20.3498 
G01 X4.2846  Y20.4840 
G01 X4.3906  Y20.5900 
G01 X5.3009  Y20.5900 
G01 X5.2313  Y20.5612 
G01 X5.0675  Y20.4517 
G01 X4.6658  Y20.0500 
G01 X4.3906  Y20.0500 
G00 Z3.0000  
G00 X25.0000 Y20.3390 
G01 Z-0.0250 F50    
G01 X25.0000 Y19.0110 F200   
G01 X25.0250 Y18.8854 
G01 X25.0740 Y18.7671 
G01 X25.1355 Y18.6750 
G01 X25.0740 Y18.5829 
G01 X25.0250 Y18.4646 
G01 X25.0000 Y18.3390 
G01 X25.0000 Y17.0110 
G01 X25.0250 Y16.8854 
G01 X25.0740 Y16.7671 
G01 X25.1355 Y16.6750 
G01 X25.0740 Y16.5829 
G01 X25.0250 Y16.4646 
G01 X25.0000 Y16.3390 
G01 X25.0000 Y15.0110 
G01 X25.0250 Y14.8854 
G01 X25.0740 Y14.7671 
G01 X25.1355 Y14.6750 
G01 X25.0740 Y14.5829 
G01 X25.0250 Y14.4646 
G01 X25.0000 Y14.3390 
G01 X25.0000 Y13.0110 
G01 X25.0250 Y12.8854 
G01 X25.0740 Y12.7671 
G01 X25.1355 Y12.6750 
G01 X25.0740 Y12.5829 
G01 X25.0250 Y12.4646 
G01 X25.0000 Y12.3390 
G01 X25.0000 Y11.0110 
G01 X25.0250 Y10.8854 
G01 X25.0740 Y10.7671 
G01 X25.1355 Y10.6750 
G01 X25.0740 Y10.5829 
G01 X25.0250 Y10.4646 
G01 X25.0000 Y10.3390 
G01 X25.0000 Y9.0110  
G01 X25.0250 Y8.8854  
G01 X25.0740 Y8.7671  
G01 X25.1355 Y8.6750  
G01 X25.0740 Y8.5829  
G01 X25.0250 Y8.4646  
G01 X25.0000 Y8.3390  
G01 X25.0000 Y7.0110  
G01 X25.0250 Y6.8854  
G01 X25.0740 Y6.7671  
G01 X25.1451 Y6.6606  
G01 X25.2356 Y6.5701  
G01 X25.3421 Y6.4990  
G01 X25.4604 Y6.4500  
G01 X25.5860 Y6.4250  
G01 X26.1500 Y6.4250  
G01 X26.1500 Y5.7715  
G01 X26.1884 Y5.5783  
G01 X26.2638 Y5.3963  
G01 X26.3732 Y5.2325  
G01 X26.5125 Y5.0933  
G01 X28.5725 Y3.0332  
G01 X28.7363 Y2.9238  
G01 X28.9183 Y2.8484  
G01 X29.1115 Y2.8100  
G01 X33.0744 Y2.8100  
G01 X33.1804 Y2.7040  
G01 X33.3650 Y2.5698  
G01 X33.5684 Y2.4662  
G01 X33.7855 Y2.3957  
G01 X34.0109 Y2.3600  
G01 X35.8391 Y2.3600  
G01 X36.0645 Y2.3957  
G01 X36.2816 Y2.4662  
G01 X36.4850 Y2.5698  
G01 X36.6696 Y2.7040  
G01 X36.8310 Y2.8654  
G01 X36.9652 Y3.0500  
G01 X37.0688 Y3.2534  
G01 X37.1393 Y3.4705  
G01 X37.1750 Y3.6959  
G01 X37.1750 Y3.9241  
G01 X37.1393 Y4.1495  
G01 X37.0688 Y4.3666  
G01 X36.9652 Y4.5700  
G01 X36.8310 Y4.7546  
G01 X36.6696 Y4.9160  
G01 X36.4850 Y5.0502  
G01 X36.4264 Y5.0800  
G01 X36.4850 Y5.1098  
G01 X36.6696 Y5.2440  
G01 X36.8310 Y5.4054  
G01 X36.9652 Y5.5900  
G01 X37.0688 Y5.7934  
G01 X37.1393 Y6.0105  
G01 X37.1750 Y6.2359  
G01 X37.1750 Y6.4641  
G01 X37.1393 Y6.6895  
G01 X37.0688 Y6.9066  
G01 X36.9652 Y7.1100  
G01 X36.8310 Y7.2946  
G01 X36.6696 Y7.4560  
G01 X36.4850 Y7.5902  
G01 X36.4264 Y7.6200  
G01 X36.4850 Y7.6498  
G01 X36.6696 Y7.7840  
G01 X36.8310 Y7.9454  
G01 X36.9652 Y8.1300  
G01 X37.0688 Y8.3334  
G01 X37.1393 Y8.5505  
G01 X37.1750 Y8.7759  
G01 X37.1750 Y9.0041  
G01 X37.1393 Y9.2295  
G01 X37.0688 Y9.4466  
G01 X36.9652 Y9.6500  
G01 X36.8310 Y9.8346  
G01 X36.6696 Y9.9960  
G01 X36.4850 Y10.1302 
G01 X36.4264 Y10.1600 
G01 X36.4850 Y10.1898 
G01 X36.6696 Y10.3240 
G01 X36.8310 Y10.4854 
G01 X36.9652 Y10.6700 
G01 X37.0688 Y10.8734 
G01 X37.1393 Y11.0905 
G01 X37.1750 Y11.3159 
G01 X37.1750 Y11.5441 
G01 X37.1393 Y11.7695 
G01 X37.0688 Y11.9866 
G01 X36.9652 Y12.1900 
G01 X36.8310 Y12.3746 
G01 X36.6696 Y12.5360 
G01 X36.4850 Y12.6701 
G01 X36.4264 Y12.7000 
G01 X36.4850 Y12.7298 
G01 X36.6696 Y12.8640 
G01 X36.8310 Y13.0254 
G01 X36.9652 Y13.2100 
G01 X37.0688 Y13.4134 
G01 X37.1393 Y13.6305 
G01 X37.1750 Y13.8559 
G01 X37.1750 Y14.0841 
G01 X37.1393 Y14.3095 
G01 X37.0688 Y14.5266 
G01 X36.9652 Y14.7300 
G01 X36.8310 Y14.9146 
G01 X36.6696 Y15.0760 
G01 X36.4850 Y15.2102 
G01 X36.4264 Y15.2400 
G01 X36.4850 Y15.2698 
G01 X36.6696 Y15.4040 
G01 X36.8310 Y15.5654 
G01 X36.9652 Y15.7500 
G01 X37.0688 Y15.9534 
G01 X37.1393 Y16.1705 
G01 X37.1750 Y16.3959 
G01 X37.1750 Y16.6241 
G01 X37.1393 Y16.8495 
G01 X37.0688 Y17.0666 
G01 X36.9652 Y17.2700 
G01 X36.8310 Y17.4546 
G01 X36.6696 Y17.6160 
G01 X36.4850 Y17.7502 
G01 X36.4264 Y17.7800 
G01 X36.4850 Y17.8098 
G01 X36.6696 Y17.9440 
G01 X36.8310 Y18.1054 
G01 X36.9652 Y18.2900 
G01 X37.0688 Y18.4934 
G01 X37.1393 Y18.7105 
G01 X37.1750 Y18.9359 
G01 X37.1750 Y19.1641 
G01 X37.1393 Y19.3895 
G01 X37.0688 Y19.6066 
G01 X36.9652 Y19.8100 
G01 X36.8310 Y19.9946 
G01 X36.6696 Y20.1560 
G01 X36.4850 Y20.2902 
G01 X36.4264 Y20.3200 
G01 X36.4850 Y20.3498 
G01 X36.6696 Y20.4840 
G01 X36.8310 Y20.6454 
G01 X36.9652 Y20.8300 
G01 X37.0688 Y21.0334 
G01 X37.1393 Y21.2505 
G01 X37.1750 Y21.4759 
G01 X37.1750 Y21.7041 
G01 X37.1393 Y21.9295 
G01 X37.0688 Y22.1466 
G01 X36.9652 Y22.3500 
G01 X36.8310 Y22.5346 
G01 X36.6696 Y22.6960 
G01 X36.4850 Y22.8301 
G01 X36.2816 Y22.9338 
G01 X36.0645 Y23.0043 
G01 X35.8391 Y23.0400 
G01 X34.0109 Y23.0400 
G01 X33.7855 Y23.0043 
G01 X33.5684 Y22.9338 
G01 X33.3650 Y22.8301 
G01 X33.1804 Y22.6960 
G01 X33.0744 Y22.5900 
G01 X29.2213 Y22.5900 
G01 X29.1549 Y22.6894 
G01 X29.0644 Y22.7799 
G01 X28.9579 Y22.8510 
G01 X28.8396 Y22.9000 
G01 X28.7140 Y22.9250 
G01 X25.5860 Y22.9250 
G01 X25.4604 Y22.9000 
G01 X25.3421 Y22.8510 
G01 X25.2356 Y22.7799 
G01 X25.1451 Y22.6894 
G01 X25.0740 Y22.5829 
G01 X25.0250 Y22.4646 
G01 X25.0000 Y22.3390 
G01 X25.0000 Y21.0110 
G01 X25.0250 Y20.8854 
G01 X25.0740 Y20.7671 
G01 X25.1355 Y20.6750 
G01 X25.0740 Y20.5829 
G01 X25.0250 Y20.4646 
G01 X25.0000 Y20.3390 
G00 Z3.0000  
G00 X29.1645 Y18.6750 
G01 Z-0.0250 F50    
G01 X32.7222 Y18.6750 F200   
G01 X32.7315 Y18.6466 
G01 X32.5885 Y18.6750 
G01 X29.1645 Y18.6750 
G00 Z3.0000  
G00 X29.1645 Y16.6750 
G01 Z-0.0250 F50    
G01 X32.0758 Y16.6750 F200   
G01 X32.5108 Y16.2400 
G01 X30.2592 Y16.2400 
G01 X30.0475 Y16.4517 
G01 X29.8837 Y16.5612 
G01 X29.7017 Y16.6366 
G01 X29.5085 Y16.6750 
G01 X29.3115 Y16.6750 
G01 X29.1645 Y16.6750 
G00 Z3.0000  
G00 X29.1645 Y12.6750 
G01 Z-0.0250 F50    
G01 X29.4367 Y12.6750 F200   
G01 X29.4595 Y12.5898 
G01 X29.3467 Y12.6366 
G01 X29.1662 Y12.6725 
G00 Z3.0000  
G00 X31.8826 Y14.2400 
G01 Z-0.0250 F50    
G01 X32.6058 Y14.2400 F200   
G01 X32.6869 Y14.1589 
G01 X32.6750 Y14.0841 
G01 X32.6750 Y13.8559 
G01 X32.6878 Y13.7751 
G01 X32.5678 Y13.8444 
G01 X32.4465 Y13.8856 
G01 X32.4285 Y13.8960 
G01 X32.3322 Y13.9804 
G01 X31.8826 Y14.2400 
G00 Z3.0000  
G00 X31.8800 Y9.2508  
G01 Z-0.0250 F50    
G01 X32.7735 Y8.3573  F200   
G01 X32.7812 Y8.3334  
G01 X32.8848 Y8.1300  
G01 X33.0190 Y7.9454  
G01 X33.1804 Y7.7840  
G01 X33.3650 Y7.6498  
G01 X33.4236 Y7.6200  
G01 X33.3650 Y7.5902  
G01 X33.1804 Y7.4560  
G01 X33.0744 Y7.3500  
G01 X32.2841 Y7.3500  
G01 X31.8800 Y7.6371  
G01 X31.8800 Y8.1190  
G01 X31.8550 Y8.2446  
G01 X31.8550 Y8.2654  
G01 X31.8800 Y8.3910  
G01 X31.8800 Y9.2508  
G00 Z3.0000  
G00 X31.8665 Y5.3500  
G01 Z-0.0250 F50    
G01 X31.9507 Y5.3500  F200   
G01 X32.0348 Y5.3476  
G01 X32.0490 Y5.3500  
G01 X33.0744 Y5.3500  
G01 X33.1804 Y5.2440  
G01 X33.3650 Y5.1098  
G01 X33.4236 Y5.0800  
G01 X33.3650 Y5.0502  
G01 X33.1804 Y4.9160  
G01 X33.0744 Y4.8100  
G01 X29.6242 Y4.8100  
G01 X28.1500 Y6.2842  
G01 X28.1500 Y6.4250  
G01 X28.7140 Y6.4250  
G01 X28.8396 Y6.4500  
G01 X28.9579 Y6.4990  
G01 X29.0644 Y6.5701  
G01 X29.0975 Y6.6032  
G01 X29.1050 Y6.5654  
G01 X29.1540 Y6.4471  
G01 X29.2251 Y6.3406  
G01 X29.3156 Y6.2501  
G01 X29.4221 Y6.1790  
G01 X29.5404 Y6.1300  
G01 X29.6660 Y6.1050  
G01 X30.5832 Y6.1050  
G01 X31.3173 Y5.5835  
G01 X31.3975 Y5.5265  
G01 X31.4661 Y5.4777  
G01 X31.4793 Y5.4718  
G01 X31.5691 Y5.4316  
G01 X31.6459 Y5.3972  
G01 X31.6600 Y5.3940  
G01 X31.6733 Y5.3884  
G01 X31.7559 Y5.3720  
G01 X31.8379 Y5.3532  
G01 X31.8523 Y5.3528  
G01 X31.8665 Y5.3500  
G00 Z3.0000  
G82 X2.5400  Y3.8100  Z-0.0375 F50    R3.0000  P0.000000
G00 X2.5400  Y6.3500  
G01 Z-0.0375 F50    
G00 Z3.0000  
G00 X2.5400  Y8.8900  
G01 Z-0.0375 F50    
G00 Z3.0000  
G00 X2.5400  Y11.4300 
G01 Z-0.0375 F50    
G00 Z3.0000  
G00 X2.5400  Y13.9700 
G01 Z-0.0375 F50    
G00 Z3.0000  
G00 X2.5400  Y16.5100 
G01 Z-0.0375 F50    
G00 Z3.0000  
G00 X2.5400  Y19.0500 
G01 Z-0.0375 F50    
G00 Z3.0000  
G00 X2.5400  Y21.5900 
G01 Z-0.0375 F50    
G00 Z3.0000  
G00 X34.9250 Y21.5900 
G01 Z-0.0375 F50    
G00 Z3.0000  
G00 X34.9250 Y19.0500 
G01 Z-0.0375 F50    
G00 Z3.0000  
G00 X34.9250 Y16.5100 
G01 Z-0.0375 F50    
G00 Z3.0000  
G00 X34.9250 Y13.9700 
G01 Z-0.0375 F50    
G00 Z3.0000  
G00 X34.9250 Y11.4300 
G01 Z-0.0375 F50    
G00 Z3.0000  
G00 X34.9250 Y8.8900  
G01 Z-0.0375 F50    
G00 Z3.0000  
G00 X34.9250 Y6.3500  
G01 Z-0.0375 F50    
G00 Z3.0000  
G00 X34.9250 Y3.8100  
G01 Z-0.0375 F50    
G00 Z3.0000  
M05
M02
