(.../eagleLibs/ULP/pcb-gcode.ulp)
(Copyright 2005 - 2012 by John Johnson)
(See readme.txt for licensing terms.)
(This file generated from the board:)
(.../Arduino/ESP8266/Breakout/breakout.brd)
(Current profile is .../eagleLibs/ULP/profiles/mach.pp  )
(This file generated 22/11/2018 11:00)
(Settings from pcb-machine.h)
(spindle on time = 2.0000)
(spindle speed = 40000.0000)
(tool change at 0.0000  0.0000  12.7000 )
(feed rate xy = F0     )
(feed rate z  = F50    )
(Z Axis Settings)
(  High     Up        Down     Drill)
(3.0000  	3.0000  	-0.0250 	-1.5000 )
(Settings from pcb-defaults.h)
(isolate min = 0.0500)
(isolate max = 1.0000)
(isolate step = 0.2500)
(Generated top outlines, top drill, )
(Unit of measure: mm)
( Tool|       Size       |  Min Sub |  Max Sub |   Count )
( T01 | 1.016mm 0.0400in | 0.0000in | 0.0000in |       0 )
(Metric Mode)
G21
(Absolute Coordinates)
G90
S40000
G00 Z3.0000  
G00 X0.0000  Y0.0000  
M03
G04 P2.000000
M05
G00 Z12.7000 
M06 T01  ; 1.0160  
G00 Z3.0000  
M03
G04 P2.000000
G82 X2.5400  Y3.8100  Z-1.5000 F50    R3.0000  P0.000000
G00 X2.5400  Y6.3500  
G01 Z-1.5000 F50    
G00 Z3.0000  
G00 X2.5400  Y8.8900  
G01 Z-1.5000 F50    
G00 Z3.0000  
G00 X2.5400  Y11.4300 
G01 Z-1.5000 F50    
G00 Z3.0000  
G00 X2.5400  Y13.9700 
G01 Z-1.5000 F50    
G00 Z3.0000  
G00 X2.5400  Y16.5100 
G01 Z-1.5000 F50    
G00 Z3.0000  
G00 X2.5400  Y19.0500 
G01 Z-1.5000 F50    
G00 Z3.0000  
G00 X2.5400  Y21.5900 
G01 Z-1.5000 F50    
G00 Z3.0000  
G00 X34.9250 Y21.5900 
G01 Z-1.5000 F50    
G00 Z3.0000  
G00 X34.9250 Y19.0500 
G01 Z-1.5000 F50    
G00 Z3.0000  
G00 X34.9250 Y16.5100 
G01 Z-1.5000 F50    
G00 Z3.0000  
G00 X34.9250 Y13.9700 
G01 Z-1.5000 F50    
G00 Z3.0000  
G00 X34.9250 Y11.4300 
G01 Z-1.5000 F50    
G00 Z3.0000  
G00 X34.9250 Y8.8900  
G01 Z-1.5000 F50    
G00 Z3.0000  
G00 X34.9250 Y6.3500  
G01 Z-1.5000 F50    
G00 Z3.0000  
G00 X34.9250 Y3.8100  
G01 Z-1.5000 F50    
G00 Z3.0000  
T01 
M05
M02
