(.../eagleLibs/ULP/pcb-gcode.ulp)
(Copyright 2005 - 2012 by John Johnson)
(See readme.txt for licensing terms.)
(This file generated from the board:)
(.../Arduino/ESP8266/Breakout/breakout.brd)
(Current profile is .../eagleLibs/ULP/profiles/mach.pp  )
(This file generated 22/11/2018 11:00)
(Settings from pcb-machine.h)
(spindle on time = 2.0000)
(  Tool Size)
(0.2000  )
(spindle speed = 40000.0000)
(tool change at 0.0000  0.0000  12.7000 )
(feed rate xy = F50    )
(feed rate z  = F50    )
(Z Axis Settings)
(  High     Up        Down     Drill)
(3.0000  	3.0000  	-0.0250 	-1.5000 )
(Settings from pcb-defaults.h)
(isolate min = 0.0500)
(isolate max = 1.0000)
(isolate step = 0.2500)
(Generated top outlines, top drill, )
(Unit of measure: mm)
(Metric Mode)
G21
(Absolute Coordinates)
G90
S40000
G00 Z3.0000  
G00 X0.0000  Y0.0000  
M03
G04 P2.000000
G00 X1.0696  Y3.2286  
G01 Z-0.0250 F50    
G01 X1.1966  Y3.1016  F50    
G01 X1.3460  Y3.0018  
G01 X1.5120  Y2.9330  
G01 X1.6882  Y2.8980  
G01 X3.3918  Y2.8980  
G01 X3.5680  Y2.9330  
G01 X3.7340  Y3.0018  
G01 X3.8834  Y3.1016  
G01 X4.0104  Y3.2286  
G01 X4.0314  Y3.2600  
G01 X6.9574  Y3.2600  
G01 X7.0973  Y3.2975  
G01 X7.2227  Y3.3699  
G01 X7.3251  Y3.4723  
G01 X10.7778 Y6.9250  
G01 X12.2798 Y6.9250  
G01 X12.3350 Y6.9478  
G01 X12.3772 Y6.9900  
G01 X12.4000 Y7.0452  
G01 X12.4000 Y8.3048  
G01 X12.3772 Y8.3600  
G01 X12.3350 Y8.4022  
G01 X12.2798 Y8.4250  
G01 X9.2202  Y8.4250  
G01 X9.1650  Y8.4022  
G01 X9.1228  Y8.3600  
G01 X9.1000  Y8.3048  
G01 X9.1000  Y7.0452  
G01 X9.1228  Y6.9900  
G01 X9.1650  Y6.9478  
G01 X9.2202  Y6.9250  
G01 X6.6572  Y4.3600  
G01 X4.0314  Y4.3600  
G01 X4.0104  Y4.3914  
G01 X3.8834  Y4.5184  
G01 X3.7340  Y4.6182  
G01 X3.5680  Y4.6870  
G01 X3.3918  Y4.7220  
G01 X1.6882  Y4.7220  
G01 X1.5120  Y4.6870  
G01 X1.3460  Y4.6182  
G01 X1.1966  Y4.5184  
G01 X1.0696  Y4.3914  
G01 X0.9698  Y4.2420  
G01 X0.9010  Y4.0760  
G01 X0.8660  Y3.8998  
G01 X0.8660  Y3.7202  
G01 X0.9010  Y3.5440  
G01 X0.9698  Y3.3780  
G01 X1.0696  Y3.2286  
G00 Z3.0000  
G00 X1.0696  Y5.7686  
G01 Z-0.0250 F50    
G01 X1.1966  Y5.6416  F50    
G01 X1.3460  Y5.5418  
G01 X1.5120  Y5.4730  
G01 X1.6882  Y5.4380  
G01 X3.3918  Y5.4380  
G01 X3.5680  Y5.4730  
G01 X3.7340  Y5.5418  
G01 X3.8834  Y5.6416  
G01 X4.0104  Y5.7686  
G01 X4.0314  Y5.8000  
G01 X5.7874  Y5.8000  
G01 X5.9273  Y5.8375  
G01 X6.0527  Y5.9099  
G01 X6.1551  Y6.0123  
G01 X9.1278  Y8.9850  
G01 X9.1650  Y8.9478  
G01 X9.2202  Y8.9250  
G01 X12.2798 Y8.9250  
G01 X12.3350 Y8.9478  
G01 X12.3772 Y8.9900  
G01 X12.4000 Y9.0452  
G01 X12.4000 Y10.3048 
G01 X12.3772 Y10.3600 
G01 X12.3350 Y10.4022 
G01 X12.2798 Y10.4250 
G01 X9.2202  Y10.4250 
G01 X9.1650  Y10.4022 
G01 X9.1228  Y10.3600 
G01 X9.1000  Y10.3048 
G01 X9.1000  Y10.2250 
G01 X8.9676  Y10.2250 
G01 X8.8277  Y10.1875 
G01 X8.7023  Y10.1151 
G01 X8.5999  Y10.0127 
G01 X5.4872  Y6.9000  
G01 X4.0314  Y6.9000  
G01 X4.0104  Y6.9314  
G01 X3.8834  Y7.0584  
G01 X3.7340  Y7.1582  
G01 X3.5680  Y7.2270  
G01 X3.3918  Y7.2620  
G01 X1.6882  Y7.2620  
G01 X1.5120  Y7.2270  
G01 X1.3460  Y7.1582  
G01 X1.1966  Y7.0584  
G01 X1.0696  Y6.9314  
G01 X0.9698  Y6.7820  
G01 X0.9010  Y6.6160  
G01 X0.8660  Y6.4398  
G01 X0.8660  Y6.2602  
G01 X0.9010  Y6.0840  
G01 X0.9698  Y5.9180  
G01 X1.0696  Y5.7686  
G00 Z3.0000  
G00 X1.0696  Y8.3086  
G01 Z-0.0250 F50    
G01 X1.1966  Y8.1816  F50    
G01 X1.3460  Y8.0818  
G01 X1.5120  Y8.0130  
G01 X1.6882  Y7.9780  
G01 X3.3918  Y7.9780  
G01 X3.5680  Y8.0130  
G01 X3.7340  Y8.0818  
G01 X3.8834  Y8.1816  
G01 X4.0104  Y8.3086  
G01 X4.1102  Y8.4580  
G01 X4.1790  Y8.6240  
G01 X4.2140  Y8.8002  
G01 X4.2140  Y8.9750  
G01 X5.7874  Y8.9750  
G01 X5.9273  Y9.0125  
G01 X6.0527  Y9.0849  
G01 X7.2128  Y10.2450 
G01 X8.3274  Y10.2450 
G01 X8.4673  Y10.2825 
G01 X8.5927  Y10.3549 
G01 X9.1796  Y10.9418 
G01 X9.2202  Y10.9250 
G01 X12.2798 Y10.9250 
G01 X12.3350 Y10.9478 
G01 X12.3772 Y10.9900 
G01 X12.4000 Y11.0452 
G01 X12.4000 Y12.3048 
G01 X12.3772 Y12.3600 
G01 X12.3350 Y12.4022 
G01 X12.2798 Y12.4250 
G01 X9.2202  Y12.4250 
G01 X9.1650  Y12.4022 
G01 X9.1228  Y12.3600 
G01 X9.1000  Y12.3048 
G01 X9.1000  Y12.2250 
G01 X9.0626  Y12.2250 
G01 X8.9227  Y12.1875 
G01 X8.7973  Y12.1151 
G01 X8.0272  Y11.3450 
G01 X6.9126  Y11.3450 
G01 X6.7727  Y11.3075 
G01 X6.6473  Y11.2351 
G01 X6.5449  Y11.1327 
G01 X5.4872  Y10.0750 
G01 X3.7376  Y10.0750 
G01 X3.5977  Y10.0375 
G01 X3.4723  Y9.9651  
G01 X3.3699  Y9.8627  
G01 X3.3092  Y9.8020  
G01 X1.6882  Y9.8020  
G01 X1.5120  Y9.7669  
G01 X1.3460  Y9.6982  
G01 X1.1966  Y9.5984  
G01 X1.0696  Y9.4714  
G01 X0.9698  Y9.3220  
G01 X0.9010  Y9.1560  
G01 X0.8660  Y8.9798  
G01 X0.8660  Y8.8002  
G01 X0.9010  Y8.6240  
G01 X0.9698  Y8.4580  
G01 X1.0696  Y8.3086  
G00 Z3.0000  
G00 X1.0696  Y10.8486 
G01 Z-0.0250 F50    
G01 X1.1966  Y10.7216 F50    
G01 X1.3460  Y10.6218 
G01 X1.5120  Y10.5530 
G01 X1.6882  Y10.5180 
G01 X3.3918  Y10.5180 
G01 X3.5680  Y10.5530 
G01 X3.7340  Y10.6218 
G01 X3.8834  Y10.7216 
G01 X4.0104  Y10.8486 
G01 X4.1102  Y10.9980 
G01 X4.1790  Y11.1640 
G01 X4.2140  Y11.3402 
G01 X4.2140  Y11.5150 
G01 X7.0574  Y11.5150 
G01 X7.1973  Y11.5525 
G01 X7.3227  Y11.6249 
G01 X8.8228  Y13.1250 
G01 X9.1000  Y13.1250 
G01 X9.1000  Y13.0452 
G01 X9.1228  Y12.9900 
G01 X9.1650  Y12.9478 
G01 X9.2202  Y12.9250 
G01 X12.2798 Y12.9250 
G01 X12.3350 Y12.9478 
G01 X12.3772 Y12.9900 
G01 X12.4000 Y13.0452 
G01 X12.4000 Y14.3048 
G01 X12.3772 Y14.3600 
G01 X12.3350 Y14.4022 
G01 X12.2798 Y14.4250 
G01 X9.2202  Y14.4250 
G01 X9.1650  Y14.4022 
G01 X9.1228  Y14.3600 
G01 X9.1000  Y14.3048 
G01 X9.1000  Y14.2250 
G01 X8.5226  Y14.2250 
G01 X8.3827  Y14.1875 
G01 X8.2573  Y14.1151 
G01 X6.7572  Y12.6150 
G01 X3.1026  Y12.6150 
G01 X2.9627  Y12.5775 
G01 X2.8373  Y12.5051 
G01 X2.7349  Y12.4027 
G01 X2.6742  Y12.3420 
G01 X1.6882  Y12.3420 
G01 X1.5120  Y12.3070 
G01 X1.3460  Y12.2382 
G01 X1.1966  Y12.1384 
G01 X1.0696  Y12.0114 
G01 X0.9698  Y11.8620 
G01 X0.9010  Y11.6960 
G01 X0.8660  Y11.5198 
G01 X0.8660  Y11.3402 
G01 X0.9010  Y11.1640 
G01 X0.9698  Y10.9980 
G01 X1.0696  Y10.8486 
G00 Z3.0000  
G00 X1.0696  Y13.3886 
G01 Z-0.0250 F50    
G01 X1.1966  Y13.2616 F50    
G01 X1.3460  Y13.1618 
G01 X1.5120  Y13.0930 
G01 X1.6882  Y13.0580 
G01 X3.3918  Y13.0580 
G01 X3.5680  Y13.0930 
G01 X3.7340  Y13.1618 
G01 X3.8834  Y13.2616 
G01 X4.0104  Y13.3886 
G01 X4.0314  Y13.4200 
G01 X5.7874  Y13.4200 
G01 X5.9273  Y13.4575 
G01 X6.0527  Y13.5299 
G01 X7.2128  Y14.6900 
G01 X9.1624  Y14.6900 
G01 X9.3023  Y14.7275 
G01 X9.4277  Y14.7999 
G01 X9.5301  Y14.9023 
G01 X12.2798 Y14.9250 
G01 X12.3350 Y14.9478 
G01 X12.3772 Y14.9900 
G01 X12.4000 Y15.0452 
G01 X12.4000 Y16.3048 
G01 X12.3772 Y16.3600 
G01 X12.3350 Y16.4022 
G01 X12.2798 Y16.4250 
G01 X9.2202  Y16.4250 
G01 X9.1650  Y16.4022 
G01 X9.1228  Y16.3600 
G01 X9.1000  Y16.3048 
G01 X9.1000  Y16.0278 
G01 X8.8622  Y15.7900 
G01 X6.9126  Y15.7900 
G01 X6.7727  Y15.7525 
G01 X6.6473  Y15.6801 
G01 X6.5449  Y15.5777 
G01 X5.4872  Y14.5200 
G01 X4.0314  Y14.5200 
G01 X4.0104  Y14.5514 
G01 X3.8834  Y14.6784 
G01 X3.7340  Y14.7782 
G01 X3.5680  Y14.8469 
G01 X3.3918  Y14.8820 
G01 X1.6882  Y14.8820 
G01 X1.5120  Y14.8469 
G01 X1.3460  Y14.7782 
G01 X1.1966  Y14.6784 
G01 X1.0696  Y14.5514 
G01 X0.9698  Y14.4020 
G01 X0.9010  Y14.2360 
G01 X0.8660  Y14.0598 
G01 X0.8660  Y13.8802 
G01 X0.9010  Y13.7040 
G01 X0.9698  Y13.5380 
G01 X1.0696  Y13.3886 
G00 Z3.0000  
G00 X1.0696  Y15.9286 
G01 Z-0.0250 F50    
G01 X1.1966  Y15.8016 F50    
G01 X1.3460  Y15.7018 
G01 X1.5120  Y15.6330 
G01 X1.6882  Y15.5980 
G01 X3.3918  Y15.5980 
G01 X3.5680  Y15.6330 
G01 X3.7340  Y15.7018 
G01 X3.8834  Y15.8016 
G01 X4.0104  Y15.9286 
G01 X4.0314  Y15.9600 
G01 X4.9374  Y15.9600 
G01 X5.0773  Y15.9975 
G01 X5.2027  Y16.0699 
G01 X5.3778  Y16.2450 
G01 X6.1798  Y16.2450 
G01 X6.2350  Y16.2678 
G01 X6.2772  Y16.3100 
G01 X6.3000  Y16.3652 
G01 X6.3000  Y17.9248 
G01 X6.2772  Y17.9800 
G01 X6.2350  Y18.0222 
G01 X6.1798  Y18.0450 
G01 X4.8202  Y18.0450 
G01 X4.7650  Y18.0222 
G01 X4.7228  Y17.9800 
G01 X4.7000  Y17.9248 
G01 X4.7000  Y17.1228 
G01 X4.6372  Y17.0600 
G01 X4.0314  Y17.0600 
G01 X4.0104  Y17.0914 
G01 X3.8834  Y17.2184 
G01 X3.7340  Y17.3182 
G01 X3.5680  Y17.3869 
G01 X3.3918  Y17.4220 
G01 X1.6882  Y17.4220 
G01 X1.5120  Y17.3869 
G01 X1.3460  Y17.3182 
G01 X1.1966  Y17.2184 
G01 X1.0696  Y17.0914 
G01 X0.9698  Y16.9420 
G01 X0.9010  Y16.7760 
G01 X0.8660  Y16.5998 
G01 X0.8660  Y16.4202 
G01 X0.9010  Y16.2440 
G01 X0.9698  Y16.0780 
G01 X1.0696  Y15.9286 
G00 Z3.0000  
G00 X1.0696  Y18.4686 
G01 Z-0.0250 F50    
G01 X1.1966  Y18.3416 F50    
G01 X1.3460  Y18.2418 
G01 X1.5120  Y18.1730 
G01 X1.6882  Y18.1380 
G01 X3.3918  Y18.1380 
G01 X3.5680  Y18.1730 
G01 X3.7340  Y18.2418 
G01 X3.8834  Y18.3416 
G01 X4.0104  Y18.4686 
G01 X4.0314  Y18.5000 
G01 X5.1524  Y18.5000 
G01 X5.2923  Y18.5375 
G01 X5.4177  Y18.6099 
G01 X5.9328  Y19.1250 
G01 X9.1000  Y19.1250 
G01 X9.1000  Y19.0452 
G01 X9.1228  Y18.9900 
G01 X9.1650  Y18.9478 
G01 X9.2202  Y18.9250 
G01 X12.2798 Y18.9250 
G01 X12.3350 Y18.9478 
G01 X12.3772 Y18.9900 
G01 X12.4000 Y19.0452 
G01 X12.4000 Y20.3048 
G01 X12.3772 Y20.3600 
G01 X12.3350 Y20.4022 
G01 X12.2798 Y20.4250 
G01 X9.2202  Y20.4250 
G01 X9.1650  Y20.4022 
G01 X9.1228  Y20.3600 
G01 X9.1000  Y20.3048 
G01 X9.1000  Y20.2250 
G01 X5.6326  Y20.2250 
G01 X5.4927  Y20.1875 
G01 X5.3673  Y20.1151 
G01 X4.8522  Y19.6000 
G01 X4.0314  Y19.6000 
G01 X4.0104  Y19.6314 
G01 X3.8834  Y19.7584 
G01 X3.7340  Y19.8582 
G01 X3.5680  Y19.9270 
G01 X3.3918  Y19.9620 
G01 X1.6882  Y19.9620 
G01 X1.5120  Y19.9270 
G01 X1.3460  Y19.8582 
G01 X1.1966  Y19.7584 
G01 X1.0696  Y19.6314 
G01 X0.9698  Y19.4820 
G01 X0.9010  Y19.3160 
G01 X0.8660  Y19.1398 
G01 X0.8660  Y18.9602 
G01 X0.9010  Y18.7840 
G01 X0.9698  Y18.6180 
G01 X1.0696  Y18.4686 
G00 Z3.0000  
G00 X1.0696  Y21.0086 
G01 Z-0.0250 F50    
G01 X1.1966  Y20.8816 F50    
G01 X1.3460  Y20.7818 
G01 X1.5120  Y20.7130 
G01 X1.6882  Y20.6780 
G01 X3.3918  Y20.6780 
G01 X3.5680  Y20.7130 
G01 X3.7340  Y20.7818 
G01 X3.8834  Y20.8816 
G01 X4.0104  Y21.0086 
G01 X4.0314  Y21.0400 
G01 X9.1021  Y21.0400 
G01 X9.1228  Y20.9900 
G01 X9.1650  Y20.9478 
G01 X9.2202  Y20.9250 
G01 X12.2798 Y20.9250 
G01 X12.3350 Y20.9478 
G01 X12.3772 Y20.9900 
G01 X12.4000 Y21.0452 
G01 X12.4000 Y22.3048 
G01 X12.3772 Y22.3600 
G01 X12.3350 Y22.4022 
G01 X12.2798 Y22.4250 
G01 X9.2202  Y22.4250 
G01 X9.1650  Y22.4022 
G01 X9.1228  Y22.3600 
G01 X9.1000  Y22.3048 
G01 X9.1000  Y22.1400 
G01 X4.0314  Y22.1400 
G01 X4.0104  Y22.1714 
G01 X3.8834  Y22.2984 
G01 X3.7340  Y22.3982 
G01 X3.5680  Y22.4670 
G01 X3.3918  Y22.5020 
G01 X1.6882  Y22.5020 
G01 X1.5120  Y22.4670 
G01 X1.3460  Y22.3982 
G01 X1.1966  Y22.2984 
G01 X1.0696  Y22.1714 
G01 X0.9698  Y22.0220 
G01 X0.9010  Y21.8560 
G01 X0.8660  Y21.6798 
G01 X0.8660  Y21.5002 
G01 X0.9010  Y21.3240 
G01 X0.9698  Y21.1580 
G01 X1.0696  Y21.0086 
G00 Z3.0000  
G00 X6.4650  Y18.0222 
G01 Z-0.0250 F50    
G01 X6.4228  Y17.9800 F50    
G01 X6.4000  Y17.9248 
G01 X6.4000  Y16.3652 
G01 X6.4228  Y16.3100 
G01 X6.4650  Y16.2678 
G01 X6.5202  Y16.2450 
G01 X7.8798  Y16.2450 
G01 X7.9350  Y16.2678 
G01 X7.9772  Y16.3100 
G01 X8.0000  Y16.3652 
G01 X8.0000  Y16.5950 
G01 X8.3274  Y16.5950 
G01 X8.4673  Y16.6325 
G01 X8.5927  Y16.7049 
G01 X9.0128  Y17.1250 
G01 X9.1000  Y17.1250 
G01 X9.1000  Y17.0452 
G01 X9.1228  Y16.9900 
G01 X9.1650  Y16.9478 
G01 X9.2202  Y16.9250 
G01 X12.2798 Y16.9250 
G01 X12.3350 Y16.9478 
G01 X12.3772 Y16.9900 
G01 X12.4000 Y17.0452 
G01 X12.4000 Y18.3048 
G01 X12.3772 Y18.3600 
G01 X12.3350 Y18.4022 
G01 X12.2798 Y18.4250 
G01 X9.2202  Y18.4250 
G01 X9.1650  Y18.4022 
G01 X9.1228  Y18.3600 
G01 X9.1000  Y18.3048 
G01 X9.1000  Y18.2250 
G01 X8.7126  Y18.2250 
G01 X8.5727  Y18.1875 
G01 X8.4473  Y18.1151 
G01 X8.0272  Y17.6950 
G01 X8.0000  Y17.6950 
G01 X8.0000  Y17.9248 
G01 X7.9772  Y17.9800 
G01 X7.9350  Y18.0222 
G01 X7.8798  Y18.0450 
G01 X6.5202  Y18.0450 
G01 X6.4650  Y18.0222 
G00 Z3.0000  
G00 X25.5000 Y18.3048 
G01 Z-0.0250 F50    
G01 X25.5000 Y17.0452 F50    
G01 X25.5228 Y16.9900 
G01 X25.5650 Y16.9478 
G01 X25.6202 Y16.9250 
G01 X28.6798 Y16.9250 
G01 X28.7350 Y16.9478 
G01 X28.7772 Y16.9900 
G01 X28.8000 Y17.0452 
G01 X28.8000 Y17.1250 
G01 X32.2622 Y17.1250 
G01 X33.2149 Y16.1723 
G01 X33.3173 Y16.0699 
G01 X33.3872 Y16.0295 
G01 X33.4546 Y15.9286 
G01 X33.5816 Y15.8016 
G01 X33.7310 Y15.7018 
G01 X33.8970 Y15.6330 
G01 X34.0732 Y15.5980 
G01 X35.7768 Y15.5980 
G01 X35.9530 Y15.6330 
G01 X36.1190 Y15.7018 
G01 X36.2684 Y15.8016 
G01 X36.3954 Y15.9286 
G01 X36.4952 Y16.0780 
G01 X36.5639 Y16.2440 
G01 X36.5990 Y16.4202 
G01 X36.5990 Y16.5998 
G01 X36.5639 Y16.7760 
G01 X36.4952 Y16.9420 
G01 X36.3954 Y17.0914 
G01 X36.2684 Y17.2184 
G01 X36.1190 Y17.3182 
G01 X35.9530 Y17.3869 
G01 X35.7768 Y17.4220 
G01 X34.0732 Y17.4220 
G01 X33.8970 Y17.3869 
G01 X33.7310 Y17.3182 
G01 X33.6672 Y17.2756 
G01 X32.8277 Y18.1151 
G01 X32.7023 Y18.1875 
G01 X32.5624 Y18.2250 
G01 X28.8000 Y18.2250 
G01 X28.8000 Y18.3048 
G01 X28.7772 Y18.3600 
G01 X28.7350 Y18.4022 
G01 X28.6798 Y18.4250 
G01 X25.6202 Y18.4250 
G01 X25.5650 Y18.4022 
G01 X25.5228 Y18.3600 
G01 X25.5000 Y18.3048 
G00 Z3.0000  
G00 X25.5228 Y18.9900 
G01 Z-0.0250 F50    
G01 X25.5650 Y18.9478 F50    
G01 X25.6202 Y18.9250 
G01 X28.6798 Y18.9250 
G01 X28.7350 Y18.9478 
G01 X28.7772 Y18.9900 
G01 X28.8000 Y19.0452 
G01 X28.8000 Y19.1250 
G01 X33.2510 Y19.1250 
G01 X33.2510 Y18.9602 
G01 X33.2860 Y18.7840 
G01 X33.3548 Y18.6180 
G01 X33.4546 Y18.4686 
G01 X33.5816 Y18.3416 
G01 X33.7310 Y18.2418 
G01 X33.8970 Y18.1730 
G01 X34.0732 Y18.1380 
G01 X35.7768 Y18.1380 
G01 X35.9530 Y18.1730 
G01 X36.1190 Y18.2418 
G01 X36.2684 Y18.3416 
G01 X36.3954 Y18.4686 
G01 X36.4952 Y18.6180 
G01 X36.5639 Y18.7840 
G01 X36.5990 Y18.9602 
G01 X36.5990 Y19.1398 
G01 X36.5639 Y19.3160 
G01 X36.4952 Y19.4820 
G01 X36.3954 Y19.6314 
G01 X36.2684 Y19.7584 
G01 X36.1190 Y19.8582 
G01 X35.9530 Y19.9270 
G01 X35.7768 Y19.9620 
G01 X34.7908 Y19.9620 
G01 X34.6377 Y20.1151 
G01 X34.5123 Y20.1875 
G01 X34.3724 Y20.2250 
G01 X28.8000 Y20.2250 
G01 X28.8000 Y20.3048 
G01 X28.7772 Y20.3600 
G01 X28.7350 Y20.4022 
G01 X28.6798 Y20.4250 
G01 X25.6202 Y20.4250 
G01 X25.5650 Y20.4022 
G01 X25.5228 Y20.3600 
G01 X25.5000 Y20.3048 
G01 X25.5000 Y19.0452 
G01 X25.5228 Y18.9900 
G00 Z3.0000  
G00 X25.5228 Y20.9900 
G01 Z-0.0250 F50    
G01 X25.5650 Y20.9478 F50    
G01 X25.6202 Y20.9250 
G01 X28.6798 Y20.9250 
G01 X28.7350 Y20.9478 
G01 X28.7772 Y20.9900 
G01 X28.7979 Y21.0400 
G01 X33.4336 Y21.0400 
G01 X33.4546 Y21.0086 
G01 X33.5816 Y20.8816 
G01 X33.7310 Y20.7818 
G01 X33.8970 Y20.7130 
G01 X34.0732 Y20.6780 
G01 X35.7768 Y20.6780 
G01 X35.9530 Y20.7130 
G01 X36.1190 Y20.7818 
G01 X36.2684 Y20.8816 
G01 X36.3954 Y21.0086 
G01 X36.4952 Y21.1580 
G01 X36.5639 Y21.3240 
G01 X36.5990 Y21.5002 
G01 X36.5990 Y21.6798 
G01 X36.5639 Y21.8560 
G01 X36.4952 Y22.0220 
G01 X36.3954 Y22.1714 
G01 X36.2684 Y22.2984 
G01 X36.1190 Y22.3982 
G01 X35.9530 Y22.4670 
G01 X35.7768 Y22.5020 
G01 X34.0732 Y22.5020 
G01 X33.8970 Y22.4670 
G01 X33.7310 Y22.3982 
G01 X33.5816 Y22.2984 
G01 X33.4546 Y22.1714 
G01 X33.4336 Y22.1400 
G01 X28.8000 Y22.1400 
G01 X28.8000 Y22.3048 
G01 X28.7772 Y22.3600 
G01 X28.7350 Y22.4022 
G01 X28.6798 Y22.4250 
G01 X25.6202 Y22.4250 
G01 X25.5650 Y22.4022 
G01 X25.5228 Y22.3600 
G01 X25.5000 Y22.3048 
G01 X25.5000 Y21.0452 
G01 X25.5228 Y20.9900 
G00 Z3.0000  
G00 X25.5650 Y16.4022 
G01 Z-0.0250 F50    
G01 X25.5228 Y16.3600 F50    
G01 X25.5000 Y16.3048 
G01 X25.5000 Y15.0452 
G01 X25.5228 Y14.9900 
G01 X25.5650 Y14.9478 
G01 X25.6202 Y14.9250 
G01 X28.6798 Y14.9250 
G01 X28.7350 Y14.9478 
G01 X28.7772 Y14.9900 
G01 X28.8000 Y15.0452 
G01 X28.8000 Y15.1250 
G01 X29.1822 Y15.1250 
G01 X29.4049 Y14.9023 
G01 X29.5073 Y14.7999 
G01 X29.6327 Y14.7275 
G01 X29.7726 Y14.6900 
G01 X32.7922 Y14.6900 
G01 X33.2794 Y14.2028 
G01 X33.2510 Y14.0598 
G01 X33.2510 Y13.8802 
G01 X33.2860 Y13.7040 
G01 X33.3548 Y13.5380 
G01 X33.4546 Y13.3886 
G01 X33.5816 Y13.2616 
G01 X33.7310 Y13.1618 
G01 X33.8970 Y13.0930 
G01 X34.0732 Y13.0580 
G01 X35.7768 Y13.0580 
G01 X35.9530 Y13.0930 
G01 X36.1190 Y13.1618 
G01 X36.2684 Y13.2616 
G01 X36.3954 Y13.3886 
G01 X36.4952 Y13.5380 
G01 X36.5639 Y13.7040 
G01 X36.5990 Y13.8802 
G01 X36.5990 Y14.0598 
G01 X36.5639 Y14.2360 
G01 X36.4952 Y14.4020 
G01 X36.3954 Y14.5514 
G01 X36.2684 Y14.6784 
G01 X36.1190 Y14.7782 
G01 X35.9530 Y14.8469 
G01 X35.7768 Y14.8820 
G01 X34.1558 Y14.8820 
G01 X33.4601 Y15.5777 
G01 X33.3577 Y15.6801 
G01 X33.2323 Y15.7525 
G01 X33.0924 Y15.7900 
G01 X30.0728 Y15.7900 
G01 X29.8501 Y16.0127 
G01 X29.7477 Y16.1151 
G01 X29.6223 Y16.1875 
G01 X29.4824 Y16.2250 
G01 X28.8000 Y16.2250 
G01 X28.8000 Y16.3048 
G01 X28.7772 Y16.3600 
G01 X28.7350 Y16.4022 
G01 X28.6798 Y16.4250 
G01 X25.6202 Y16.4250 
G01 X25.5650 Y16.4022 
G00 Z3.0000  
G00 X25.5650 Y14.4022 
G01 Z-0.0250 F50    
G01 X25.5228 Y14.3600 F50    
G01 X25.5000 Y14.3048 
G01 X25.5000 Y13.0452 
G01 X25.5228 Y12.9900 
G01 X25.5650 Y12.9478 
G01 X25.6202 Y12.9250 
G01 X28.6798 Y12.9250 
G01 X28.7350 Y12.9478 
G01 X28.7772 Y12.9900 
G01 X28.8000 Y13.0452 
G01 X28.8000 Y13.1250 
G01 X30.0901 Y13.1250 
G01 X29.9311 Y12.8496 
G01 X29.9233 Y12.7905 
G01 X29.9388 Y12.7328 
G01 X29.9751 Y12.6855 
G01 X31.1526 Y12.0057 
G01 X31.2118 Y11.9979 
G01 X31.2694 Y12.0133 
G01 X31.3168 Y12.0496 
G01 X32.0966 Y13.4004 
G01 X32.1044 Y13.4595 
G01 X32.0890 Y13.5172 
G01 X32.0526 Y13.5645 
G01 X30.8751 Y14.2443 
G01 X30.8160 Y14.2521 
G01 X30.7583 Y14.2367 
G01 X30.7110 Y14.2004 
G01 X30.6762 Y14.1875 
G01 X30.5363 Y14.2250 
G01 X28.8000 Y14.2250 
G01 X28.8000 Y14.3048 
G01 X28.7772 Y14.3600 
G01 X28.7350 Y14.4022 
G01 X28.6798 Y14.4250 
G01 X25.6202 Y14.4250 
G01 X25.5650 Y14.4022 
G00 Z3.0000  
G00 X25.5650 Y12.4022 
G01 Z-0.0250 F50    
G01 X25.5228 Y12.3600 F50    
G01 X25.5000 Y12.3048 
G01 X25.5000 Y11.0452 
G01 X25.5228 Y10.9900 
G01 X25.5650 Y10.9478 
G01 X25.6202 Y10.9250 
G01 X28.6798 Y10.9250 
G01 X28.7350 Y10.9478 
G01 X28.7772 Y10.9900 
G01 X28.8000 Y11.0452 
G01 X28.8000 Y11.1250 
G01 X28.8272 Y11.1250 
G01 X29.3523 Y10.5999 
G01 X29.4777 Y10.5275 
G01 X29.6176 Y10.4900 
G01 X31.2772 Y10.4900 
G01 X33.3173 Y8.4499  
G01 X33.3872 Y8.4095  
G01 X33.4546 Y8.3086  
G01 X33.5816 Y8.1816  
G01 X33.7310 Y8.0818  
G01 X33.8970 Y8.0130  
G01 X34.0732 Y7.9780  
G01 X35.7768 Y7.9780  
G01 X35.9530 Y8.0130  
G01 X36.1190 Y8.0818  
G01 X36.2684 Y8.1816  
G01 X36.3954 Y8.3086  
G01 X36.4952 Y8.4580  
G01 X36.5639 Y8.6240  
G01 X36.5990 Y8.8002  
G01 X36.5990 Y8.9798  
G01 X36.5639 Y9.1560  
G01 X36.4952 Y9.3220  
G01 X36.3954 Y9.4714  
G01 X36.2684 Y9.5984  
G01 X36.1190 Y9.6982  
G01 X35.9530 Y9.7669  
G01 X35.7768 Y9.8020  
G01 X34.0732 Y9.8020  
G01 X33.8970 Y9.7669  
G01 X33.7310 Y9.6982  
G01 X33.6672 Y9.6556  
G01 X31.8427 Y11.4801 
G01 X31.7173 Y11.5525 
G01 X31.5774 Y11.5900 
G01 X29.9178 Y11.5900 
G01 X29.4951 Y12.0127 
G01 X29.3927 Y12.1151 
G01 X29.2673 Y12.1875 
G01 X29.1274 Y12.2250 
G01 X28.8000 Y12.2250 
G01 X28.8000 Y12.3048 
G01 X28.7772 Y12.3600 
G01 X28.7350 Y12.4022 
G01 X28.6798 Y12.4250 
G01 X25.6202 Y12.4250 
G01 X25.5650 Y12.4022 
G00 Z3.0000  
G00 X25.5650 Y10.4022 
G01 Z-0.0250 F50    
G01 X25.5228 Y10.3600 F50    
G01 X25.5000 Y10.3048 
G01 X25.5000 Y9.0452  
G01 X25.5228 Y8.9900  
G01 X25.5650 Y8.9478  
G01 X25.6202 Y8.9250  
G01 X28.6798 Y8.9250  
G01 X28.7350 Y8.9478  
G01 X28.7772 Y8.9900  
G01 X28.8000 Y9.0452  
G01 X28.8000 Y9.1250  
G01 X29.5800 Y9.1250  
G01 X29.5800 Y8.4252  
G01 X29.6028 Y8.3700  
G01 X29.6450 Y8.3278  
G01 X29.7002 Y8.3050  
G01 X31.2598 Y8.3050  
G01 X31.3150 Y8.3278  
G01 X31.3572 Y8.3700  
G01 X31.3800 Y8.4252  
G01 X31.3800 Y9.7848  
G01 X31.3572 Y9.8400  
G01 X31.3150 Y9.8822  
G01 X31.2598 Y9.9050  
G01 X30.4578 Y9.9050  
G01 X30.3501 Y10.0127 
G01 X30.2477 Y10.1151 
G01 X30.1223 Y10.1875 
G01 X29.9824 Y10.2250 
G01 X28.8000 Y10.2250 
G01 X28.8000 Y10.3048 
G01 X28.7772 Y10.3600 
G01 X28.7350 Y10.4022 
G01 X28.6798 Y10.4250 
G01 X25.6202 Y10.4250 
G01 X25.5650 Y10.4022 
G00 Z3.0000  
G00 X25.5650 Y8.4022  
G01 Z-0.0250 F50    
G01 X25.5228 Y8.3600  F50    
G01 X25.5000 Y8.3048  
G01 X25.5000 Y7.0452  
G01 X25.5228 Y6.9900  
G01 X25.5650 Y6.9478  
G01 X25.6202 Y6.9250  
G01 X26.6000 Y6.9250  
G01 X26.6000 Y5.7976  
G01 X26.6375 Y5.6577  
G01 X26.7099 Y5.5323  
G01 X26.8123 Y5.4299  
G01 X28.8723 Y3.3699  
G01 X28.9977 Y3.2975  
G01 X29.1376 Y3.2600  
G01 X33.4336 Y3.2600  
G01 X33.4546 Y3.2286  
G01 X33.5816 Y3.1016  
G01 X33.7310 Y3.0018  
G01 X33.8970 Y2.9330  
G01 X34.0732 Y2.8980  
G01 X35.7768 Y2.8980  
G01 X35.9530 Y2.9330  
G01 X36.1190 Y3.0018  
G01 X36.2684 Y3.1016  
G01 X36.3954 Y3.2286  
G01 X36.4952 Y3.3780  
G01 X36.5639 Y3.5440  
G01 X36.5990 Y3.7202  
G01 X36.5990 Y3.8998  
G01 X36.5639 Y4.0760  
G01 X36.4952 Y4.2420  
G01 X36.3954 Y4.3914  
G01 X36.2684 Y4.5184  
G01 X36.1190 Y4.6182  
G01 X35.9530 Y4.6870  
G01 X35.7768 Y4.7220  
G01 X34.0732 Y4.7220  
G01 X33.8970 Y4.6870  
G01 X33.7310 Y4.6182  
G01 X33.5816 Y4.5184  
G01 X33.4546 Y4.3914  
G01 X33.4336 Y4.3600  
G01 X29.4378 Y4.3600  
G01 X27.7000 Y6.0978  
G01 X27.7000 Y6.9250  
G01 X28.6798 Y6.9250  
G01 X28.7350 Y6.9478  
G01 X28.7772 Y6.9900  
G01 X28.8000 Y7.0452  
G01 X28.8000 Y8.3048  
G01 X28.7772 Y8.3600  
G01 X28.7350 Y8.4022  
G01 X28.6798 Y8.4250  
G01 X25.6202 Y8.4250  
G01 X25.5650 Y8.4022  
G00 Z3.0000  
G00 X29.6450 Y8.1822  
G01 Z-0.0250 F50    
G01 X29.6028 Y8.1400  F50    
G01 X29.5800 Y8.0848  
G01 X29.5800 Y6.7252  
G01 X29.6028 Y6.6700  
G01 X29.6450 Y6.6278  
G01 X29.7002 Y6.6050  
G01 X30.6564 Y6.6050  
G01 X31.6088 Y5.9284  
G01 X31.6676 Y5.8866  
G01 X31.7055 Y5.8597  
G01 X31.7527 Y5.8375  
G01 X31.7976 Y5.8254  
G01 X31.8412 Y5.8092  
G01 X31.8673 Y5.8068  
G01 X31.9391 Y5.8000  
G01 X31.9854 Y5.7956  
G01 X32.0112 Y5.8000  
G01 X33.4336 Y5.8000  
G01 X33.4546 Y5.7686  
G01 X33.5816 Y5.6416  
G01 X33.7310 Y5.5418  
G01 X33.8970 Y5.4730  
G01 X34.0732 Y5.4380  
G01 X35.7768 Y5.4380  
G01 X35.9530 Y5.4730  
G01 X36.1190 Y5.5418  
G01 X36.2684 Y5.6416  
G01 X36.3954 Y5.7686  
G01 X36.4952 Y5.9180  
G01 X36.5639 Y6.0840  
G01 X36.5990 Y6.2602  
G01 X36.5990 Y6.4398  
G01 X36.5639 Y6.6160  
G01 X36.4952 Y6.7820  
G01 X36.3954 Y6.9314  
G01 X36.2684 Y7.0584  
G01 X36.1190 Y7.1582  
G01 X35.9530 Y7.2270  
G01 X35.7768 Y7.2620  
G01 X34.0732 Y7.2620  
G01 X33.8970 Y7.2270  
G01 X33.7310 Y7.1582  
G01 X33.5816 Y7.0584  
G01 X33.4546 Y6.9314  
G01 X33.4336 Y6.9000  
G01 X32.1405 Y6.9000  
G01 X31.3800 Y7.4403  
G01 X31.3800 Y8.0848  
G01 X31.3572 Y8.1400  
G01 X31.3150 Y8.1822  
G01 X31.2598 Y8.2050  
G01 X29.7002 Y8.2050  
G01 X29.6450 Y8.1822  
G00 Z3.0000  
G00 X31.4474 Y11.8355 
G01 Z-0.0250 F50    
G01 X32.6249 Y11.1557 F50    
G01 X32.6840 Y11.1479 
G01 X32.7417 Y11.1633 
G01 X32.7860 Y11.1973 
G01 X32.8910 Y11.0923 
G01 X32.9934 Y10.9899 
G01 X33.1188 Y10.9175 
G01 X33.2587 Y10.8800 
G01 X33.4336 Y10.8800 
G01 X33.4546 Y10.8486 
G01 X33.5816 Y10.7216 
G01 X33.7310 Y10.6218 
G01 X33.8970 Y10.5530 
G01 X34.0732 Y10.5180 
G01 X35.7768 Y10.5180 
G01 X35.9530 Y10.5530 
G01 X36.1190 Y10.6218 
G01 X36.2684 Y10.7216 
G01 X36.3954 Y10.8486 
G01 X36.4952 Y10.9980 
G01 X36.5639 Y11.1640 
G01 X36.5990 Y11.3402 
G01 X36.5990 Y11.5198 
G01 X36.5639 Y11.6960 
G01 X36.4952 Y11.8620 
G01 X36.3954 Y12.0114 
G01 X36.2684 Y12.1384 
G01 X36.1190 Y12.2382 
G01 X35.9530 Y12.3070 
G01 X35.7768 Y12.3420 
G01 X34.0732 Y12.3420 
G01 X33.8970 Y12.3070 
G01 X33.7310 Y12.2382 
G01 X33.5816 Y12.1384 
G01 X33.4911 Y12.0478 
G01 X33.3565 Y12.1825 
G01 X33.5689 Y12.5504 
G01 X33.5766 Y12.6095 
G01 X33.5612 Y12.6672 
G01 X33.5249 Y12.7145 
G01 X32.3474 Y13.3943 
G01 X32.2882 Y13.4021 
G01 X32.2306 Y13.3867 
G01 X32.1832 Y13.3504 
G01 X31.4034 Y11.9996 
G01 X31.3956 Y11.9405 
G01 X31.4110 Y11.8828 
G01 X31.4474 Y11.8355 
G00 Z3.0000  
G00 X0.8917  Y3.0530  
G01 Z-0.0250 F50    
G01 X1.0210  Y2.9237  F50    
G01 X1.1690  Y2.8162  
G01 X1.3319  Y2.7331  
G01 X1.5059  Y2.6766  
G01 X1.6865  Y2.6480  
G01 X3.3935  Y2.6480  
G01 X3.5741  Y2.6766  
G01 X3.7481  Y2.7331  
G01 X3.9110  Y2.8162  
G01 X4.0590  Y2.9237  
G01 X4.1453  Y3.0100  
G01 X6.9638  Y3.0100  
G01 X7.1184  Y3.0407  
G01 X7.2639  Y3.1010  
G01 X7.3950  Y3.1886  
G01 X7.5064  Y3.3000  
G01 X10.8814 Y6.6750  
G01 X12.3027 Y6.6750  
G01 X12.4044 Y6.7023  
G01 X12.4956 Y6.7549  
G01 X12.5701 Y6.8294  
G01 X12.6227 Y6.9206  
G01 X12.6500 Y7.0223  
G01 X12.6500 Y8.3277  
G01 X12.6227 Y8.4294  
G01 X12.5701 Y8.5206  
G01 X12.4956 Y8.5951  
G01 X12.4044 Y8.6477  
G01 X12.3027 Y8.6750  
G01 X9.1973  Y8.6750  
G01 X9.1619  Y8.6655  
G01 X9.1973  Y8.6750  
G01 X12.3027 Y8.6750  
G01 X12.4044 Y8.7023  
G01 X12.4956 Y8.7549  
G01 X12.5701 Y8.8294  
G01 X12.6227 Y8.9206  
G01 X12.6500 Y9.0223  
G01 X12.6500 Y10.3277 
G01 X12.6227 Y10.4294 
G01 X12.5701 Y10.5206 
G01 X12.4956 Y10.5951 
G01 X12.4044 Y10.6477 
G01 X12.3027 Y10.6750 
G01 X9.2664  Y10.6750 
G01 X12.3027 Y10.6750 
G01 X12.4044 Y10.7023 
G01 X12.4956 Y10.7549 
G01 X12.5701 Y10.8294 
G01 X12.6227 Y10.9206 
G01 X12.6500 Y11.0223 
G01 X12.6500 Y12.3277 
G01 X12.6227 Y12.4294 
G01 X12.5701 Y12.5206 
G01 X12.4956 Y12.5951 
G01 X12.4044 Y12.6477 
G01 X12.3027 Y12.6750 
G01 X9.1973  Y12.6750 
G01 X9.0956  Y12.6477 
G01 X9.0044  Y12.5951 
G01 X8.9299  Y12.5206 
G01 X8.8809  Y12.4356 
G01 X8.7561  Y12.3839 
G01 X8.6250  Y12.2964 
G01 X7.9236  Y11.5950 
G01 X7.6464  Y11.5950 
G01 X8.9119  Y12.8606 
G01 X8.9299  Y12.8294 
G01 X9.0044  Y12.7549 
G01 X9.0956  Y12.7023 
G01 X9.1973  Y12.6750 
G01 X12.3027 Y12.6750 
G01 X12.4044 Y12.7023 
G01 X12.4956 Y12.7549 
G01 X12.5701 Y12.8294 
G01 X12.6227 Y12.9206 
G01 X12.6500 Y13.0223 
G01 X12.6500 Y14.3277 
G01 X12.6227 Y14.4294 
G01 X12.5701 Y14.5206 
G01 X12.4956 Y14.5951 
G01 X12.4044 Y14.6477 
G01 X12.3027 Y14.6750 
G01 X9.6564  Y14.6750 
G01 X12.3027 Y14.6750 
G01 X12.4044 Y14.7023 
G01 X12.4956 Y14.7549 
G01 X12.5701 Y14.8294 
G01 X12.6227 Y14.9206 
G01 X12.6500 Y15.0223 
G01 X12.6500 Y16.3277 
G01 X12.6227 Y16.4294 
G01 X12.5701 Y16.5206 
G01 X12.4956 Y16.5951 
G01 X12.4044 Y16.6477 
G01 X12.3027 Y16.6750 
G01 X9.1973  Y16.6750 
G01 X9.0956  Y16.6477 
G01 X9.0044  Y16.5951 
G01 X8.9299  Y16.5206 
G01 X8.8773  Y16.4294 
G01 X8.8500  Y16.3277 
G01 X8.8500  Y16.1314 
G01 X8.7586  Y16.0400 
G01 X8.0351  Y16.0400 
G01 X8.0956  Y16.0749 
G01 X8.1701  Y16.1494 
G01 X8.2227  Y16.2406 
G01 X8.2500  Y16.3423 
G01 X8.3338  Y16.3450 
G01 X8.4884  Y16.3757 
G01 X8.6339  Y16.4361 
G01 X8.7650  Y16.5236 
G01 X9.0003  Y16.7590 
G01 X9.0956  Y16.7023 
G01 X9.1973  Y16.6750 
G01 X12.3027 Y16.6750 
G01 X12.4044 Y16.7023 
G01 X12.4956 Y16.7549 
G01 X12.5701 Y16.8294 
G01 X12.6227 Y16.9206 
G01 X12.6500 Y17.0223 
G01 X12.6500 Y18.3277 
G01 X12.6227 Y18.4294 
G01 X12.5701 Y18.5206 
G01 X12.4956 Y18.5951 
G01 X12.4044 Y18.6477 
G01 X12.3027 Y18.6750 
G01 X9.1973  Y18.6750 
G01 X9.0956  Y18.6477 
G01 X9.0044  Y18.5951 
G01 X8.9299  Y18.5206 
G01 X8.9036  Y18.4750 
G01 X8.7062  Y18.4750 
G01 X8.5516  Y18.4443 
G01 X8.4061  Y18.3839 
G01 X8.2750  Y18.2964 
G01 X8.1447  Y18.1660 
G01 X8.0956  Y18.2151 
G01 X8.0044  Y18.2677 
G01 X7.9027  Y18.2950 
G01 X6.4973  Y18.2950 
G01 X6.3956  Y18.2677 
G01 X6.3500  Y18.2414 
G01 X6.3044  Y18.2677 
G01 X6.2027  Y18.2950 
G01 X5.3478  Y18.2950 
G01 X5.4589  Y18.3410 
G01 X5.5900  Y18.4286 
G01 X6.0364  Y18.8750 
G01 X8.9036  Y18.8750 
G01 X8.9299  Y18.8294 
G01 X9.0044  Y18.7549 
G01 X9.0956  Y18.7023 
G01 X9.1973  Y18.6750 
G01 X12.3027 Y18.6750 
G01 X12.4044 Y18.7023 
G01 X12.4956 Y18.7549 
G01 X12.5701 Y18.8294 
G01 X12.6227 Y18.9206 
G01 X12.6500 Y19.0223 
G01 X12.6500 Y20.3277 
G01 X12.6227 Y20.4294 
G01 X12.5701 Y20.5206 
G01 X12.4956 Y20.5951 
G01 X12.4044 Y20.6477 
G01 X12.3027 Y20.6750 
G01 X9.1973  Y20.6750 
G01 X9.0956  Y20.6477 
G01 X9.0044  Y20.5951 
G01 X8.9299  Y20.5206 
G01 X8.9036  Y20.4750 
G01 X5.6262  Y20.4750 
G01 X5.4716  Y20.4443 
G01 X5.3261  Y20.3839 
G01 X5.1950  Y20.2964 
G01 X4.7486  Y19.8500 
G01 X4.1453  Y19.8500 
G01 X4.0590  Y19.9363 
G01 X3.9110  Y20.0438 
G01 X3.7481  Y20.1269 
G01 X3.5741  Y20.1834 
G01 X3.3935  Y20.2120 
G01 X1.6865  Y20.2120 
G01 X1.5059  Y20.1834 
G01 X1.3319  Y20.1269 
G01 X1.1690  Y20.0438 
G01 X1.0210  Y19.9363 
G01 X0.8917  Y19.8070 
G01 X0.7842  Y19.6590 
G01 X0.7011  Y19.4961 
G01 X0.6446  Y19.3221 
G01 X0.6160  Y19.1414 
G01 X0.6160  Y18.9585 
G01 X0.6446  Y18.7779 
G01 X0.7011  Y18.6039 
G01 X0.7842  Y18.4410 
G01 X0.8917  Y18.2930 
G01 X1.0210  Y18.1637 
G01 X1.1690  Y18.0562 
G01 X1.3319  Y17.9731 
G01 X1.5059  Y17.9166 
G01 X1.6865  Y17.8880 
G01 X3.3935  Y17.8880 
G01 X3.5741  Y17.9166 
G01 X3.7481  Y17.9731 
G01 X3.9110  Y18.0562 
G01 X4.0590  Y18.1637 
G01 X4.1453  Y18.2500 
G01 X4.6649  Y18.2500 
G01 X4.6044  Y18.2151 
G01 X4.5299  Y18.1406 
G01 X4.4773  Y18.0494 
G01 X4.4500  Y17.9477 
G01 X4.4500  Y17.3100 
G01 X4.1453  Y17.3100 
G01 X4.0590  Y17.3963 
G01 X3.9110  Y17.5038 
G01 X3.7481  Y17.5869 
G01 X3.5741  Y17.6434 
G01 X3.3935  Y17.6720 
G01 X1.6865  Y17.6720 
G01 X1.5059  Y17.6434 
G01 X1.3319  Y17.5869 
G01 X1.1690  Y17.5038 
G01 X1.0210  Y17.3963 
G01 X0.8917  Y17.2670 
G01 X0.7842  Y17.1190 
G01 X0.7011  Y16.9561 
G01 X0.6446  Y16.7821 
G01 X0.6160  Y16.6014 
G01 X0.6160  Y16.4185 
G01 X0.6446  Y16.2379 
G01 X0.7011  Y16.0639 
G01 X0.7842  Y15.9010 
G01 X0.8917  Y15.7530 
G01 X1.0210  Y15.6237 
G01 X1.1690  Y15.5162 
G01 X1.3319  Y15.4331 
G01 X1.5059  Y15.3766 
G01 X1.6865  Y15.3480 
G01 X3.3935  Y15.3480 
G01 X3.5741  Y15.3766 
G01 X3.7481  Y15.4331 
G01 X3.9110  Y15.5162 
G01 X4.0590  Y15.6237 
G01 X4.1453  Y15.7100 
G01 X4.9438  Y15.7100 
G01 X5.0983  Y15.7407 
G01 X5.2439  Y15.8011 
G01 X5.3750  Y15.8886 
G01 X5.4814  Y15.9950 
G01 X6.2027  Y15.9950 
G01 X6.3044  Y16.0223 
G01 X6.3500  Y16.0486 
G01 X6.3956  Y16.0223 
G01 X6.4973  Y15.9950 
G01 X6.7172  Y15.9950 
G01 X6.6061  Y15.9489 
G01 X6.4750  Y15.8614 
G01 X6.3636  Y15.7500 
G01 X5.3836  Y14.7700 
G01 X4.1453  Y14.7700 
G01 X4.0590  Y14.8563 
G01 X3.9110  Y14.9638 
G01 X3.7481  Y15.0469 
G01 X3.5741  Y15.1034 
G01 X3.3935  Y15.1320 
G01 X1.6865  Y15.1320 
G01 X1.5059  Y15.1034 
G01 X1.3319  Y15.0469 
G01 X1.1690  Y14.9638 
G01 X1.0210  Y14.8563 
G01 X0.8917  Y14.7270 
G01 X0.7842  Y14.5790 
G01 X0.7011  Y14.4161 
G01 X0.6446  Y14.2421 
G01 X0.6160  Y14.0615 
G01 X0.6160  Y13.8785 
G01 X0.6446  Y13.6979 
G01 X0.7011  Y13.5239 
G01 X0.7842  Y13.3610 
G01 X0.8917  Y13.2130 
G01 X1.0210  Y13.0837 
G01 X1.1690  Y12.9762 
G01 X1.3319  Y12.8931 
G01 X1.5059  Y12.8366 
G01 X1.6865  Y12.8080 
G01 X2.8783  Y12.8080 
G01 X2.7961  Y12.7739 
G01 X2.6650  Y12.6864 
G01 X2.5706  Y12.5920 
G01 X1.6865  Y12.5920 
G01 X1.5059  Y12.5634 
G01 X1.3319  Y12.5069 
G01 X1.1690  Y12.4238 
G01 X1.0210  Y12.3163 
G01 X0.8917  Y12.1870 
G01 X0.7842  Y12.0390 
G01 X0.7011  Y11.8761 
G01 X0.6446  Y11.7021 
G01 X0.6160  Y11.5214 
G01 X0.6160  Y11.3385 
G01 X0.6446  Y11.1579 
G01 X0.7011  Y10.9839 
G01 X0.7842  Y10.8210 
G01 X0.8917  Y10.6730 
G01 X1.0210  Y10.5437 
G01 X1.1690  Y10.4362 
G01 X1.3319  Y10.3531 
G01 X1.5059  Y10.2966 
G01 X1.6865  Y10.2680 
G01 X3.3935  Y10.2680 
G01 X3.5741  Y10.2966 
G01 X3.7481  Y10.3531 
G01 X3.9110  Y10.4362 
G01 X4.0590  Y10.5437 
G01 X4.1883  Y10.6730 
G01 X4.2958  Y10.8210 
G01 X4.3789  Y10.9839 
G01 X4.4354  Y11.1579 
G01 X4.4523  Y11.2650 
G01 X6.3236  Y11.2650 
G01 X5.3836  Y10.3250 
G01 X3.7312  Y10.3250 
G01 X3.5766  Y10.2943 
G01 X3.4311  Y10.2339 
G01 X3.3000  Y10.1464 
G01 X3.2056  Y10.0520 
G01 X1.6865  Y10.0520 
G01 X1.5059  Y10.0234 
G01 X1.3319  Y9.9669  
G01 X1.1690  Y9.8838  
G01 X1.0210  Y9.7763  
G01 X0.8917  Y9.6470  
G01 X0.7842  Y9.4990  
G01 X0.7011  Y9.3361  
G01 X0.6446  Y9.1621  
G01 X0.6160  Y8.9815  
G01 X0.6160  Y8.7985  
G01 X0.6446  Y8.6179  
G01 X0.7011  Y8.4439  
G01 X0.7842  Y8.2810  
G01 X0.8917  Y8.1330  
G01 X1.0210  Y8.0037  
G01 X1.1690  Y7.8962  
G01 X1.3319  Y7.8131  
G01 X1.5059  Y7.7566  
G01 X1.6865  Y7.7280  
G01 X3.3935  Y7.7280  
G01 X3.5741  Y7.7566  
G01 X3.7481  Y7.8131  
G01 X3.9110  Y7.8962  
G01 X4.0590  Y8.0037  
G01 X4.1883  Y8.1330  
G01 X4.2958  Y8.2810  
G01 X4.3789  Y8.4439  
G01 X4.4354  Y8.6179  
G01 X4.4523  Y8.7250  
G01 X5.7938  Y8.7250  
G01 X5.9483  Y8.7557  
G01 X6.0939  Y8.8161  
G01 X6.2250  Y8.9036  
G01 X7.3164  Y9.9950  
G01 X8.2286  Y9.9950  
G01 X5.3836  Y7.1500  
G01 X4.1453  Y7.1500  
G01 X4.0590  Y7.2363  
G01 X3.9110  Y7.3438  
G01 X3.7481  Y7.4269  
G01 X3.5741  Y7.4834  
G01 X3.3935  Y7.5120  
G01 X1.6865  Y7.5120  
G01 X1.5059  Y7.4834  
G01 X1.3319  Y7.4269  
G01 X1.1690  Y7.3438  
G01 X1.0210  Y7.2363  
G01 X0.8917  Y7.1070  
G01 X0.7842  Y6.9590  
G01 X0.7011  Y6.7961  
G01 X0.6446  Y6.6221  
G01 X0.6160  Y6.4414  
G01 X0.6160  Y6.2585  
G01 X0.6446  Y6.0779  
G01 X0.7011  Y5.9039  
G01 X0.7842  Y5.7410  
G01 X0.8917  Y5.5930  
G01 X1.0210  Y5.4637  
G01 X1.1690  Y5.3562  
G01 X1.3319  Y5.2731  
G01 X1.5059  Y5.2166  
G01 X1.6865  Y5.1880  
G01 X3.3935  Y5.1880  
G01 X3.5741  Y5.2166  
G01 X3.7481  Y5.2731  
G01 X3.9110  Y5.3562  
G01 X4.0590  Y5.4637  
G01 X4.1453  Y5.5500  
G01 X5.7938  Y5.5500  
G01 X5.9483  Y5.5807  
G01 X6.0939  Y5.6410  
G01 X6.2250  Y5.7286  
G01 X6.3364  Y5.8400  
G01 X8.8595  Y8.3631  
G01 X8.8500  Y8.3277  
G01 X8.8500  Y7.0223  
G01 X8.8745  Y6.9309  
G01 X6.5536  Y4.6100  
G01 X4.1453  Y4.6100  
G01 X4.0590  Y4.6963  
G01 X3.9110  Y4.8038  
G01 X3.7481  Y4.8869  
G01 X3.5741  Y4.9434  
G01 X3.3935  Y4.9720  
G01 X1.6865  Y4.9720  
G01 X1.5059  Y4.9434  
G01 X1.3319  Y4.8869  
G01 X1.1690  Y4.8038  
G01 X1.0210  Y4.6963  
G01 X0.8917  Y4.5670  
G01 X0.7842  Y4.4190  
G01 X0.7011  Y4.2561  
G01 X0.6446  Y4.0821  
G01 X0.6160  Y3.9015  
G01 X0.6160  Y3.7185  
G01 X0.6446  Y3.5379  
G01 X0.7011  Y3.3639  
G01 X0.7842  Y3.2010  
G01 X0.8917  Y3.0530  
G00 Z3.0000  
G00 X3.6615  Y12.8650 
G01 Z-0.0250 F50    
G01 X3.7481  Y12.8931 F50    
G01 X3.9110  Y12.9762 
G01 X4.0590  Y13.0837 
G01 X4.1453  Y13.1700 
G01 X5.7938  Y13.1700 
G01 X5.9483  Y13.2007 
G01 X6.0939  Y13.2610 
G01 X6.2250  Y13.3486 
G01 X7.3164  Y14.4400 
G01 X8.3514  Y14.4400 
G01 X8.2161  Y14.3839 
G01 X8.0850  Y14.2964 
G01 X6.6536  Y12.8650 
G01 X3.6615  Y12.8650 
G00 Z3.0000  
G00 X3.5741  Y20.4566 
G01 Z-0.0250 F50    
G01 X3.7481  Y20.5131 F50    
G01 X3.9110  Y20.5962 
G01 X4.0590  Y20.7037 
G01 X4.1453  Y20.7900 
G01 X8.9693  Y20.7900 
G01 X9.0044  Y20.7549 
G01 X9.0956  Y20.7023 
G01 X9.1973  Y20.6750 
G01 X12.3027 Y20.6750 
G01 X12.4044 Y20.7023 
G01 X12.4956 Y20.7549 
G01 X12.5701 Y20.8294 
G01 X12.6227 Y20.9206 
G01 X12.6500 Y21.0223 
G01 X12.6500 Y22.3277 
G01 X12.6227 Y22.4294 
G01 X12.5701 Y22.5206 
G01 X12.4956 Y22.5951 
G01 X12.4044 Y22.6477 
G01 X12.3027 Y22.6750 
G01 X9.1973  Y22.6750 
G01 X9.0956  Y22.6477 
G01 X9.0044  Y22.5951 
G01 X8.9299  Y22.5206 
G01 X8.8773  Y22.4294 
G01 X8.8667  Y22.3900 
G01 X4.1453  Y22.3900 
G01 X4.0590  Y22.4763 
G01 X3.9110  Y22.5838 
G01 X3.7481  Y22.6669 
G01 X3.5741  Y22.7234 
G01 X3.3935  Y22.7520 
G01 X1.6865  Y22.7520 
G01 X1.5059  Y22.7234 
G01 X1.3319  Y22.6669 
G01 X1.1690  Y22.5838 
G01 X1.0210  Y22.4763 
G01 X0.8917  Y22.3470 
G01 X0.7842  Y22.1990 
G01 X0.7011  Y22.0361 
G01 X0.6446  Y21.8621 
G01 X0.6160  Y21.6815 
G01 X0.6160  Y21.4985 
G01 X0.6446  Y21.3179 
G01 X0.7011  Y21.1439 
G01 X0.7842  Y20.9810 
G01 X0.8917  Y20.8330 
G01 X1.0210  Y20.7037 
G01 X1.1690  Y20.5962 
G01 X1.3319  Y20.5131 
G01 X1.5059  Y20.4566 
G01 X1.6865  Y20.4280 
G01 X3.3935  Y20.4280 
G01 X3.5741  Y20.4566 
G00 Z3.0000  
G00 X25.2773 Y20.4294 
G01 Z-0.0250 F50    
G01 X25.2500 Y20.3277 F50    
G01 X25.2500 Y19.0223 
G01 X25.2773 Y18.9206 
G01 X25.3299 Y18.8294 
G01 X25.4044 Y18.7549 
G01 X25.4956 Y18.7023 
G01 X25.5973 Y18.6750 
G01 X28.7027 Y18.6750 
G01 X28.8044 Y18.7023 
G01 X28.8956 Y18.7549 
G01 X28.9701 Y18.8294 
G01 X28.9964 Y18.8750 
G01 X33.0142 Y18.8750 
G01 X33.0296 Y18.7779 
G01 X33.0861 Y18.6039 
G01 X33.1692 Y18.4410 
G01 X33.2767 Y18.2930 
G01 X33.4060 Y18.1637 
G01 X33.5540 Y18.0562 
G01 X33.7169 Y17.9731 
G01 X33.8909 Y17.9166 
G01 X34.0715 Y17.8880 
G01 X35.7784 Y17.8880 
G01 X35.9591 Y17.9166 
G01 X36.1331 Y17.9731 
G01 X36.2960 Y18.0562 
G01 X36.4440 Y18.1637 
G01 X36.5733 Y18.2930 
G01 X36.6808 Y18.4410 
G01 X36.7639 Y18.6039 
G01 X36.8204 Y18.7779 
G01 X36.8490 Y18.9585 
G01 X36.8490 Y19.1414 
G01 X36.8204 Y19.3221 
G01 X36.7639 Y19.4961 
G01 X36.6808 Y19.6590 
G01 X36.5733 Y19.8070 
G01 X36.4440 Y19.9363 
G01 X36.2960 Y20.0438 
G01 X36.1331 Y20.1269 
G01 X35.9591 Y20.1834 
G01 X35.7784 Y20.2120 
G01 X34.8944 Y20.2120 
G01 X34.8100 Y20.2964 
G01 X34.6789 Y20.3839 
G01 X34.5726 Y20.4280 
G01 X35.7784 Y20.4280 
G01 X35.9591 Y20.4566 
G01 X36.1331 Y20.5131 
G01 X36.2960 Y20.5962 
G01 X36.4440 Y20.7037 
G01 X36.5733 Y20.8330 
G01 X36.6808 Y20.9810 
G01 X36.7639 Y21.1439 
G01 X36.8204 Y21.3179 
G01 X36.8490 Y21.4985 
G01 X36.8490 Y21.6815 
G01 X36.8204 Y21.8621 
G01 X36.7639 Y22.0361 
G01 X36.6808 Y22.1990 
G01 X36.5733 Y22.3470 
G01 X36.4440 Y22.4763 
G01 X36.2960 Y22.5838 
G01 X36.1331 Y22.6669 
G01 X35.9591 Y22.7234 
G01 X35.7784 Y22.7520 
G01 X34.0715 Y22.7520 
G01 X33.8909 Y22.7234 
G01 X33.7169 Y22.6669 
G01 X33.5540 Y22.5838 
G01 X33.4060 Y22.4763 
G01 X33.3197 Y22.3900 
G01 X29.0333 Y22.3900 
G01 X29.0227 Y22.4294 
G01 X28.9701 Y22.5206 
G01 X28.8956 Y22.5951 
G01 X28.8044 Y22.6477 
G01 X28.7027 Y22.6750 
G01 X25.5973 Y22.6750 
G01 X25.4956 Y22.6477 
G01 X25.4044 Y22.5951 
G01 X25.3299 Y22.5206 
G01 X25.2773 Y22.4294 
G01 X25.2500 Y22.3277 
G01 X25.2500 Y21.0223 
G01 X25.2773 Y20.9206 
G01 X25.3299 Y20.8294 
G01 X25.4044 Y20.7549 
G01 X25.4956 Y20.7023 
G01 X25.5973 Y20.6750 
G01 X28.7027 Y20.6750 
G01 X28.8044 Y20.7023 
G01 X28.8956 Y20.7549 
G01 X28.9307 Y20.7900 
G01 X33.3197 Y20.7900 
G01 X33.4060 Y20.7037 
G01 X33.5540 Y20.5962 
G01 X33.7169 Y20.5131 
G01 X33.8343 Y20.4750 
G01 X28.9964 Y20.4750 
G01 X28.9701 Y20.5206 
G01 X28.8956 Y20.5951 
G01 X28.8044 Y20.6477 
G01 X28.7027 Y20.6750 
G01 X25.5973 Y20.6750 
G01 X25.4956 Y20.6477 
G01 X25.4044 Y20.5951 
G01 X25.3299 Y20.5206 
G01 X25.2773 Y20.4294 
G00 Z3.0000  
G00 X25.4044 Y18.5951 
G01 Z-0.0250 F50    
G01 X25.3299 Y18.5206 F50    
G01 X25.2773 Y18.4294 
G01 X25.2500 Y18.3277 
G01 X25.2500 Y17.0223 
G01 X25.2773 Y16.9206 
G01 X25.3299 Y16.8294 
G01 X25.4044 Y16.7549 
G01 X25.4956 Y16.7023 
G01 X25.5973 Y16.6750 
G01 X28.7027 Y16.6750 
G01 X28.8044 Y16.7023 
G01 X28.8956 Y16.7549 
G01 X28.9701 Y16.8294 
G01 X28.9964 Y16.8750 
G01 X32.1586 Y16.8750 
G01 X32.9936 Y16.0400 
G01 X30.1764 Y16.0400 
G01 X30.0314 Y16.1850 
G01 X29.9200 Y16.2964 
G01 X29.7889 Y16.3839 
G01 X29.6434 Y16.4443 
G01 X29.4888 Y16.4750 
G01 X28.9964 Y16.4750 
G01 X28.9701 Y16.5206 
G01 X28.8956 Y16.5951 
G01 X28.8044 Y16.6477 
G01 X28.7027 Y16.6750 
G01 X25.5973 Y16.6750 
G01 X25.4956 Y16.6477 
G01 X25.4044 Y16.5951 
G01 X25.3299 Y16.5206 
G01 X25.2773 Y16.4294 
G01 X25.2500 Y16.3277 
G01 X25.2500 Y15.0223 
G01 X25.2773 Y14.9206 
G01 X25.3299 Y14.8294 
G01 X25.4044 Y14.7549 
G01 X25.4956 Y14.7023 
G01 X25.5973 Y14.6750 
G01 X28.7027 Y14.6750 
G01 X28.8044 Y14.7023 
G01 X28.8956 Y14.7549 
G01 X28.9701 Y14.8294 
G01 X28.9964 Y14.8750 
G01 X29.0786 Y14.8750 
G01 X29.2236 Y14.7300 
G01 X29.3350 Y14.6186 
G01 X29.4661 Y14.5311 
G01 X29.6014 Y14.4750 
G01 X28.9964 Y14.4750 
G01 X28.9701 Y14.5206 
G01 X28.8956 Y14.5951 
G01 X28.8044 Y14.6477 
G01 X28.7027 Y14.6750 
G01 X25.5973 Y14.6750 
G01 X25.4956 Y14.6477 
G01 X25.4044 Y14.5951 
G01 X25.3299 Y14.5206 
G01 X25.2773 Y14.4294 
G01 X25.2500 Y14.3277 
G01 X25.2500 Y13.0223 
G01 X25.2773 Y12.9206 
G01 X25.3299 Y12.8294 
G01 X25.4044 Y12.7549 
G01 X25.4956 Y12.7023 
G01 X25.5973 Y12.6750 
G01 X28.7027 Y12.6750 
G01 X28.8044 Y12.7023 
G01 X28.8956 Y12.7549 
G01 X28.9701 Y12.8294 
G01 X28.9964 Y12.8750 
G01 X29.6818 Y12.8750 
G01 X29.6760 Y12.7478 
G01 X29.7032 Y12.6461 
G01 X29.7559 Y12.5549 
G01 X29.8304 Y12.4804 
G01 X30.9396 Y11.8400 
G01 X30.0214 Y11.8400 
G01 X29.6764 Y12.1850 
G01 X29.5650 Y12.2964 
G01 X29.4339 Y12.3839 
G01 X29.2884 Y12.4443 
G01 X29.1338 Y12.4750 
G01 X28.9964 Y12.4750 
G01 X28.9701 Y12.5206 
G01 X28.8956 Y12.5951 
G01 X28.8044 Y12.6477 
G01 X28.7027 Y12.6750 
G01 X25.5973 Y12.6750 
G01 X25.4956 Y12.6477 
G01 X25.4044 Y12.5951 
G01 X25.3299 Y12.5206 
G01 X25.2773 Y12.4294 
G01 X25.2500 Y12.3277 
G01 X25.2500 Y11.0223 
G01 X25.2773 Y10.9206 
G01 X25.3299 Y10.8294 
G01 X25.4044 Y10.7549 
G01 X25.4956 Y10.7023 
G01 X25.5973 Y10.6750 
G01 X28.7027 Y10.6750 
G01 X28.8044 Y10.7023 
G01 X28.8627 Y10.7359 
G01 X29.1236 Y10.4750 
G01 X28.9964 Y10.4750 
G01 X28.9701 Y10.5206 
G01 X28.8956 Y10.5951 
G01 X28.8044 Y10.6477 
G01 X28.7027 Y10.6750 
G01 X25.5973 Y10.6750 
G01 X25.4956 Y10.6477 
G01 X25.4044 Y10.5951 
G01 X25.3299 Y10.5206 
G01 X25.2773 Y10.4294 
G01 X25.2500 Y10.3277 
G01 X25.2500 Y9.0223  
G01 X25.2773 Y8.9206  
G01 X25.3299 Y8.8294  
G01 X25.4044 Y8.7549  
G01 X25.4956 Y8.7023  
G01 X25.5973 Y8.6750  
G01 X28.7027 Y8.6750  
G01 X28.8044 Y8.7023  
G01 X28.8956 Y8.7549  
G01 X28.9701 Y8.8294  
G01 X28.9964 Y8.8750  
G01 X29.3300 Y8.8750  
G01 X29.3300 Y8.4023  
G01 X29.3573 Y8.3006  
G01 X29.3836 Y8.2550  
G01 X29.3573 Y8.2094  
G01 X29.3300 Y8.1077  
G01 X29.3300 Y6.7023  
G01 X29.3573 Y6.6006  
G01 X29.4099 Y6.5094  
G01 X29.4844 Y6.4349  
G01 X29.5756 Y6.3823  
G01 X29.6773 Y6.3550  
G01 X30.5767 Y6.3550  
G01 X31.4469 Y5.7368  
G01 X31.5110 Y5.6912  
G01 X31.5659 Y5.6522  
G01 X31.6482 Y5.6153  
G01 X31.7097 Y5.5877  
G01 X31.7977 Y5.5676  
G01 X31.8633 Y5.5526  
G01 X31.9535 Y5.5500  
G01 X32.0208 Y5.5481  
G01 X33.3197 Y5.5500  
G01 X33.4060 Y5.4637  
G01 X33.5540 Y5.3562  
G01 X33.7169 Y5.2731  
G01 X33.8909 Y5.2166  
G01 X34.0715 Y5.1880  
G01 X35.7784 Y5.1880  
G01 X35.9591 Y5.2166  
G01 X36.1331 Y5.2731  
G01 X36.2960 Y5.3562  
G01 X36.4440 Y5.4637  
G01 X36.5733 Y5.5930  
G01 X36.6808 Y5.7410  
G01 X36.7639 Y5.9039  
G01 X36.8204 Y6.0779  
G01 X36.8490 Y6.2585  
G01 X36.8490 Y6.4414  
G01 X36.8204 Y6.6221  
G01 X36.7639 Y6.7961  
G01 X36.6808 Y6.9590  
G01 X36.5733 Y7.1070  
G01 X36.4440 Y7.2363  
G01 X36.2960 Y7.3438  
G01 X36.1331 Y7.4269  
G01 X35.9591 Y7.4834  
G01 X35.7784 Y7.5120  
G01 X34.0715 Y7.5120  
G01 X33.8909 Y7.4834  
G01 X33.7169 Y7.4269  
G01 X33.5540 Y7.3438  
G01 X33.4060 Y7.2363  
G01 X33.3197 Y7.1500  
G01 X32.2202 Y7.1500  
G01 X31.6300 Y7.5693  
G01 X31.6300 Y8.1077  
G01 X31.6027 Y8.2094  
G01 X31.5764 Y8.2550  
G01 X31.6027 Y8.3006  
G01 X31.6300 Y8.4023  
G01 X31.6300 Y9.7836  
G01 X33.1450 Y8.2686  
G01 X33.2094 Y8.2256  
G01 X33.2767 Y8.1330  
G01 X33.4060 Y8.0037  
G01 X33.5540 Y7.8962  
G01 X33.7169 Y7.8131  
G01 X33.8909 Y7.7566  
G01 X34.0715 Y7.7280  
G01 X35.7784 Y7.7280  
G01 X35.9591 Y7.7566  
G01 X36.1331 Y7.8131  
G01 X36.2960 Y7.8962  
G01 X36.4440 Y8.0037  
G01 X36.5733 Y8.1330  
G01 X36.6808 Y8.2810  
G01 X36.7639 Y8.4439  
G01 X36.8204 Y8.6179  
G01 X36.8490 Y8.7985  
G01 X36.8490 Y8.9815  
G01 X36.8204 Y9.1621  
G01 X36.7639 Y9.3361  
G01 X36.6808 Y9.4990  
G01 X36.5733 Y9.6470  
G01 X36.4440 Y9.7763  
G01 X36.2960 Y9.8838  
G01 X36.1331 Y9.9669  
G01 X35.9591 Y10.0234 
G01 X35.7784 Y10.0520 
G01 X34.0715 Y10.0520 
G01 X33.8909 Y10.0234 
G01 X33.7169 Y9.9669  
G01 X32.9575 Y10.7188 
G01 X33.0978 Y10.6607 
G01 X33.2523 Y10.6300 
G01 X33.3197 Y10.6300 
G01 X33.4060 Y10.5437 
G01 X33.5540 Y10.4362 
G01 X33.7169 Y10.3531 
G01 X33.8909 Y10.2966 
G01 X34.0715 Y10.2680 
G01 X35.7784 Y10.2680 
G01 X35.9591 Y10.2966 
G01 X36.1331 Y10.3531 
G01 X36.2960 Y10.4362 
G01 X36.4440 Y10.5437 
G01 X36.5733 Y10.6730 
G01 X36.6808 Y10.8210 
G01 X36.7639 Y10.9839 
G01 X36.8204 Y11.1579 
G01 X36.8490 Y11.3385 
G01 X36.8490 Y11.5214 
G01 X36.8204 Y11.7021 
G01 X36.7639 Y11.8761 
G01 X36.6808 Y12.0390 
G01 X36.5733 Y12.1870 
G01 X36.4440 Y12.3163 
G01 X36.2960 Y12.4238 
G01 X36.1331 Y12.5069 
G01 X35.9591 Y12.5634 
G01 X35.7784 Y12.5920 
G01 X34.0715 Y12.5920 
G01 X33.8909 Y12.5634 
G01 X33.8225 Y12.5412 
G01 X33.8240 Y12.6522 
G01 X33.7968 Y12.7539 
G01 X33.7441 Y12.8451 
G01 X33.6744 Y12.9148 
G01 X33.7169 Y12.8931 
G01 X33.8909 Y12.8366 
G01 X34.0715 Y12.8080 
G01 X35.7784 Y12.8080 
G01 X35.9591 Y12.8366 
G01 X36.1331 Y12.8931 
G01 X36.2960 Y12.9762 
G01 X36.4440 Y13.0837 
G01 X36.5733 Y13.2130 
G01 X36.6808 Y13.3610 
G01 X36.7639 Y13.5239 
G01 X36.8204 Y13.6979 
G01 X36.8490 Y13.8785 
G01 X36.8490 Y14.0615 
G01 X36.8204 Y14.2421 
G01 X36.7639 Y14.4161 
G01 X36.6808 Y14.5790 
G01 X36.5733 Y14.7270 
G01 X36.4440 Y14.8563 
G01 X36.2960 Y14.9638 
G01 X36.1331 Y15.0469 
G01 X35.9591 Y15.1034 
G01 X35.7784 Y15.1320 
G01 X34.2594 Y15.1320 
G01 X34.0381 Y15.3533 
G01 X34.0715 Y15.3480 
G01 X35.7784 Y15.3480 
G01 X35.9591 Y15.3766 
G01 X36.1331 Y15.4331 
G01 X36.2960 Y15.5162 
G01 X36.4440 Y15.6237 
G01 X36.5733 Y15.7530 
G01 X36.6808 Y15.9010 
G01 X36.7639 Y16.0639 
G01 X36.8204 Y16.2379 
G01 X36.8490 Y16.4185 
G01 X36.8490 Y16.6014 
G01 X36.8204 Y16.7821 
G01 X36.7639 Y16.9561 
G01 X36.6808 Y17.1190 
G01 X36.5733 Y17.2670 
G01 X36.4440 Y17.3963 
G01 X36.2960 Y17.5038 
G01 X36.1331 Y17.5869 
G01 X35.9591 Y17.6434 
G01 X35.7784 Y17.6720 
G01 X34.0715 Y17.6720 
G01 X33.8909 Y17.6434 
G01 X33.7169 Y17.5869 
G01 X33.0000 Y18.2964 
G01 X32.8689 Y18.3839 
G01 X32.7234 Y18.4443 
G01 X32.5688 Y18.4750 
G01 X28.9964 Y18.4750 
G01 X28.9701 Y18.5206 
G01 X28.8956 Y18.5951 
G01 X28.8044 Y18.6477 
G01 X28.7027 Y18.6750 
G01 X25.5973 Y18.6750 
G01 X25.4956 Y18.6477 
G01 X25.4044 Y18.5951 
G00 Z3.0000  
G00 X31.0362 Y14.4400 
G01 Z-0.0250 F50    
G01 X32.6886 Y14.4400 F50    
G01 X33.0100 Y14.1186 
G01 X33.0010 Y14.0615 
G01 X33.0010 Y13.8785 
G01 X33.0296 Y13.6979 
G01 X33.0861 Y13.5239 
G01 X33.1692 Y13.3610 
G01 X33.2767 Y13.2130 
G01 X33.4060 Y13.0837 
G01 X33.4856 Y13.0258 
G01 X32.4526 Y13.6223 
G01 X32.3509 Y13.6495 
G01 X32.2982 Y13.6495 
G01 X32.2719 Y13.6951 
G01 X32.1974 Y13.7696 
G01 X31.0362 Y14.4400 
G00 Z3.0000  
G00 X31.1736 Y10.2400 
G01 Z-0.0250 F50    
G01 X31.2586 Y10.1550 F50    
G01 X30.5614 Y10.1550 
G01 X30.5314 Y10.1850 
G01 X30.4764 Y10.2400 
G01 X31.1736 Y10.2400 
G00 Z3.0000  
G00 X28.9701 Y8.5206  
G01 Z-0.0250 F50    
G01 X28.8956 Y8.5951  F50    
G01 X28.8044 Y8.6477  
G01 X28.7027 Y8.6750  
G01 X25.5973 Y8.6750  
G01 X25.4956 Y8.6477  
G01 X25.4044 Y8.5951  
G01 X25.3299 Y8.5206  
G01 X25.2773 Y8.4294  
G01 X25.2500 Y8.3277  
G01 X25.2500 Y7.0223  
G01 X25.2773 Y6.9206  
G01 X25.3299 Y6.8294  
G01 X25.4044 Y6.7549  
G01 X25.4956 Y6.7023  
G01 X25.5973 Y6.6750  
G01 X26.3500 Y6.6750  
G01 X26.3500 Y5.7912  
G01 X26.3807 Y5.6366  
G01 X26.4411 Y5.4911  
G01 X26.5286 Y5.3600  
G01 X26.6400 Y5.2486  
G01 X28.7000 Y3.1886  
G01 X28.8311 Y3.1010  
G01 X28.9766 Y3.0407  
G01 X29.1312 Y3.0100  
G01 X33.3197 Y3.0100  
G01 X33.4060 Y2.9237  
G01 X33.5540 Y2.8162  
G01 X33.7169 Y2.7331  
G01 X33.8909 Y2.6766  
G01 X34.0715 Y2.6480  
G01 X35.7784 Y2.6480  
G01 X35.9591 Y2.6766  
G01 X36.1331 Y2.7331  
G01 X36.2960 Y2.8162  
G01 X36.4440 Y2.9237  
G01 X36.5733 Y3.0530  
G01 X36.6808 Y3.2010  
G01 X36.7639 Y3.3639  
G01 X36.8204 Y3.5379  
G01 X36.8490 Y3.7185  
G01 X36.8490 Y3.9015  
G01 X36.8204 Y4.0821  
G01 X36.7639 Y4.2561  
G01 X36.6808 Y4.4190  
G01 X36.5733 Y4.5670  
G01 X36.4440 Y4.6963  
G01 X36.2960 Y4.8038  
G01 X36.1331 Y4.8869  
G01 X35.9591 Y4.9434  
G01 X35.7784 Y4.9720  
G01 X34.0715 Y4.9720  
G01 X33.8909 Y4.9434  
G01 X33.7169 Y4.8869  
G01 X33.5540 Y4.8038  
G01 X33.4060 Y4.6963  
G01 X33.3197 Y4.6100  
G01 X29.5414 Y4.6100  
G01 X27.9500 Y6.2014  
G01 X27.9500 Y6.6750  
G01 X28.7027 Y6.6750  
G01 X28.8044 Y6.7023  
G01 X28.8956 Y6.7549  
G01 X28.9701 Y6.8294  
G01 X29.0227 Y6.9206  
G01 X29.0500 Y7.0223  
G01 X29.0500 Y8.3277  
G01 X29.0227 Y8.4294  
G01 X28.9701 Y8.5206  
G00 Z3.0000  
G00 X0.7010  Y2.8901  
G01 Z-0.0250 F50    
G01 X0.8581  Y2.7330  F50    
G01 X1.0379  Y2.6023  
G01 X1.2360  Y2.5014  
G01 X1.4474  Y2.4328  
G01 X1.6669  Y2.3980  
G01 X3.4131  Y2.3980  
G01 X3.6326  Y2.4328  
G01 X3.8440  Y2.5014  
G01 X4.0420  Y2.6023  
G01 X4.2219  Y2.7330  
G01 X4.2489  Y2.7600  
G01 X6.9676  Y2.7600  
G01 X7.1309  Y2.7859  
G01 X7.2881  Y2.8369  
G01 X7.4353  Y2.9120  
G01 X7.5690  Y3.0091  
G01 X7.6859  Y3.1260  
G01 X10.9849 Y6.4250  
G01 X12.3140 Y6.4250  
G01 X12.4396 Y6.4500  
G01 X12.5579 Y6.4990  
G01 X12.6644 Y6.5701  
G01 X12.7549 Y6.6606  
G01 X12.8260 Y6.7671  
G01 X12.8750 Y6.8854  
G01 X12.9000 Y7.0110  
G01 X12.9000 Y8.3390  
G01 X12.8750 Y8.4646  
G01 X12.8260 Y8.5829  
G01 X12.7645 Y8.6750  
G01 X12.8260 Y8.7671  
G01 X12.8750 Y8.8854  
G01 X12.9000 Y9.0110  
G01 X12.9000 Y10.3390 
G01 X12.8750 Y10.4646 
G01 X12.8260 Y10.5829 
G01 X12.7645 Y10.6750 
G01 X12.8260 Y10.7671 
G01 X12.8750 Y10.8854 
G01 X12.9000 Y11.0110 
G01 X12.9000 Y12.3390 
G01 X12.8750 Y12.4646 
G01 X12.8260 Y12.5829 
G01 X12.7645 Y12.6750 
G01 X12.8260 Y12.7671 
G01 X12.8750 Y12.8854 
G01 X12.9000 Y13.0110 
G01 X12.9000 Y14.3390 
G01 X12.8750 Y14.4646 
G01 X12.8260 Y14.5829 
G01 X12.7645 Y14.6750 
G01 X12.8260 Y14.7671 
G01 X12.8750 Y14.8854 
G01 X12.9000 Y15.0110 
G01 X12.9000 Y16.3390 
G01 X12.8750 Y16.4646 
G01 X12.8260 Y16.5829 
G01 X12.7645 Y16.6750 
G01 X12.8260 Y16.7671 
G01 X12.8750 Y16.8854 
G01 X12.9000 Y17.0110 
G01 X12.9000 Y18.3390 
G01 X12.8750 Y18.4646 
G01 X12.8260 Y18.5829 
G01 X12.7645 Y18.6750 
G01 X12.8260 Y18.7671 
G01 X12.8750 Y18.8854 
G01 X12.9000 Y19.0110 
G01 X12.9000 Y20.3390 
G01 X12.8750 Y20.4646 
G01 X12.8260 Y20.5829 
G01 X12.7645 Y20.6750 
G01 X12.8260 Y20.7671 
G01 X12.8750 Y20.8854 
G01 X12.9000 Y21.0110 
G01 X12.9000 Y22.3390 
G01 X12.8750 Y22.4646 
G01 X12.8260 Y22.5829 
G01 X12.7549 Y22.6894 
G01 X12.6644 Y22.7799 
G01 X12.5579 Y22.8510 
G01 X12.4396 Y22.9000 
G01 X12.3140 Y22.9250 
G01 X9.1860  Y22.9250 
G01 X9.0604  Y22.9000 
G01 X8.9421  Y22.8510 
G01 X8.8356  Y22.7799 
G01 X8.7451  Y22.6894 
G01 X8.7121  Y22.6400 
G01 X4.2489  Y22.6400 
G01 X4.2219  Y22.6670 
G01 X4.0420  Y22.7976 
G01 X3.8440  Y22.8986 
G01 X3.6326  Y22.9672 
G01 X3.4131  Y23.0020 
G01 X1.6669  Y23.0020 
G01 X1.4474  Y22.9672 
G01 X1.2360  Y22.8986 
G01 X1.0379  Y22.7976 
G01 X0.8581  Y22.6670 
G01 X0.7010  Y22.5099 
G01 X0.5704  Y22.3300 
G01 X0.4694  Y22.1320 
G01 X0.4008  Y21.9206 
G01 X0.3660  Y21.7011 
G01 X0.3660  Y21.4789 
G01 X0.4008  Y21.2594 
G01 X0.4694  Y21.0480 
G01 X0.5704  Y20.8499 
G01 X0.7010  Y20.6701 
G01 X0.8581  Y20.5130 
G01 X1.0379  Y20.3823 
G01 X1.1603  Y20.3200 
G01 X1.0379  Y20.2576 
G01 X0.8581  Y20.1270 
G01 X0.7010  Y19.9699 
G01 X0.5704  Y19.7900 
G01 X0.4694  Y19.5920 
G01 X0.4008  Y19.3806 
G01 X0.3660  Y19.1611 
G01 X0.3660  Y18.9389 
G01 X0.4008  Y18.7194 
G01 X0.4694  Y18.5080 
G01 X0.5704  Y18.3100 
G01 X0.7010  Y18.1301 
G01 X0.8581  Y17.9730 
G01 X1.0379  Y17.8423 
G01 X1.1603  Y17.7800 
G01 X1.0379  Y17.7176 
G01 X0.8581  Y17.5870 
G01 X0.7010  Y17.4299 
G01 X0.5704  Y17.2500 
G01 X0.4694  Y17.0520 
G01 X0.4008  Y16.8406 
G01 X0.3660  Y16.6211 
G01 X0.3660  Y16.3989 
G01 X0.4008  Y16.1794 
G01 X0.4694  Y15.9680 
G01 X0.5704  Y15.7699 
G01 X0.7010  Y15.5901 
G01 X0.8581  Y15.4330 
G01 X1.0379  Y15.3024 
G01 X1.1603  Y15.2400 
G01 X1.0379  Y15.1776 
G01 X0.8581  Y15.0470 
G01 X0.7010  Y14.8899 
G01 X0.5704  Y14.7100 
G01 X0.4694  Y14.5120 
G01 X0.4008  Y14.3006 
G01 X0.3660  Y14.0811 
G01 X0.3660  Y13.8589 
G01 X0.4008  Y13.6394 
G01 X0.4694  Y13.4280 
G01 X0.5704  Y13.2300 
G01 X0.7010  Y13.0501 
G01 X0.8581  Y12.8930 
G01 X1.0379  Y12.7623 
G01 X1.1603  Y12.7000 
G01 X1.0379  Y12.6376 
G01 X0.8581  Y12.5070 
G01 X0.7010  Y12.3499 
G01 X0.5704  Y12.1700 
G01 X0.4694  Y11.9720 
G01 X0.4008  Y11.7606 
G01 X0.3660  Y11.5411 
G01 X0.3660  Y11.3189 
G01 X0.4008  Y11.0994 
G01 X0.4694  Y10.8880 
G01 X0.5704  Y10.6899 
G01 X0.7010  Y10.5101 
G01 X0.8581  Y10.3530 
G01 X1.0379  Y10.2224 
G01 X1.1603  Y10.1600 
G01 X1.0379  Y10.0976 
G01 X0.8581  Y9.9670  
G01 X0.7010  Y9.8099  
G01 X0.5704  Y9.6300  
G01 X0.4694  Y9.4320  
G01 X0.4008  Y9.2206  
G01 X0.3660  Y9.0011  
G01 X0.3660  Y8.7789  
G01 X0.4008  Y8.5594  
G01 X0.4694  Y8.3480  
G01 X0.5704  Y8.1500  
G01 X0.7010  Y7.9701  
G01 X0.8581  Y7.8130  
G01 X1.0379  Y7.6823  
G01 X1.1603  Y7.6200  
G01 X1.0379  Y7.5576  
G01 X0.8581  Y7.4270  
G01 X0.7010  Y7.2699  
G01 X0.5704  Y7.0900  
G01 X0.4694  Y6.8920  
G01 X0.4008  Y6.6806  
G01 X0.3660  Y6.4611  
G01 X0.3660  Y6.2389  
G01 X0.4008  Y6.0194  
G01 X0.4694  Y5.8080  
G01 X0.5704  Y5.6100  
G01 X0.7010  Y5.4301  
G01 X0.8581  Y5.2730  
G01 X1.0379  Y5.1424  
G01 X1.1603  Y5.0800  
G01 X1.0379  Y5.0176  
G01 X0.8581  Y4.8870  
G01 X0.7010  Y4.7299  
G01 X0.5704  Y4.5500  
G01 X0.4694  Y4.3520  
G01 X0.4008  Y4.1406  
G01 X0.3660  Y3.9211  
G01 X0.3660  Y3.6989  
G01 X0.4008  Y3.4794  
G01 X0.4694  Y3.2680  
G01 X0.5704  Y3.0699  
G01 X0.7010  Y2.8901  
G00 Z3.0000  
G00 X3.9197  Y5.0800  
G01 Z-0.0250 F50    
G01 X4.0420  Y5.1424  F50    
G01 X4.2219  Y5.2730  
G01 X4.2489  Y5.3000  
G01 X5.7976  Y5.3000  
G01 X5.9609  Y5.3259  
G01 X6.1181  Y5.3769  
G01 X6.2653  Y5.4520  
G01 X6.3990  Y5.5491  
G01 X6.5159  Y5.6660  
G01 X8.6000  Y7.7501  
G01 X8.6000  Y7.0110  
G01 X6.4501  Y4.8600  
G01 X4.2489  Y4.8600  
G01 X4.2219  Y4.8870  
G01 X4.0420  Y5.0176  
G01 X3.9197  Y5.0800  
G00 Z3.0000  
G00 X3.9197  Y7.6200  
G01 Z-0.0250 F50    
G01 X4.0420  Y7.6823  F50    
G01 X4.2219  Y7.8130  
G01 X4.3790  Y7.9701  
G01 X4.5096  Y8.1500  
G01 X4.6105  Y8.3480  
G01 X4.6518  Y8.4750  
G01 X5.7976  Y8.4750  
G01 X5.9609  Y8.5009  
G01 X6.1181  Y8.5519  
G01 X6.2653  Y8.6270  
G01 X6.3990  Y8.7241  
G01 X7.4199  Y9.7450  
G01 X7.6251  Y9.7450  
G01 X5.2801  Y7.4000  
G01 X4.2489  Y7.4000  
G01 X4.2219  Y7.4270  
G01 X4.0420  Y7.5576  
G01 X3.9197  Y7.6200  
G00 Z3.0000  
G00 X4.4261  Y10.5750 
G01 Z-0.0250 F50    
G01 X4.5096  Y10.6899 F50    
G01 X4.6105  Y10.8880 
G01 X4.6518  Y11.0150 
G01 X5.7201  Y11.0150 
G01 X5.2801  Y10.5750 
G01 X4.4261  Y10.5750 
G00 Z3.0000  
G00 X6.3246  Y13.1150 
G01 Z-0.0250 F50    
G01 X6.3990  Y13.1691 F50    
G01 X7.4199  Y14.1900 
G01 X7.6251  Y14.1900 
G01 X6.5501  Y13.1150 
G01 X6.3246  Y13.1150 
G00 Z3.0000  
G00 X6.0051  Y15.7450 
G01 Z-0.0250 F50    
G01 X5.2801  Y15.0200 F50    
G01 X4.2489  Y15.0200 
G01 X4.2219  Y15.0470 
G01 X4.0420  Y15.1776 
G01 X3.9197  Y15.2400 
G01 X4.0420  Y15.3024 
G01 X4.2219  Y15.4330 
G01 X4.2489  Y15.4600 
G01 X4.9476  Y15.4600 
G01 X5.1109  Y15.4859 
G01 X5.2681  Y15.5369 
G01 X5.4153  Y15.6120 
G01 X5.5490  Y15.7091 
G01 X5.5849  Y15.7450 
G01 X6.0051  Y15.7450 
G00 Z3.0000  
G00 X6.0599  Y18.5450 
G01 Z-0.0250 F50    
G01 X6.1399  Y18.6250 F50    
G01 X8.3367  Y18.6250 
G01 X8.2347  Y18.5730 
G01 X8.1174  Y18.4878 
G01 X8.0396  Y18.5200 
G01 X7.9140  Y18.5450 
G01 X6.4860  Y18.5450 
G01 X6.3604  Y18.5200 
G01 X6.2140  Y18.5450 
G01 X6.0599  Y18.5450 
G00 Z3.0000  
G00 X4.2000  Y17.9571 
G01 Z-0.0250 F50    
G01 X4.2000  Y17.6029 F50    
G01 X4.0420  Y17.7176 
G01 X3.9197  Y17.7800 
G01 X4.0420  Y17.8423 
G01 X4.2000  Y17.9571 
G00 Z3.0000  
G00 X4.2489  Y20.1000 
G01 Z-0.0250 F50    
G01 X4.2219  Y20.1270 F50    
G01 X4.0420  Y20.2576 
G01 X3.9197  Y20.3200 
G01 X4.0420  Y20.3823 
G01 X4.2219  Y20.5130 
G01 X4.2489  Y20.5400 
G01 X5.1092  Y20.5400 
G01 X5.0210  Y20.4759 
G01 X4.6451  Y20.1000 
G01 X4.2489  Y20.1000 
G00 Z3.0000  
G00 X25.0000 Y20.3390 
G01 Z-0.0250 F50    
G01 X25.0000 Y19.0110 F50    
G01 X25.0250 Y18.8854 
G01 X25.0740 Y18.7671 
G01 X25.1355 Y18.6750 
G01 X25.0740 Y18.5829 
G01 X25.0250 Y18.4646 
G01 X25.0000 Y18.3390 
G01 X25.0000 Y17.0110 
G01 X25.0250 Y16.8854 
G01 X25.0740 Y16.7671 
G01 X25.1355 Y16.6750 
G01 X25.0740 Y16.5829 
G01 X25.0250 Y16.4646 
G01 X25.0000 Y16.3390 
G01 X25.0000 Y15.0110 
G01 X25.0250 Y14.8854 
G01 X25.0740 Y14.7671 
G01 X25.1355 Y14.6750 
G01 X25.0740 Y14.5829 
G01 X25.0250 Y14.4646 
G01 X25.0000 Y14.3390 
G01 X25.0000 Y13.0110 
G01 X25.0250 Y12.8854 
G01 X25.0740 Y12.7671 
G01 X25.1355 Y12.6750 
G01 X25.0740 Y12.5829 
G01 X25.0250 Y12.4646 
G01 X25.0000 Y12.3390 
G01 X25.0000 Y11.0110 
G01 X25.0250 Y10.8854 
G01 X25.0740 Y10.7671 
G01 X25.1355 Y10.6750 
G01 X25.0740 Y10.5829 
G01 X25.0250 Y10.4646 
G01 X25.0000 Y10.3390 
G01 X25.0000 Y9.0110  
G01 X25.0250 Y8.8854  
G01 X25.0740 Y8.7671  
G01 X25.1355 Y8.6750  
G01 X25.0740 Y8.5829  
G01 X25.0250 Y8.4646  
G01 X25.0000 Y8.3390  
G01 X25.0000 Y7.0110  
G01 X25.0250 Y6.8854  
G01 X25.0740 Y6.7671  
G01 X25.1451 Y6.6606  
G01 X25.2356 Y6.5701  
G01 X25.3421 Y6.4990  
G01 X25.4604 Y6.4500  
G01 X25.5860 Y6.4250  
G01 X26.1000 Y6.4250  
G01 X26.1000 Y5.7874  
G01 X26.1259 Y5.6241  
G01 X26.1769 Y5.4669  
G01 X26.2520 Y5.3197  
G01 X26.3491 Y5.1860  
G01 X26.4660 Y5.0691  
G01 X28.5260 Y3.0091  
G01 X28.6597 Y2.9120  
G01 X28.8069 Y2.8369  
G01 X28.9641 Y2.7859  
G01 X29.1274 Y2.7600  
G01 X33.2161 Y2.7600  
G01 X33.2431 Y2.7330  
G01 X33.4230 Y2.6023  
G01 X33.6210 Y2.5014  
G01 X33.8324 Y2.4328  
G01 X34.0519 Y2.3980  
G01 X35.7981 Y2.3980  
G01 X36.0176 Y2.4328  
G01 X36.2290 Y2.5014  
G01 X36.4270 Y2.6023  
G01 X36.6069 Y2.7330  
G01 X36.7640 Y2.8901  
G01 X36.8946 Y3.0699  
G01 X36.9956 Y3.2680  
G01 X37.0642 Y3.4794  
G01 X37.0990 Y3.6989  
G01 X37.0990 Y3.9211  
G01 X37.0642 Y4.1406  
G01 X36.9956 Y4.3520  
G01 X36.8946 Y4.5500  
G01 X36.7640 Y4.7299  
G01 X36.6069 Y4.8870  
G01 X36.4270 Y5.0176  
G01 X36.3047 Y5.0800  
G01 X36.4270 Y5.1424  
G01 X36.6069 Y5.2730  
G01 X36.7640 Y5.4301  
G01 X36.8946 Y5.6100  
G01 X36.9956 Y5.8080  
G01 X37.0642 Y6.0194  
G01 X37.0990 Y6.2389  
G01 X37.0990 Y6.4611  
G01 X37.0642 Y6.6806  
G01 X36.9956 Y6.8920  
G01 X36.8946 Y7.0900  
G01 X36.7640 Y7.2699  
G01 X36.6069 Y7.4270  
G01 X36.4270 Y7.5576  
G01 X36.3047 Y7.6200  
G01 X36.4270 Y7.6823  
G01 X36.6069 Y7.8130  
G01 X36.7640 Y7.9701  
G01 X36.8946 Y8.1500  
G01 X36.9956 Y8.3480  
G01 X37.0642 Y8.5594  
G01 X37.0990 Y8.7789  
G01 X37.0990 Y9.0011  
G01 X37.0642 Y9.2206  
G01 X36.9956 Y9.4320  
G01 X36.8946 Y9.6300  
G01 X36.7640 Y9.8099  
G01 X36.6069 Y9.9670  
G01 X36.4270 Y10.0976 
G01 X36.3047 Y10.1600 
G01 X36.4270 Y10.2224 
G01 X36.6069 Y10.3530 
G01 X36.7640 Y10.5101 
G01 X36.8946 Y10.6899 
G01 X36.9956 Y10.8880 
G01 X37.0642 Y11.0994 
G01 X37.0990 Y11.3189 
G01 X37.0990 Y11.5411 
G01 X37.0642 Y11.7606 
G01 X36.9956 Y11.9720 
G01 X36.8946 Y12.1700 
G01 X36.7640 Y12.3499 
G01 X36.6069 Y12.5070 
G01 X36.4270 Y12.6376 
G01 X36.3047 Y12.7000 
G01 X36.4270 Y12.7623 
G01 X36.6069 Y12.8930 
G01 X36.7640 Y13.0501 
G01 X36.8946 Y13.2300 
G01 X36.9956 Y13.4280 
G01 X37.0642 Y13.6394 
G01 X37.0990 Y13.8589 
G01 X37.0990 Y14.0811 
G01 X37.0642 Y14.3006 
G01 X36.9956 Y14.5120 
G01 X36.8946 Y14.7100 
G01 X36.7640 Y14.8899 
G01 X36.6069 Y15.0470 
G01 X36.4270 Y15.1776 
G01 X36.3047 Y15.2400 
G01 X36.4270 Y15.3024 
G01 X36.6069 Y15.4330 
G01 X36.7640 Y15.5901 
G01 X36.8946 Y15.7699 
G01 X36.9956 Y15.9680 
G01 X37.0642 Y16.1794 
G01 X37.0990 Y16.3989 
G01 X37.0990 Y16.6211 
G01 X37.0642 Y16.8406 
G01 X36.9956 Y17.0520 
G01 X36.8946 Y17.2500 
G01 X36.7640 Y17.4299 
G01 X36.6069 Y17.5870 
G01 X36.4270 Y17.7176 
G01 X36.3047 Y17.7800 
G01 X36.4270 Y17.8423 
G01 X36.6069 Y17.9730 
G01 X36.7640 Y18.1301 
G01 X36.8946 Y18.3100 
G01 X36.9956 Y18.5080 
G01 X37.0642 Y18.7194 
G01 X37.0990 Y18.9389 
G01 X37.0990 Y19.1611 
G01 X37.0642 Y19.3806 
G01 X36.9956 Y19.5920 
G01 X36.8946 Y19.7900 
G01 X36.7640 Y19.9699 
G01 X36.6069 Y20.1270 
G01 X36.4270 Y20.2576 
G01 X36.3047 Y20.3200 
G01 X36.4270 Y20.3823 
G01 X36.6069 Y20.5130 
G01 X36.7640 Y20.6701 
G01 X36.8946 Y20.8499 
G01 X36.9956 Y21.0480 
G01 X37.0642 Y21.2594 
G01 X37.0990 Y21.4789 
G01 X37.0990 Y21.7011 
G01 X37.0642 Y21.9206 
G01 X36.9956 Y22.1320 
G01 X36.8946 Y22.3300 
G01 X36.7640 Y22.5099 
G01 X36.6069 Y22.6670 
G01 X36.4270 Y22.7976 
G01 X36.2290 Y22.8986 
G01 X36.0176 Y22.9672 
G01 X35.7981 Y23.0020 
G01 X34.0519 Y23.0020 
G01 X33.8324 Y22.9672 
G01 X33.6210 Y22.8986 
G01 X33.4230 Y22.7976 
G01 X33.2431 Y22.6670 
G01 X33.2161 Y22.6400 
G01 X29.1879 Y22.6400 
G01 X29.1549 Y22.6894 
G01 X29.0644 Y22.7799 
G01 X28.9579 Y22.8510 
G01 X28.8396 Y22.9000 
G01 X28.7140 Y22.9250 
G01 X25.5860 Y22.9250 
G01 X25.4604 Y22.9000 
G01 X25.3421 Y22.8510 
G01 X25.2356 Y22.7799 
G01 X25.1451 Y22.6894 
G01 X25.0740 Y22.5829 
G01 X25.0250 Y22.4646 
G01 X25.0000 Y22.3390 
G01 X25.0000 Y21.0110 
G01 X25.0250 Y20.8854 
G01 X25.0740 Y20.7671 
G01 X25.1355 Y20.6750 
G01 X25.0740 Y20.5829 
G01 X25.0250 Y20.4646 
G01 X25.0000 Y20.3390 
G00 Z3.0000  
G00 X29.8583 Y16.6250 
G01 Z-0.0250 F50    
G01 X32.0551 Y16.6250 F50    
G01 X32.3901 Y16.2900 
G01 X30.2799 Y16.2900 
G01 X30.2109 Y16.3590 
G01 X30.0940 Y16.4759 
G01 X29.9603 Y16.5730 
G01 X29.8583 Y16.6250 
G00 Z3.0000  
G00 X31.9692 Y14.1900 
G01 Z-0.0250 F50    
G01 X32.5851 Y14.1900 F50    
G01 X32.7510 Y14.0241 
G01 X32.7510 Y13.8589 
G01 X32.7720 Y13.7265 
G01 X32.5678 Y13.8444 
G01 X32.4465 Y13.8856 
G01 X32.3322 Y13.9804 
G01 X31.9692 Y14.1900 
G00 Z3.0000  
G00 X31.8800 Y9.1801  
G01 Z-0.0250 F50    
G01 X32.9710 Y8.0891  F50    
G01 X33.0315 Y8.0451  
G01 X33.0860 Y7.9701  
G01 X33.2431 Y7.8130  
G01 X33.4230 Y7.6823  
G01 X33.5453 Y7.6200  
G01 X33.4230 Y7.5576  
G01 X33.2431 Y7.4270  
G01 X33.2161 Y7.4000  
G01 X32.3000 Y7.4000  
G01 X31.8800 Y7.6984  
G01 X31.8800 Y8.1190  
G01 X31.8550 Y8.2446  
G01 X31.8800 Y8.3910  
G01 X31.8800 Y9.1801  
G00 Z3.0000  
G00 X31.8824 Y5.3000  
G01 Z-0.0250 F50    
G01 X31.8880 Y5.3000  F50    
G01 X31.9706 Y5.3000  
G01 X33.2161 Y5.3000  
G01 X33.2431 Y5.2730  
G01 X33.4230 Y5.1424  
G01 X33.5453 Y5.0800  
G01 X33.4230 Y5.0176  
G01 X33.2431 Y4.8870  
G01 X33.2161 Y4.8600  
G01 X29.6449 Y4.8600  
G01 X28.2000 Y6.3049  
G01 X28.2000 Y6.4250  
G01 X28.7140 Y6.4250  
G01 X28.8396 Y6.4500  
G01 X28.9579 Y6.4990  
G01 X29.0644 Y6.5701  
G01 X29.0975 Y6.6032  
G01 X29.1050 Y6.5654  
G01 X29.1540 Y6.4471  
G01 X29.2251 Y6.3406  
G01 X29.3156 Y6.2501  
G01 X29.4221 Y6.1790  
G01 X29.5404 Y6.1300  
G01 X29.6660 Y6.1050  
G01 X30.4969 Y6.1050  
G01 X31.3523 Y5.4973  
G01 X31.4147 Y5.4520  
G01 X31.4933 Y5.4119  
G01 X31.5619 Y5.3769  
G01 X31.6459 Y5.3497  
G01 X31.7191 Y5.3259  
G01 X31.8062 Y5.3121  
G01 X31.8824 Y5.3000  
G00 Z3.0000  
G00 X0.5258  Y2.7118  
G01 Z-0.0250 F50    
G01 X0.6798  Y2.5578  F50    
G01 X0.8527  Y2.4251  
G01 X1.0413  Y2.3162  
G01 X1.2426  Y2.2328  
G01 X1.4531  Y2.1764  
G01 X1.6691  Y2.1480  
G01 X3.4109  Y2.1480  
G01 X3.6269  Y2.1764  
G01 X3.8374  Y2.2328  
G01 X4.0387  Y2.3162  
G01 X4.2273  Y2.4251  
G01 X4.3379  Y2.5100  
G01 X6.9873  Y2.5100  
G01 X7.1894  Y2.5420  
G01 X7.3840  Y2.6052  
G01 X7.5663  Y2.6981  
G01 X7.7319  Y2.8184  
G01 X7.8766  Y2.9631  
G01 X11.0885 Y6.1750  
G01 X12.3386 Y6.1750  
G01 X12.5125 Y6.2096  
G01 X12.6763 Y6.2774  
G01 X12.8237 Y6.3759  
G01 X12.9491 Y6.5013  
G01 X13.0476 Y6.6487  
G01 X13.1154 Y6.8125  
G01 X13.1500 Y6.9864  
G01 X13.1500 Y8.3636  
G01 X13.1154 Y8.5375  
G01 X13.0585 Y8.6750  
G01 X13.1154 Y8.8125  
G01 X13.1500 Y8.9864  
G01 X13.1500 Y10.3636 
G01 X13.1154 Y10.5375 
G01 X13.0585 Y10.6750 
G01 X13.1154 Y10.8125 
G01 X13.1500 Y10.9864 
G01 X13.1500 Y12.3636 
G01 X13.1154 Y12.5375 
G01 X13.0585 Y12.6750 
G01 X13.1154 Y12.8125 
G01 X13.1500 Y12.9864 
G01 X13.1500 Y14.3636 
G01 X13.1154 Y14.5375 
G01 X13.0585 Y14.6750 
G01 X13.1154 Y14.8125 
G01 X13.1500 Y14.9864 
G01 X13.1500 Y16.3636 
G01 X13.1154 Y16.5375 
G01 X13.0585 Y16.6750 
G01 X13.1154 Y16.8125 
G01 X13.1500 Y16.9864 
G01 X13.1500 Y18.3636 
G01 X13.1154 Y18.5375 
G01 X13.0585 Y18.6750 
G01 X13.1154 Y18.8125 
G01 X13.1500 Y18.9864 
G01 X13.1500 Y20.3636 
G01 X13.1154 Y20.5375 
G01 X13.0585 Y20.6750 
G01 X13.1154 Y20.8125 
G01 X13.1500 Y20.9864 
G01 X13.1500 Y22.3636 
G01 X13.1154 Y22.5375 
G01 X13.0476 Y22.7013 
G01 X12.9491 Y22.8487 
G01 X12.8237 Y22.9741 
G01 X12.6763 Y23.0726 
G01 X12.5125 Y23.1404 
G01 X12.3386 Y23.1750 
G01 X9.1614  Y23.1750 
G01 X8.9875  Y23.1404 
G01 X8.8237  Y23.0726 
G01 X8.6763  Y22.9741 
G01 X8.5922  Y22.8900 
G01 X4.3379  Y22.8900 
G01 X4.2273  Y22.9749 
G01 X4.0387  Y23.0838 
G01 X3.8374  Y23.1672 
G01 X3.6269  Y23.2236 
G01 X3.4109  Y23.2520 
G01 X1.6691  Y23.2520 
G01 X1.4531  Y23.2236 
G01 X1.2426  Y23.1672 
G01 X1.0413  Y23.0838 
G01 X0.8527  Y22.9749 
G01 X0.6798  Y22.8422 
G01 X0.5258  Y22.6882 
G01 X0.3931  Y22.5153 
G01 X0.2842  Y22.3267 
G01 X0.2008  Y22.1254 
G01 X0.1444  Y21.9149 
G01 X0.1160  Y21.6989 
G01 X0.1160  Y21.4811 
G01 X0.1444  Y21.2651 
G01 X0.2008  Y21.0546 
G01 X0.2842  Y20.8533 
G01 X0.3931  Y20.6647 
G01 X0.5258  Y20.4918 
G01 X0.6798  Y20.3378 
G01 X0.6798  Y20.3022 
G01 X0.5258  Y20.1482 
G01 X0.3931  Y19.9753 
G01 X0.2842  Y19.7867 
G01 X0.2008  Y19.5854 
G01 X0.1444  Y19.3749 
G01 X0.1160  Y19.1589 
G01 X0.1160  Y18.9411 
G01 X0.1444  Y18.7251 
G01 X0.2008  Y18.5146 
G01 X0.2842  Y18.3133 
G01 X0.3931  Y18.1247 
G01 X0.5258  Y17.9518 
G01 X0.6798  Y17.7978 
G01 X0.6798  Y17.7622 
G01 X0.5258  Y17.6082 
G01 X0.3931  Y17.4353 
G01 X0.2842  Y17.2467 
G01 X0.2008  Y17.0454 
G01 X0.1444  Y16.8349 
G01 X0.1160  Y16.6189 
G01 X0.1160  Y16.4011 
G01 X0.1444  Y16.1851 
G01 X0.2008  Y15.9746 
G01 X0.2842  Y15.7733 
G01 X0.3931  Y15.5847 
G01 X0.5258  Y15.4118 
G01 X0.6798  Y15.2578 
G01 X0.6798  Y15.2222 
G01 X0.5258  Y15.0682 
G01 X0.3931  Y14.8953 
G01 X0.2842  Y14.7067 
G01 X0.2008  Y14.5054 
G01 X0.1444  Y14.2949 
G01 X0.1160  Y14.0789 
G01 X0.1160  Y13.8611 
G01 X0.1444  Y13.6451 
G01 X0.2008  Y13.4346 
G01 X0.2842  Y13.2333 
G01 X0.3931  Y13.0447 
G01 X0.5258  Y12.8718 
G01 X0.6798  Y12.7178 
G01 X0.6798  Y12.6822 
G01 X0.5258  Y12.5282 
G01 X0.3931  Y12.3553 
G01 X0.2842  Y12.1667 
G01 X0.2008  Y11.9654 
G01 X0.1444  Y11.7549 
G01 X0.1160  Y11.5389 
G01 X0.1160  Y11.3211 
G01 X0.1444  Y11.1051 
G01 X0.2008  Y10.8946 
G01 X0.2842  Y10.6933 
G01 X0.3931  Y10.5047 
G01 X0.5258  Y10.3318 
G01 X0.6798  Y10.1778 
G01 X0.6798  Y10.1422 
G01 X0.5258  Y9.9882  
G01 X0.3931  Y9.8153  
G01 X0.2842  Y9.6267  
G01 X0.2008  Y9.4254  
G01 X0.1444  Y9.2149  
G01 X0.1160  Y8.9989  
G01 X0.1160  Y8.7811  
G01 X0.1444  Y8.5651  
G01 X0.2008  Y8.3546  
G01 X0.2842  Y8.1533  
G01 X0.3931  Y7.9647  
G01 X0.5258  Y7.7918  
G01 X0.6798  Y7.6378  
G01 X0.6798  Y7.6022  
G01 X0.5258  Y7.4482  
G01 X0.3931  Y7.2753  
G01 X0.2842  Y7.0867  
G01 X0.2008  Y6.8854  
G01 X0.1444  Y6.6749  
G01 X0.1160  Y6.4589  
G01 X0.1160  Y6.2411  
G01 X0.1444  Y6.0251  
G01 X0.2008  Y5.8146  
G01 X0.2842  Y5.6133  
G01 X0.3931  Y5.4247  
G01 X0.5258  Y5.2518  
G01 X0.6798  Y5.0978  
G01 X0.6798  Y5.0622  
G01 X0.5258  Y4.9082  
G01 X0.3931  Y4.7353  
G01 X0.2842  Y4.5467  
G01 X0.2008  Y4.3454  
G01 X0.1444  Y4.1349  
G01 X0.1160  Y3.9189  
G01 X0.1160  Y3.7011  
G01 X0.1444  Y3.4851  
G01 X0.2008  Y3.2746  
G01 X0.2842  Y3.0733  
G01 X0.3931  Y2.8847  
G01 X0.5258  Y2.7118  
G00 Z3.0000  
G00 X6.1055  Y5.1100  
G01 Z-0.0250 F50    
G01 X6.2140  Y5.1452  F50    
G01 X6.3963  Y5.2381  
G01 X6.5619  Y5.3584  
G01 X6.7066  Y5.5031  
G01 X8.3500  Y7.1465  
G01 X8.3500  Y7.1135  
G01 X6.3465  Y5.1100  
G01 X6.1055  Y5.1100  
G00 Z3.0000  
G00 X5.7515  Y8.2250  
G01 Z-0.0250 F50    
G01 X5.1765  Y7.6500  F50    
G01 X4.4124  Y7.6500  
G01 X4.5542  Y7.7918  
G01 X4.6869  Y7.9647  
G01 X4.7958  Y8.1533  
G01 X4.8255  Y8.2250  
G01 X5.7515  Y8.2250  
G00 Z3.0000  
G00 X24.7500 Y8.3636  
G01 Z-0.0250 F50    
G01 X24.7500 Y6.9864  F50    
G01 X24.7846 Y6.8125  
G01 X24.8524 Y6.6487  
G01 X24.9509 Y6.5013  
G01 X25.0763 Y6.3759  
G01 X25.2237 Y6.2774  
G01 X25.3875 Y6.2096  
G01 X25.5614 Y6.1750  
G01 X25.8500 Y6.1750  
G01 X25.8500 Y5.7677  
G01 X25.8820 Y5.5656  
G01 X25.9452 Y5.3710  
G01 X26.0381 Y5.1886  
G01 X26.1584 Y5.0231  
G01 X26.3031 Y4.8784  
G01 X28.3631 Y2.8184  
G01 X28.5286 Y2.6981  
G01 X28.7110 Y2.6052  
G01 X28.9056 Y2.5420  
G01 X29.1077 Y2.5100  
G01 X33.1271 Y2.5100  
G01 X33.2377 Y2.4251  
G01 X33.4263 Y2.3162  
G01 X33.6276 Y2.2328  
G01 X33.8381 Y2.1764  
G01 X34.0541 Y2.1480  
G01 X35.7959 Y2.1480  
G01 X36.0119 Y2.1764  
G01 X36.2224 Y2.2328  
G01 X36.4237 Y2.3162  
G01 X36.6123 Y2.4251  
G01 X36.7852 Y2.5578  
G01 X36.9392 Y2.7118  
G01 X37.0719 Y2.8847  
G01 X37.1808 Y3.0733  
G01 X37.2642 Y3.2746  
G01 X37.3206 Y3.4851  
G01 X37.3490 Y3.7011  
G01 X37.3490 Y3.9189  
G01 X37.3206 Y4.1349  
G01 X37.2642 Y4.3454  
G01 X37.1808 Y4.5467  
G01 X37.0719 Y4.7353  
G01 X36.9392 Y4.9082  
G01 X36.7852 Y5.0622  
G01 X36.7852 Y5.0978  
G01 X36.9392 Y5.2518  
G01 X37.0719 Y5.4247  
G01 X37.1808 Y5.6133  
G01 X37.2642 Y5.8146  
G01 X37.3206 Y6.0251  
G01 X37.3490 Y6.2411  
G01 X37.3490 Y6.4589  
G01 X37.3206 Y6.6749  
G01 X37.2642 Y6.8854  
G01 X37.1808 Y7.0867  
G01 X37.0719 Y7.2753  
G01 X36.9392 Y7.4482  
G01 X36.7852 Y7.6022  
G01 X36.7852 Y7.6378  
G01 X36.9392 Y7.7918  
G01 X37.0719 Y7.9647  
G01 X37.1808 Y8.1533  
G01 X37.2642 Y8.3546  
G01 X37.3206 Y8.5651  
G01 X37.3490 Y8.7811  
G01 X37.3490 Y8.9989  
G01 X37.3206 Y9.2149  
G01 X37.2642 Y9.4254  
G01 X37.1808 Y9.6267  
G01 X37.0719 Y9.8153  
G01 X36.9392 Y9.9882  
G01 X36.7852 Y10.1422 
G01 X36.7852 Y10.1778 
G01 X36.9392 Y10.3318 
G01 X37.0719 Y10.5047 
G01 X37.1808 Y10.6933 
G01 X37.2642 Y10.8946 
G01 X37.3206 Y11.1051 
G01 X37.3490 Y11.3211 
G01 X37.3490 Y11.5389 
G01 X37.3206 Y11.7549 
G01 X37.2642 Y11.9654 
G01 X37.1808 Y12.1667 
G01 X37.0719 Y12.3553 
G01 X36.9392 Y12.5282 
G01 X36.7852 Y12.6822 
G01 X36.7852 Y12.7178 
G01 X36.9392 Y12.8718 
G01 X37.0719 Y13.0447 
G01 X37.1808 Y13.2333 
G01 X37.2642 Y13.4346 
G01 X37.3206 Y13.6451 
G01 X37.3490 Y13.8611 
G01 X37.3490 Y14.0789 
G01 X37.3206 Y14.2949 
G01 X37.2642 Y14.5054 
G01 X37.1808 Y14.7067 
G01 X37.0719 Y14.8953 
G01 X36.9392 Y15.0682 
G01 X36.7852 Y15.2222 
G01 X36.7852 Y15.2578 
G01 X36.9392 Y15.4118 
G01 X37.0719 Y15.5847 
G01 X37.1808 Y15.7733 
G01 X37.2642 Y15.9746 
G01 X37.3206 Y16.1851 
G01 X37.3490 Y16.4011 
G01 X37.3490 Y16.6189 
G01 X37.3206 Y16.8349 
G01 X37.2642 Y17.0454 
G01 X37.1808 Y17.2467 
G01 X37.0719 Y17.4353 
G01 X36.9392 Y17.6082 
G01 X36.7852 Y17.7622 
G01 X36.7852 Y17.7978 
G01 X36.9392 Y17.9518 
G01 X37.0719 Y18.1247 
G01 X37.1808 Y18.3133 
G01 X37.2642 Y18.5146 
G01 X37.3206 Y18.7251 
G01 X37.3490 Y18.9411 
G01 X37.3490 Y19.1589 
G01 X37.3206 Y19.3749 
G01 X37.2642 Y19.5854 
G01 X37.1808 Y19.7867 
G01 X37.0719 Y19.9753 
G01 X36.9392 Y20.1482 
G01 X36.7852 Y20.3022 
G01 X36.7852 Y20.3378 
G01 X36.9392 Y20.4918 
G01 X37.0719 Y20.6647 
G01 X37.1808 Y20.8533 
G01 X37.2642 Y21.0546 
G01 X37.3206 Y21.2651 
G01 X37.3490 Y21.4811 
G01 X37.3490 Y21.6989 
G01 X37.3206 Y21.9149 
G01 X37.2642 Y22.1254 
G01 X37.1808 Y22.3267 
G01 X37.0719 Y22.5153 
G01 X36.9392 Y22.6882 
G01 X36.7852 Y22.8422 
G01 X36.6123 Y22.9749 
G01 X36.4237 Y23.0838 
G01 X36.2224 Y23.1672 
G01 X36.0119 Y23.2236 
G01 X35.7959 Y23.2520 
G01 X34.0541 Y23.2520 
G01 X33.8381 Y23.2236 
G01 X33.6276 Y23.1672 
G01 X33.4263 Y23.0838 
G01 X33.2377 Y22.9749 
G01 X33.1271 Y22.8900 
G01 X29.3078 Y22.8900 
G01 X29.2237 Y22.9741 
G01 X29.0763 Y23.0726 
G01 X28.9125 Y23.1404 
G01 X28.7386 Y23.1750 
G01 X25.5614 Y23.1750 
G01 X25.3875 Y23.1404 
G01 X25.2237 Y23.0726 
G01 X25.0763 Y22.9741 
G01 X24.9509 Y22.8487 
G01 X24.8524 Y22.7013 
G01 X24.7846 Y22.5375 
G01 X24.7500 Y22.3636 
G01 X24.7500 Y20.9864 
G01 X24.7846 Y20.8125 
G01 X24.8415 Y20.6750 
G01 X24.7846 Y20.5375 
G01 X24.7500 Y20.3636 
G01 X24.7500 Y18.9864 
G01 X24.7846 Y18.8125 
G01 X24.8415 Y18.6750 
G01 X24.7846 Y18.5375 
G01 X24.7500 Y18.3636 
G01 X24.7500 Y16.9864 
G01 X24.7846 Y16.8125 
G01 X24.8415 Y16.6750 
G01 X24.7846 Y16.5375 
G01 X24.7500 Y16.3636 
G01 X24.7500 Y14.9864 
G01 X24.7846 Y14.8125 
G01 X24.8415 Y14.6750 
G01 X24.7846 Y14.5375 
G01 X24.7500 Y14.3636 
G01 X24.7500 Y12.9864 
G01 X24.7846 Y12.8125 
G01 X24.8415 Y12.6750 
G01 X24.7846 Y12.5375 
G01 X24.7500 Y12.3636 
G01 X24.7500 Y10.9864 
G01 X24.7846 Y10.8125 
G01 X24.8415 Y10.6750 
G01 X24.7846 Y10.5375 
G01 X24.7500 Y10.3636 
G01 X24.7500 Y8.9864  
G01 X24.7846 Y8.8125  
G01 X24.8415 Y8.6750  
G01 X24.7846 Y8.5375  
G01 X24.7500 Y8.3636  
G00 Z3.0000  
G00 X28.6835 Y6.1750  
G01 Z-0.0250 F50    
G01 X28.7386 Y6.1750  F50    
G01 X28.9125 Y6.2096  
G01 X28.9904 Y6.2419  
G01 X29.0309 Y6.1813  
G01 X29.1563 Y6.0559  
G01 X29.3037 Y5.9574  
G01 X29.4675 Y5.8896  
G01 X29.6414 Y5.8550  
G01 X30.4171 Y5.8550  
G01 X31.2066 Y5.2941  
G01 X31.2837 Y5.2381  
G01 X31.3811 Y5.1885  
G01 X31.4660 Y5.1452  
G01 X31.5699 Y5.1115  
G01 X29.7485 Y5.1100  
G01 X28.6835 Y6.1750  
G00 Z3.0000  
G00 X32.1300 Y7.8274  
G01 Z-0.0250 F50    
G01 X32.1300 Y8.1436  F50    
G01 X32.1078 Y8.2550  
G01 X32.1300 Y8.3664  
G01 X32.1300 Y8.5765  
G01 X32.8081 Y7.8984  
G01 X32.8552 Y7.8642  
G01 X32.9108 Y7.7918  
G01 X33.0526 Y7.6500  
G01 X32.3798 Y7.6500  
G01 X32.1300 Y7.8274  
G00 Z3.0000  
G00 X4.9382  Y7.9000  
G01 Z-0.0250 F50    
G01 X4.9815  Y7.9750  F50    
G01 X5.1480  Y7.9750  
G01 X5.0730  Y7.9000  
G01 X4.9382  Y7.9000  
G00 Z3.0000  
G00 X29.6009 Y5.6111  
G01 Z-0.0250 F50    
G01 X29.6395 Y5.6050  F50    
G01 X30.3374 Y5.6050  
G01 X30.6822 Y5.3600  
G01 X29.8520 Y5.3600  
G01 X29.6009 Y5.6111  
G00 Z3.0000  
G00 X32.3800 Y7.9565  
G01 Z-0.0250 F50    
G01 X32.3800 Y7.9730  F50    
G01 X32.4369 Y7.9161  
G01 X32.3800 Y7.9565  
G00 Z3.0000  
G82 X2.5400  Y3.8100  Z-0.0375 F50    R3.0000  P0.000000
G00 X2.5400  Y6.3500  
G01 Z-0.0375 F50    
G00 Z3.0000  
G00 X2.5400  Y8.8900  
G01 Z-0.0375 F50    
G00 Z3.0000  
G00 X2.5400  Y11.4300 
G01 Z-0.0375 F50    
G00 Z3.0000  
G00 X2.5400  Y13.9700 
G01 Z-0.0375 F50    
G00 Z3.0000  
G00 X2.5400  Y16.5100 
G01 Z-0.0375 F50    
G00 Z3.0000  
G00 X2.5400  Y19.0500 
G01 Z-0.0375 F50    
G00 Z3.0000  
G00 X2.5400  Y21.5900 
G01 Z-0.0375 F50    
G00 Z3.0000  
G00 X34.9250 Y21.5900 
G01 Z-0.0375 F50    
G00 Z3.0000  
G00 X34.9250 Y19.0500 
G01 Z-0.0375 F50    
G00 Z3.0000  
G00 X34.9250 Y16.5100 
G01 Z-0.0375 F50    
G00 Z3.0000  
G00 X34.9250 Y13.9700 
G01 Z-0.0375 F50    
G00 Z3.0000  
G00 X34.9250 Y11.4300 
G01 Z-0.0375 F50    
G00 Z3.0000  
G00 X34.9250 Y8.8900  
G01 Z-0.0375 F50    
G00 Z3.0000  
G00 X34.9250 Y6.3500  
G01 Z-0.0375 F50    
G00 Z3.0000  
G00 X34.9250 Y3.8100  
G01 Z-0.0375 F50    
G00 Z3.0000  
M05
M02
